bench/results/pilot_a/clean_cool_handmade.cube
TITLE "Clean Cool (hand-made)"
LUT_3D_SIZE 33
DOMAIN_MIN 0.0 0.0 0.0
DOMAIN_MAX 1.0 1.0 1.0
0.000000 0.000000 0.008533
0.000000 0.000000 0.009251
0.016859 0.000000 0.009968
0.042321 0.000000 0.010685
0.067784 0.000000 0.011402
0.093246 0.000000 0.012120
0.118709 0.000000 0.012837
0.144172 0.000000 0.013554
0.169634 0.000000 0.014271
0.199218 0.000000 0.015105
0.228801 0.000000 0.015938
0.258384 0.000000 0.016771
0.287968 0.000000 0.017605
0.317551 0.000000 0.018438
0.347134 0.000000 0.019271
0.376718 0.000000 0.020105
0.406301 0.000000 0.020938
0.435884 0.000000 0.021771
0.465468 0.000000 0.022605
0.495051 0.000000 0.023438
0.524634 0.000000 0.024271
0.554218 0.000000 0.025105
0.583801 0.000000 0.025938
0.613384 0.000000 0.026771
0.642968 0.000000 0.027605
0.672551 0.000000 0.028438
0.702134 0.000000 0.029271
0.731718 0.000000 0.030105
0.761301 0.000000 0.030938
0.790884 0.000000 0.031771
0.820468 0.000000 0.032605
0.850051 0.000438 0.033438
0.879634 0.001271 0.034271
0.000000 0.005117 0.009367
0.000000 0.005834 0.010084
0.017692 0.006551 0.010801
0.043155 0.007268 0.011518
0.068617 0.007986 0.012236
0.094080 0.008703 0.012953
0.119542 0.009420 0.013670
0.145005 0.010137 0.014387
0.170468 0.010855 0.015105
0.200051 0.011688 0.015938
0.229634 0.012521 0.016771
0.259218 0.013355 0.017605
0.288801 0.014188 0.018438
0.318384 0.015021 0.019271
0.347968 0.015855 0.020105
0.377551 0.016688 0.020938
0.407134 0.017521 0.021771
0.436718 0.018355 0.022605
0.466301 0.019188 0.023438
0.495884 0.020021 0.024271
0.525468 0.020855 0.025105
0.555051 0.021688 0.025938
0.584634 0.022521 0.026771
0.614218 0.023355 0.027605
0.643801 0.024188 0.028438
0.673384 0.025021 0.029271
0.702968 0.025855 0.030105
0.732551 0.026688 0.030938
0.762134 0.027521 0.031771
0.791718 0.028355 0.032605
0.821301 0.029188 0.033438
0.850884 0.030021 0.034271
0.880468 0.030855 0.035105
0.000000 0.034700 0.010200
0.000000 0.035417 0.010917
0.018525 0.036135 0.011635
0.043988 0.036852 0.012352
0.069450 0.037569 0.013069
0.094913 0.038286 0.013786
0.120376 0.039004 0.014504
0.145838 0.039721 0.015221
0.171301 0.040438 0.015938
0.200884 0.041271 0.016771
0.230468 0.042105 0.017605
0.260051 0.042938 0.018438
0.289634 0.043771 0.019271
0.319218 0.044605 0.020105
0.348801 0.045438 0.020938
0.378384 0.046271 0.021771
0.407968 0.047105 0.022605
0.437551 0.047938 0.023438
0.467134 0.048771 0.024271
0.496718 0.049605 0.025105
0.526301 0.050438 0.025938
0.555884 0.051271 0.026771
0.585468 0.052105 0.027605
0.615051 0.052938 0.028438
0.644634 0.053771 0.029271
0.674218 0.054605 0.030105
0.703801 0.055438 0.030938
0.733384 0.056271 0.031771
0.762968 0.057105 0.032605
0.792551 0.057938 0.033438
0.822134 0.058771 0.034271
0.851718 0.059605 0.035105
0.881301 0.060438 0.035938
0.000000 0.064283 0.011033
0.000000 0.065001 0.011751
0.019359 0.065718 0.012468
0.044821 0.066435 0.013185
0.070284 0.067152 0.013902
0.095746 0.067870 0.014620
0.121209 0.068587 0.015337
0.146672 0.069304 0.016054
0.172134 0.070021 0.016771
0.201718 0.070855 0.017605
0.231301 0.071688 0.018438
0.260884 0.072521 0.019271
0.290468 0.073355 0.020105
0.320051 0.074188 0.020938
0.349634 0.075021 0.021771
0.379218 0.075855 0.022605
0.408801 0.076688 0.023438
0.438384 0.077521 0.024271
0.467968 0.078355 0.025105
0.497551 0.079188 0.025938
0.527134 0.080021 0.026771
0.556718 0.080855 0.027605
0.586301 0.081688 0.028438
0.615884 0.082521 0.029271
0.645468 0.083355 0.030105
0.675051 0.084188 0.030938
0.704634 0.085021 0.031771
0.734218 0.085855 0.032605
0.763801 0.086688 0.033438
0.793384 0.087521 0.034271
0.822968 0.088355 0.035105
0.852551 0.089188 0.035938
0.882134 0.090021 0.036771
0.000000 0.093867 0.011867
0.000000 0.094584 0.012584
0.020192 0.095301 0.013301
0.045655 0.096018 0.014018
0.071117 0.096736 0.014736
0.096580 0.097453 0.015453
0.122042 0.098170 0.016170
0.147505 0.098887 0.016887
0.172968 0.099605 0.017605
0.202551 0.100438 0.018438
0.232134 0.101271 0.019271
0.261718 0.102105 0.020105
0.291301 0.102938 0.020938
0.320884 0.103771 0.021771
0.350468 0.104605 0.022605
0.380051 0.105438 0.023438
0.409634 0.106271 0.024271
0.439218 0.107105 0.025105
0.468801 0.107938 0.025938
0.498384 0.108771 0.026771
0.527968 0.109605 0.027605
0.557551 0.110438 0.028438
0.587134 0.111271 0.029271
0.616718 0.112105 0.030105
0.646301 0.112938 0.030938
0.675884 0.113771 0.031771
0.705468 0.114605 0.032605
0.735051 0.115438 0.033438
0.764634 0.116271 0.034271
0.794218 0.117105 0.035105
0.823801 0.117938 0.035938
0.853384 0.118771 0.036771
0.882968 0.119605 0.037605
0.000000 0.123450 0.012700
0.000000 0.124167 0.013417
0.021025 0.124885 0.014135
0.046488 0.125602 0.014852
0.071950 0.126319 0.015569
0.097413 0.127036 0.016286
0.122876 0.127754 0.017004
0.148338 0.128471 0.017721
0.173801 0.129188 0.018438
0.203384 0.130021 0.019271
0.232968 0.130855 0.020105
0.262551 0.131688 0.020938
0.292134 0.132521 0.021771
0.321718 0.133355 0.022605
0.351301 0.134188 0.023438
0.380884 0.135021 0.024271
0.410468 0.135855 0.025105
0.440051 0.136688 0.025938
0.469634 0.137521 0.026771
0.499218 0.138355 0.027605
0.528801 0.139188 0.028438
0.558384 0.140021 0.029271
0.587968 0.140855 0.030105
0.617551 0.141688 0.030938
0.647134 0.142521 0.031771
0.676718 0.143355 0.032605
0.706301 0.144188 0.033438
0.735884 0.145021 0.034271
0.765468 0.145855 0.035105
0.795051 0.146688 0.035938
0.824634 0.147521 0.036771
0.854218 0.148355 0.037605
0.883801 0.149188 0.038438
0.000000 0.153033 0.013533
0.000000 0.153751 0.014251
0.021859 0.154468 0.014968
0.047321 0.155185 0.015685
0.072784 0.155902 0.016402
0.098246 0.156620 0.017120
0.123709 0.157337 0.017837
0.149172 0.158054 0.018554
0.174634 0.158771 0.019271
0.204218 0.159605 0.020105
0.233801 0.160438 0.020938
0.263384 0.161271 0.021771
0.292968 0.162105 0.022605
0.322551 0.162938 0.023438
0.352134 0.163771 0.024271
0.381718 0.164605 0.025105
0.411301 0.165438 0.025938
0.440884 0.166271 0.026771
0.470468 0.167105 0.027605
0.500051 0.167938 0.028438
0.529634 0.168771 0.029271
0.559218 0.169605 0.030105
0.588801 0.170438 0.030938
0.618384 0.171271 0.031771
0.647968 0.172105 0.032605
0.677551 0.172938 0.033438
0.707134 0.173771 0.034271
0.736718 0.174605 0.035105
0.766301 0.175438 0.035938
0.795884 0.176271 0.036771
0.825468 0.177105 0.037605
0.855051 0.177938 0.038438
0.884634 0.178771 0.039271
0.000000 0.182617 0.014367
0.000000 0.183334 0.015084
0.022692 0.184051 0.015801
0.048155 0.184768 0.016518
0.073617 0.185486 0.017236
0.099080 0.186203 0.017953
0.124542 0.186920 0.018670
0.150005 0.187637 0.019387
0.175468 0.188355 0.020105
0.205051 0.189188 0.020938
0.234634 0.190021 0.021771
0.264218 0.190855 0.022605
0.293801 0.191688 0.023438
0.323384 0.192521 0.024271
0.352968 0.193355 0.025105
0.382551 0.194188 0.025938
0.412134 0.195021 0.026771
0.441718 0.195855 0.027605
0.471301 0.196688 0.028438
0.500884 0.197521 0.029271
0.530468 0.198355 0.030105
0.560051 0.199188 0.030938
0.589634 0.200021 0.031771
0.619218 0.200855 0.032605
0.648801 0.201688 0.033438
0.678384 0.202521 0.034271
0.707968 0.203355 0.035105
0.737551 0.204188 0.035938
0.767134 0.205021 0.036771
0.796718 0.205855 0.037605
0.826301 0.206688 0.038438
0.855884 0.207521 0.039271
0.885468 0.208355 0.040105
0.000000 0.212200 0.015200
0.000000 0.212917 0.015917
0.023525 0.213635 0.016635
0.048988 0.214352 0.017352
0.074450 0.215069 0.018069
0.099913 0.215786 0.018786
0.125376 0.216504 0.019504
0.150838 0.217221 0.020221
0.176301 0.217938 0.020938
0.205884 0.218771 0.021771
0.235468 0.219605 0.022605
0.265051 0.220438 0.023438
0.294634 0.221271 0.024271
0.324218 0.222105 0.025105
0.353801 0.222938 0.025938
0.383384 0.223771 0.026771
0.412968 0.224605 0.027605
0.442551 0.225438 0.028438
0.472134 0.226271 0.029271
0.501718 0.227105 0.030105
0.531301 0.227938 0.030938
0.560884 0.228771 0.031771
0.590468 0.229605 0.032605
0.620051 0.230438 0.033438
0.649634 0.231271 0.034271
0.679218 0.232105 0.035105
0.708801 0.232938 0.035938
0.738384 0.233771 0.036771
0.767968 0.234605 0.037605
0.797551 0.235438 0.038438
0.827134 0.236271 0.039271
0.856718 0.237105 0.040105
0.886301 0.237938 0.040938
0.000000 0.241783 0.016033
0.000000 0.242501 0.016751
0.024359 0.243218 0.017468
0.049821 0.243935 0.018185
0.075284 0.244652 0.018902
0.100746 0.245370 0.019620
0.126209 0.246087 0.020337
0.151672 0.246804 0.021054
0.177134 0.247521 0.021771
0.206718 0.248355 0.022605
0.236301 0.249188 0.023438
0.265884 0.250021 0.024271
0.295468 0.250855 0.025105
0.325051 0.251688 0.025938
0.354634 0.252521 0.026771
0.384218 0.253355 0.027605
0.413801 0.254188 0.028438
0.443384 0.255021 0.029271
0.472968 0.255855 0.030105
0.502551 0.256688 0.030938
0.532134 0.257521 0.031771
0.561718 0.258355 0.032605
0.591301 0.259188 0.033438
0.620884 0.260021 0.034271
0.650468 0.260855 0.035105
0.680051 0.261688 0.035938
0.709634 0.262521 0.036771
0.739218 0.263355 0.037605
0.768801 0.264188 0.038438
0.798384 0.265021 0.039271
0.827968 0.265855 0.040105
0.857551 0.266688 0.040938
0.887134 0.267521 0.041771
0.000000 0.271367 0.016867
0.000000 0.272084 0.017584
0.025192 0.272801 0.018301
0.050655 0.273518 0.019018
0.076117 0.274236 0.019736
0.101580 0.274953 0.020453
0.127042 0.275670 0.021170
0.152505 0.276387 0.021887
0.177968 0.277105 0.022605
0.207551 0.277938 0.023438
0.237134 0.278771 0.024271
0.266718 0.279605 0.025105
0.296301 0.280438 0.025938
0.325884 0.281271 0.026771
0.355468 0.282105 0.027605
0.385051 0.282938 0.028438
0.414634 0.283771 0.029271
0.444218 0.284605 0.030105
0.473801 0.285438 0.030938
0.503384 0.286271 0.031771
0.532968 0.287105 0.032605
0.562551 0.287938 0.033438
0.592134 0.288771 0.034271
0.621718 0.289605 0.035105
0.651301 0.290438 0.035938
0.680884 0.291271 0.036771
0.710468 0.292105 0.037605
0.740051 0.292938 0.038438
0.769634 0.293771 0.039271
0.799218 0.294605 0.040105
0.828801 0.295438 0.040938
0.858384 0.296271 0.041771
0.887968 0.297105 0.042605
0.000000 0.300950 0.017700
0.000563 0.301667 0.018417
0.026025 0.302384 0.019135
0.051488 0.303102 0.019852
0.076950 0.303819 0.020569
0.102413 0.304536 0.021286
0.127876 0.305254 0.022004
0.153338 0.305971 0.022721
0.178801 0.306688 0.023438
0.208384 0.307521 0.024271
0.237968 0.308355 0.025105
0.267551 0.309188 0.025938
0.297134 0.310021 0.026771
0.326718 0.310855 0.027605
0.356301 0.311688 0.028438
0.385884 0.312521 0.029271
0.415468 0.313355 0.030105
0.445051 0.314188 0.030938
0.474634 0.315021 0.031771
0.504218 0.315855 0.032605
0.533801 0.316688 0.033438
0.563384 0.317521 0.034271
0.592968 0.318355 0.035105
0.622551 0.319188 0.035938
0.652134 0.320021 0.036771
0.681718 0.320855 0.037605
0.711301 0.321688 0.038438
0.740884 0.322521 0.039271
0.770468 0.323355 0.040105
0.800051 0.324188 0.040938
0.829634 0.325021 0.041771
0.859218 0.325855 0.042605
0.888801 0.326688 0.043438
0.000000 0.330533 0.018533
0.001396 0.331251 0.019251
0.026859 0.331968 0.019968
0.052321 0.332685 0.020685
0.077784 0.333402 0.021402
0.103246 0.334120 0.022120
0.128709 0.334837 0.022837
0.154172 0.335554 0.023554
0.179634 0.336271 0.024271
0.209218 0.337105 0.025105
0.238801 0.337938 0.025938
0.268384 0.338771 0.026771
0.297968 0.339605 0.027605
0.327551 0.340438 0.028438
0.357134 0.341271 0.029271
0.386718 0.342105 0.030105
0.416301 0.342938 0.030938
0.445884 0.343771 0.031771
0.475468 0.344605 0.032605
0.505051 0.345438 0.033438
0.534634 0.346271 0.034271
0.564218 0.347105 0.035105
0.593801 0.347938 0.035938
0.623384 0.348771 0.036771
0.652968 0.349605 0.037605
0.682551 0.350438 0.038438
0.712134 0.351271 0.039271
0.741718 0.352105 0.040105
0.771301 0.352938 0.040938
0.800884 0.353771 0.041771
0.830468 0.354605 0.042605
0.860051 0.355438 0.043438
0.889634 0.356271 0.044271
0.000000 0.360117 0.019367
0.002229 0.360834 0.020084
0.027692 0.361551 0.020801
0.053155 0.362268 0.021518
0.078617 0.362986 0.022236
0.104080 0.363703 0.022953
0.129542 0.364420 0.023670
0.155005 0.365137 0.024387
0.180468 0.365855 0.025105
0.210051 0.366688 0.025938
0.239634 0.367521 0.026771
0.269218 0.368355 0.027605
0.298801 0.369188 0.028438
0.328384 0.370021 0.029271
0.357968 0.370855 0.030105
0.387551 0.371688 0.030938
0.417134 0.372521 0.031771
0.446718 0.373355 0.032605
0.476301 0.374188 0.033438
0.505884 0.375021 0.034271
0.535468 0.375855 0.035105
0.565051 0.376688 0.035938
0.594634 0.377521 0.036771
0.624218 0.378355 0.037605
0.653801 0.379188 0.038438
0.683384 0.380021 0.039271
0.712968 0.380855 0.040105
0.742551 0.381688 0.040938
0.772134 0.382521 0.041771
0.801718 0.383355 0.042605
0.831301 0.384188 0.043438
0.860884 0.385021 0.044271
0.890468 0.385855 0.045105
0.000000 0.389700 0.020200
0.003063 0.390417 0.020917
0.028525 0.391135 0.021635
0.053988 0.391852 0.022352
0.079450 0.392569 0.023069
0.104913 0.393286 0.023786
0.130376 0.394004 0.024504
0.155838 0.394721 0.025221
0.181301 0.395438 0.025938
0.210884 0.396271 0.026771
0.240468 0.397105 0.027605
0.270051 0.397938 0.028438
0.299634 0.398771 0.029271
0.329218 0.399605 0.030105
0.358801 0.400438 0.030938
0.388384 0.401271 0.031771
0.417968 0.402105 0.032605
0.447551 0.402938 0.033438
0.477134 0.403771 0.034271
0.506718 0.404605 0.035105
0.536301 0.405438 0.035938
0.565884 0.406271 0.036771
0.595468 0.407105 0.037605
0.625051 0.407938 0.038438
0.654634 0.408771 0.039271
0.684218 0.409605 0.040105
0.713801 0.410438 0.040938
0.743384 0.411271 0.041771
0.772968 0.412105 0.042605
0.802551 0.412938 0.043438
0.832134 0.413771 0.044271
0.861718 0.414605 0.045105
0.891301 0.415438 0.045938
0.000000 0.419283 0.021033
0.003896 0.420001 0.021751
0.029359 0.420718 0.022468
0.054821 0.421435 0.023185
0.080284 0.422152 0.023902
0.105746 0.422870 0.024620
0.131209 0.423587 0.025337
0.156672 0.424304 0.026054
0.182134 0.425021 0.026771
0.211718 0.425855 0.027605
0.241301 0.426688 0.028438
0.270884 0.427521 0.029271
0.300468 0.428355 0.030105
0.330051 0.429188 0.030938
0.359634 0.430021 0.031771
0.389218 0.430855 0.032605
0.418801 0.431688 0.033438
0.448384 0.432521 0.034271
0.477968 0.433355 0.035105
0.507551 0.434188 0.035938
0.537134 0.435021 0.036771
0.566718 0.435855 0.037605
0.596301 0.436688 0.038438
0.625884 0.437521 0.039271
0.655468 0.438355 0.040105
0.685051 0.439188 0.040938
0.714634 0.440021 0.041771
0.744218 0.440855 0.042605
0.773801 0.441688 0.043438
0.803384 0.442521 0.044271
0.832968 0.443355 0.045105
0.862551 0.444188 0.045938
0.892134 0.445021 0.046771
0.000000 0.448867 0.021867
0.004729 0.449584 0.022584
0.030192 0.450301 0.023301
0.055654 0.451018 0.024018
0.081117 0.451736 0.024736
0.106580 0.452453 0.025453
0.132042 0.453170 0.026170
0.157505 0.453887 0.026887
0.182968 0.454605 0.027605
0.212551 0.455438 0.028438
0.242134 0.456271 0.029271
0.271718 0.457105 0.030105
0.301301 0.457938 0.030938
0.330884 0.458771 0.031771
0.360468 0.459605 0.032605
0.390051 0.460438 0.033438
0.419634 0.461271 0.034271
0.449218 0.462105 0.035105
0.478801 0.462938 0.035938
0.508384 0.463771 0.036771
0.537968 0.464605 0.037605
0.567551 0.465438 0.038438
0.597134 0.466271 0.039271
0.626718 0.467105 0.040105
0.656301 0.467938 0.040938
0.685884 0.468771 0.041771
0.715468 0.469605 0.042605
0.745051 0.470438 0.043438
0.774634 0.471271 0.044271
0.804218 0.472105 0.045105
0.833801 0.472938 0.045938
0.863384 0.473771 0.046771
0.892968 0.474605 0.047605
0.000000 0.478450 0.022700
0.005563 0.479167 0.023417
0.031025 0.479885 0.024135
0.056488 0.480602 0.024852
0.081950 0.481319 0.025569
0.107413 0.482036 0.026286
0.132876 0.482754 0.027004
0.158338 0.483471 0.027721
0.183801 0.484188 0.028438
0.213384 0.485021 0.029271
0.242968 0.485855 0.030105
0.272551 0.486688 0.030938
0.302134 0.487521 0.031771
0.331718 0.488355 0.032605
0.361301 0.489188 0.033438
0.390884 0.490021 0.034271
0.420468 0.490855 0.035105
0.450051 0.491688 0.035938
0.479634 0.492521 0.036771
0.509218 0.493355 0.037605
0.538801 0.494188 0.038438
0.568384 0.495021 0.039271
0.597968 0.495855 0.040105
0.627551 0.496688 0.040938
0.657134 0.497521 0.041771
0.686718 0.498355 0.042605
0.716301 0.499188 0.043438
0.745884 0.500021 0.044271
0.775468 0.500855 0.045105
0.805051 0.501688 0.045938
0.834634 0.502521 0.046771
0.864218 0.503355 0.047605
0.893801 0.504188 0.048438
0.000000 0.508033 0.023533
0.006396 0.508751 0.024251
0.031859 0.509468 0.024968
0.057321 0.510185 0.025685
0.082784 0.510902 0.026402
0.108246 0.511620 0.027120
0.133709 0.512337 0.027837
0.159172 0.513054 0.028554
0.184634 0.513771 0.029271
0.214218 0.514605 0.030105
0.243801 0.515438 0.030938
0.273384 0.516271 0.031771
0.302968 0.517105 0.032605
0.332551 0.517938 0.033438
0.362134 0.518771 0.034271
0.391718 0.519605 0.035105
0.421301 0.520438 0.035938
0.450884 0.521271 0.036771
0.480468 0.522105 0.037605
0.510051 0.522938 0.038438
0.539634 0.523771 0.039271
0.569218 0.524605 0.040105
0.598801 0.525438 0.040938
0.628384 0.526271 0.041771
0.657968 0.527105 0.042605
0.687551 0.527938 0.043438
0.717134 0.528771 0.044271
0.746718 0.529605 0.045105
0.776301 0.530438 0.045938
0.805884 0.531271 0.046771
0.835468 0.532105 0.047605
0.865051 0.532938 0.048438
0.894634 0.533771 0.049271
0.000000 0.537617 0.024367
0.007229 0.538334 0.025084
0.032692 0.539051 0.025801
0.058155 0.539768 0.026518
0.083617 0.540486 0.027236
0.109080 0.541203 0.027953
0.134542 0.541920 0.028670
0.160005 0.542637 0.029387
0.185468 0.543355 0.030105
0.215051 0.544188 0.030938
0.244634 0.545021 0.031771
0.274218 0.545855 0.032605
0.303801 0.546688 0.033438
0.333384 0.547521 0.034271
0.362968 0.548355 0.035105
0.392551 0.549188 0.035938
0.422134 0.550021 0.036771
0.451718 0.550855 0.037605
0.481301 0.551688 0.038438
0.510884 0.552521 0.039271
0.540468 0.553355 0.040105
0.570051 0.554188 0.040938
0.599634 0.555021 0.041771
0.629218 0.555855 0.042605
0.658801 0.556688 0.043438
0.688384 0.557521 0.044271
0.717968 0.558355 0.045105
0.747551 0.559188 0.045938
0.777134 0.560021 0.046771
0.806718 0.560855 0.047605
0.836301 0.561688 0.048438
0.865884 0.562521 0.049271
0.895468 0.563355 0.050105
0.000000 0.567200 0.025200
0.008063 0.567917 0.025917
0.033525 0.568635 0.026635
0.058988 0.569352 0.027352
0.084450 0.570069 0.028069
0.109913 0.570786 0.028786
0.135376 0.571504 0.029504
0.160838 0.572221 0.030221
0.186301 0.572938 0.030938
0.215884 0.573771 0.031771
0.245468 0.574605 0.032605
0.275051 0.575438 0.033438
0.304634 0.576271 0.034271
0.334218 0.577105 0.035105
0.363801 0.577938 0.035938
0.393384 0.578771 0.036771
0.422968 0.579605 0.037605
0.452551 0.580438 0.038438
0.482134 0.581271 0.039271
0.511718 0.582105 0.040105
0.541301 0.582938 0.040938
0.570884 0.583771 0.041771
0.600468 0.584605 0.042605
0.630051 0.585438 0.043438
0.659634 0.586271 0.044271
0.689218 0.587105 0.045105
0.718801 0.587938 0.045938
0.748384 0.588771 0.046771
0.777968 0.589605 0.047605
0.807551 0.590438 0.048438
0.837134 0.591271 0.049271
0.866718 0.592105 0.050105
0.896301 0.592938 0.050938
0.000000 0.596783 0.026033
0.008896 0.597501 0.026751
0.034359 0.598218 0.027468
0.059821 0.598935 0.028185
0.085284 0.599652 0.028902
0.110746 0.600370 0.029620
0.136209 0.601087 0.030337
0.161672 0.601804 0.031054
0.187134 0.602521 0.031771
0.216718 0.603355 0.032605
0.246301 0.604188 0.033438
0.275884 0.605021 0.034271
0.305468 0.605855 0.035105
0.335051 0.606688 0.035938
0.364634 0.607521 0.036771
0.394218 0.608355 0.037605
0.423801 0.609188 0.038438
0.453384 0.610021 0.039271
0.482968 0.610855 0.040105
0.512551 0.611688 0.040938
0.542134 0.612521 0.041771
0.571718 0.613355 0.042605
0.601301 0.614188 0.043438
0.630884 0.615021 0.044271
0.660468 0.615855 0.045105
0.690051 0.616688 0.045938
0.719634 0.617521 0.046771
0.749218 0.618355 0.047605
0.778801 0.619188 0.048438
0.808384 0.620021 0.049271
0.837968 0.620855 0.050105
0.867551 0.621688 0.050938
0.897134 0.622521 0.051771
0.000000 0.626367 0.026867
0.009729 0.627084 0.027584
0.035192 0.627801 0.028301
0.060655 0.628518 0.029018
0.086117 0.629236 0.029736
0.111580 0.629953 0.030453
0.137042 0.630670 0.031170
0.162505 0.631387 0.031887
0.187968 0.632105 0.032605
0.217551 0.632938 0.033438
0.247134 0.633771 0.034271
0.276718 0.634605 0.035105
0.306301 0.635438 0.035938
0.335884 0.636271 0.036771
0.365468 0.637105 0.037605
0.395051 0.637938 0.038438
0.424634 0.638771 0.039271
0.454218 0.639605 0.040105
0.483801 0.640438 0.040938
0.513384 0.641271 0.041771
0.542968 0.642105 0.042605
0.572551 0.642938 0.043438
0.602134 0.643771 0.044271
0.631718 0.644605 0.045105
0.661301 0.645438 0.045938
0.690884 0.646271 0.046771
0.720468 0.647105 0.047605
0.750051 0.647938 0.048438
0.779634 0.648771 0.049271
0.809218 0.649605 0.050105
0.838801 0.650438 0.050938
0.868384 0.651271 0.051771
0.897968 0.652105 0.052605
0.000000 0.655950 0.027700
0.010563 0.656667 0.028417
0.036025 0.657385 0.029135
0.061488 0.658102 0.029852
0.086950 0.658819 0.030569
0.112413 0.659536 0.031286
0.137876 0.660254 0.032004
0.163338 0.660971 0.032721
0.188801 0.661688 0.033438
0.218384 0.662521 0.034271
0.247968 0.663355 0.035105
0.277551 0.664188 0.035938
0.307134 0.665021 0.036771
0.336718 0.665855 0.037605
0.366301 0.666688 0.038438
0.395884 0.667521 0.039271
0.425468 0.668355 0.040105
0.455051 0.669188 0.040938
0.484634 0.670021 0.041771
0.514218 0.670855 0.042605
0.543801 0.671688 0.043438
0.573384 0.672521 0.044271
0.602968 0.673355 0.045105
0.632551 0.674188 0.045938
0.662134 0.675021 0.046771
0.691718 0.675855 0.047605
0.721301 0.676688 0.048438
0.750884 0.677521 0.049271
0.780468 0.678355 0.050105
0.810051 0.679188 0.050938
0.839634 0.680021 0.051771
0.869218 0.680855 0.052605
0.898801 0.681688 0.053438
0.000000 0.685533 0.028533
0.011396 0.686251 0.029251
0.036859 0.686968 0.029968
0.062321 0.687685 0.030685
0.087784 0.688402 0.031402
0.113246 0.689120 0.032120
0.138709 0.689837 0.032837
0.164172 0.690554 0.033554
0.189634 0.691271 0.034271
0.219218 0.692105 0.035105
0.248801 0.692938 0.035938
0.278384 0.693771 0.036771
0.307968 0.694605 0.037605
0.337551 0.695438 0.038438
0.367134 0.696271 0.039271
0.396718 0.697105 0.040105
0.426301 0.697938 0.040938
0.455884 0.698771 0.041771
0.485468 0.699605 0.042605
0.515051 0.700438 0.043438
0.544634 0.701271 0.044271
0.574218 0.702105 0.045105
0.603801 0.702938 0.045938
0.633384 0.703771 0.046771
0.662968 0.704605 0.047605
0.692551 0.705438 0.048438
0.722134 0.706271 0.049271
0.751718 0.707105 0.050105
0.781301 0.707938 0.050938
0.810884 0.708771 0.051771
0.840468 0.709605 0.052605
0.870051 0.710438 0.053438
0.899634 0.711271 0.054271
0.000000 0.715117 0.029367
0.012229 0.715834 0.030084
0.037692 0.716551 0.030801
0.063154 0.717268 0.031518
0.088617 0.717986 0.032236
0.114080 0.718703 0.032953
0.139542 0.719420 0.033670
0.165005 0.720137 0.034387
0.190468 0.720855 0.035105
0.220051 0.721688 0.035938
0.249634 0.722521 0.036771
0.279218 0.723355 0.037605
0.308801 0.724188 0.038438
0.338384 0.725021 0.039271
0.367968 0.725855 0.040105
0.397551 0.726688 0.040938
0.427134 0.727521 0.041771
0.456718 0.728355 0.042605
0.486301 0.729188 0.043438
0.515884 0.730021 0.044271
0.545468 0.730855 0.045105
0.575051 0.731688 0.045938
0.604634 0.732521 0.046771
0.634218 0.733355 0.047605
0.663801 0.734188 0.048438
0.693384 0.735021 0.049271
0.722968 0.735855 0.050105
0.752551 0.736688 0.050938
0.782134 0.737521 0.051771
0.811718 0.738355 0.052605
0.841301 0.739188 0.053438
0.870884 0.740021 0.054271
0.900468 0.740855 0.055105
0.000000 0.744700 0.030200
0.013063 0.745417 0.030917
0.038525 0.746135 0.031635
0.063988 0.746852 0.032352
0.089450 0.747569 0.033069
0.114913 0.748286 0.033786
0.140376 0.749004 0.034504
0.165838 0.749721 0.035221
0.191301 0.750438 0.035938
0.220884 0.751271 0.036771
0.250468 0.752105 0.037605
0.280051 0.752938 0.038438
0.309634 0.753771 0.039271
0.339218 0.754605 0.040105
0.368801 0.755438 0.040938
0.398384 0.756271 0.041771
0.427968 0.757105 0.042605
0.457551 0.757938 0.043438
0.487134 0.758771 0.044271
0.516718 0.759605 0.045105
0.546301 0.760438 0.045938
0.575884 0.761271 0.046771
0.605468 0.762105 0.047605
0.635051 0.762938 0.048438
0.664634 0.763771 0.049271
0.694218 0.764605 0.050105
0.723801 0.765438 0.050938
