bench/results/pilot_a/clean_cool_average.cube
TITLE "Clean Cool (average)"
LUT_3D_SIZE 33
DOMAIN_MIN 0.0 0.0 0.0
DOMAIN_MAX 1.0 1.0 1.0
0.000000 0.000000 0.000000
0.000000 0.000000 0.000000
0.000000 0.000000 0.000000
0.000000 0.000000 0.000000
0.000000 0.000000 0.000000
0.000000 0.000000 0.000000
0.000000 0.000000 0.000000
0.000000 0.000000 0.007195
0.000000 0.000000 0.014657
0.000000 0.000000 0.022617
0.003692 0.000000 0.030576
0.021920 0.000000 0.038536
0.040149 0.000000 0.046495
0.058065 0.003870 0.054318
0.075981 0.012624 0.062141
0.093896 0.021377 0.069963
0.111812 0.030131 0.077786
0.127009 0.037556 0.084422
0.142205 0.044981 0.091057
0.157402 0.052406 0.097693
0.172598 0.059831 0.104328
0.183645 0.065228 0.109152
0.194692 0.070626 0.113975
0.205739 0.076023 0.118798
0.216785 0.081421 0.123622
0.225172 0.085518 0.127284
0.233558 0.089616 0.130946
0.241944 0.093713 0.134607
0.250330 0.097811 0.138269
0.259743 0.102410 0.142379
0.269155 0.107008 0.146489
0.278567 0.111607 0.150598
0.287979 0.116206 0.154708
0.000000 0.000000 0.000000
0.000000 0.000000 0.000000
0.000000 0.000000 0.000000
0.000000 0.000000 0.000000
0.000000 0.000000 0.000000
0.000000 0.000000 0.005586
0.000000 0.000000 0.013048
0.000000 0.000000 0.020510
0.000000 0.000000 0.027972
0.000000 0.000000 0.035931
0.016776 0.000000 0.043891
0.035005 0.004495 0.051850
0.053234 0.013401 0.059810
0.071150 0.022155 0.067633
0.089065 0.030908 0.075455
0.106981 0.039662 0.083278
0.124897 0.048416 0.091101
0.140093 0.055841 0.097736
0.155290 0.063266 0.104372
0.170487 0.070691 0.111007
0.185683 0.078116 0.117643
0.196730 0.083513 0.122466
0.207777 0.088911 0.127289
0.218823 0.094308 0.132113
0.229870 0.099705 0.136936
0.238256 0.103803 0.140598
0.246643 0.107900 0.144260
0.255029 0.111998 0.147922
0.263415 0.116096 0.151584
0.272827 0.120694 0.155693
0.282240 0.125293 0.159803
0.291652 0.129892 0.163913
0.301064 0.134491 0.168023
0.000000 0.000000 0.000000
0.000000 0.000000 0.000000
0.000000 0.000000 0.000000
0.000000 0.000000 0.005718
0.000000 0.000000 0.011438
0.000000 0.000000 0.018900
0.000000 0.000000 0.026362
0.000000 0.000000 0.033824
0.000000 0.000000 0.041286
0.011632 0.004966 0.049246
0.029861 0.013873 0.057205
0.048090 0.022779 0.065165
0.066319 0.031686 0.073124
0.084235 0.040440 0.080947
0.102150 0.049193 0.088770
0.120066 0.057947 0.096592
0.137982 0.066700 0.104415
0.153178 0.074125 0.111051
0.168375 0.081550 0.117686
0.183571 0.088976 0.124322
0.198768 0.096401 0.130957
0.209815 0.101798 0.135780
0.220861 0.107195 0.140604
0.231908 0.112593 0.145427
0.242955 0.117990 0.150251
0.251341 0.122088 0.153913
0.259727 0.126185 0.157574
0.268114 0.130283 0.161236
0.276500 0.134380 0.164898
0.285912 0.138979 0.169008
0.295324 0.143578 0.173118
0.304737 0.148177 0.177227
0.314149 0.152776 0.181337
0.000000 0.000000 0.001872
0.000000 0.000000 0.007592
0.000000 0.000000 0.013312
0.000000 0.000000 0.019033
0.000000 0.000000 0.024753
0.000000 0.000000 0.032215
0.000000 0.000000 0.039677
0.000000 0.005994 0.047139
0.006488 0.014344 0.054601
0.024717 0.023251 0.062560
0.042946 0.032158 0.070520
0.061175 0.041064 0.078479
0.079404 0.049971 0.086439
0.097319 0.058724 0.094261
0.115235 0.067478 0.102084
0.133151 0.076232 0.109907
0.151066 0.084985 0.117730
0.166263 0.092410 0.124365
0.181459 0.099835 0.131001
0.196656 0.107260 0.137636
0.211853 0.114685 0.144271
0.222899 0.120083 0.149095
0.233946 0.125480 0.153918
0.244993 0.130878 0.158742
0.256040 0.136275 0.163565
0.264426 0.140373 0.167227
0.272812 0.144470 0.170889
0.281198 0.148568 0.174551
0.289585 0.152665 0.178212
0.298997 0.157264 0.182322
0.308409 0.161863 0.186432
0.317822 0.166462 0.190542
0.327234 0.171061 0.194652
0.000000 0.000000 0.015186
0.000000 0.000000 0.020907
0.000000 0.000000 0.026627
0.000000 0.000000 0.032347
0.000000 0.000000 0.038067
0.000000 0.007579 0.045529
0.000000 0.015929 0.052991
0.002483 0.024279 0.060453
0.019573 0.032629 0.067915
0.037802 0.041536 0.075875
0.056031 0.050442 0.083834
0.074260 0.059349 0.091794
0.092489 0.068256 0.099753
0.110404 0.077009 0.107576
0.128320 0.085763 0.115399
0.146235 0.094516 0.123221
0.164151 0.103270 0.131044
0.179348 0.110695 0.137680
0.194544 0.118120 0.144315
0.209741 0.125545 0.150950
0.224937 0.132970 0.157586
0.235984 0.138368 0.162409
0.247031 0.143765 0.167233
0.258078 0.149162 0.172056
0.269124 0.154560 0.176880
0.277511 0.158657 0.180542
0.285897 0.162755 0.184203
0.294283 0.166852 0.187865
0.302669 0.170950 0.191527
0.312082 0.175549 0.195637
0.321494 0.180148 0.199747
0.330906 0.184747 0.203856
0.340319 0.189345 0.207966
0.000000 0.000000 0.029238
0.000000 0.000000 0.034958
0.000000 0.005724 0.040678
0.000000 0.012125 0.046398
0.000000 0.018526 0.052118
0.000000 0.026876 0.059580
0.000000 0.035226 0.067042
0.016292 0.043576 0.074504
0.033381 0.051925 0.081966
0.051610 0.060832 0.089926
0.069839 0.069739 0.097885
0.088068 0.078645 0.105845
0.106297 0.087552 0.113804
0.124213 0.096306 0.121627
0.142128 0.105059 0.129450
0.160044 0.113813 0.137272
0.177960 0.122566 0.145095
0.193156 0.129991 0.151731
0.208353 0.137416 0.158366
0.223550 0.144841 0.165002
0.238746 0.152267 0.171637
0.249793 0.157664 0.176460
0.260840 0.163061 0.181284
0.271886 0.168459 0.186107
0.282933 0.173856 0.190931
0.291319 0.177954 0.194593
0.299706 0.182051 0.198254
0.308092 0.186149 0.201916
0.316478 0.190246 0.205578
0.325890 0.194845 0.209688
0.335303 0.199444 0.213798
0.344715 0.204043 0.217907
0.354127 0.208642 0.222017
0.000000 0.012219 0.043289
0.000000 0.018620 0.049009
0.000000 0.025021 0.054729
0.000000 0.031421 0.060449
0.000000 0.037822 0.066170
0.000000 0.046172 0.073631
0.013011 0.054522 0.081093
0.030101 0.062872 0.088555
0.047190 0.071222 0.096017
0.065419 0.080128 0.103977
0.083648 0.089035 0.111936
0.101877 0.097942 0.119896
0.120106 0.106848 0.127855
0.138021 0.115602 0.135678
0.155937 0.124356 0.143501
0.173853 0.133109 0.151323
0.191768 0.141863 0.159146
0.206965 0.149288 0.165782
0.222162 0.156713 0.172417
0.237358 0.164138 0.179053
0.252555 0.171563 0.185688
0.263602 0.176960 0.190512
0.274648 0.182358 0.195335
0.285695 0.187755 0.200158
0.296742 0.193153 0.204982
0.305128 0.197250 0.208644
0.313514 0.201348 0.212305
0.321900 0.205445 0.215967
0.330287 0.209543 0.219629
0.339699 0.214142 0.223739
0.349111 0.218740 0.227849
0.358524 0.223339 0.231958
0.367936 0.227938 0.236068
0.000000 0.031515 0.057340
0.000000 0.037916 0.063060
0.000000 0.044317 0.068780
0.000000 0.050718 0.074500
0.000000 0.057119 0.080221
0.009731 0.065469 0.087683
0.026820 0.073818 0.095144
0.043909 0.082168 0.102606
0.060999 0.090518 0.110068
0.079228 0.099425 0.118028
0.097457 0.108331 0.125987
0.115686 0.117238 0.133947
0.133915 0.126145 0.141906
0.151830 0.134898 0.149729
0.169746 0.143652 0.157552
0.187661 0.152406 0.165375
0.205577 0.161159 0.173197
0.220774 0.168584 0.179833
0.235970 0.176009 0.186468
0.251167 0.183434 0.193104
0.266363 0.190859 0.199739
0.277410 0.196257 0.204563
0.288457 0.201654 0.209386
0.299504 0.207052 0.214210
0.310550 0.212449 0.219033
0.318937 0.216547 0.222695
0.327323 0.220644 0.226357
0.335709 0.224742 0.230018
0.344095 0.228839 0.233680
0.353508 0.233438 0.237790
0.362920 0.238037 0.241900
0.372332 0.242636 0.246010
0.381745 0.247234 0.250119
0.000000 0.050811 0.071391
0.000000 0.057212 0.077111
0.000000 0.063613 0.082831
0.000000 0.070014 0.088551
0.006450 0.076415 0.094272
0.023539 0.084765 0.101734
0.040629 0.093115 0.109195
0.057718 0.101465 0.116657
0.074807 0.109814 0.124119
0.093036 0.118721 0.132079
0.111265 0.127628 0.140038
0.129494 0.136534 0.147998
0.147723 0.145441 0.155957
0.165639 0.154195 0.163780
0.183554 0.162948 0.171603
0.201470 0.171702 0.179426
0.219386 0.180455 0.187248
0.234582 0.187880 0.193884
0.249779 0.195306 0.200519
0.264975 0.202731 0.207155
0.280172 0.210156 0.213790
0.291219 0.215553 0.218614
0.302266 0.220951 0.223437
0.313312 0.226348 0.228261
0.324359 0.231745 0.233084
0.332745 0.235843 0.236746
0.341132 0.239940 0.240408
0.349518 0.244038 0.244069
0.357904 0.248135 0.247731
0.367316 0.252734 0.251841
0.376729 0.257333 0.255951
0.386141 0.261932 0.260061
0.395553 0.266531 0.264170
0.000000 0.071760 0.086644
0.000000 0.078160 0.092365
0.000000 0.084561 0.098085
0.008340 0.090962 0.103805
0.021441 0.097363 0.109525
0.038530 0.105713 0.116987
0.055619 0.114063 0.124449
0.072709 0.122413 0.131911
0.089798 0.130763 0.139373
0.108027 0.139669 0.147333
0.126256 0.148576 0.155292
0.144485 0.157483 0.163252
0.162714 0.166389 0.171211
0.180629 0.175143 0.179034
0.198545 0.183896 0.186857
0.216461 0.192650 0.194679
0.234376 0.201404 0.202502
0.249573 0.208829 0.209138
0.264770 0.216254 0.215773
0.279966 0.223679 0.222409
0.295163 0.231104 0.229044
0.306210 0.236501 0.233867
0.317256 0.241899 0.238691
0.328303 0.247296 0.243514
0.339350 0.252693 0.248338
0.347736 0.256791 0.252000
0.356122 0.260889 0.255661
0.364508 0.264986 0.259323
0.372895 0.269084 0.262985
0.382307 0.273682 0.267095
0.391719 0.278281 0.271205
0.401132 0.282880 0.275314
0.410544 0.287479 0.279424
0.000000 0.092708 0.101898
0.000000 0.099109 0.107619
0.010230 0.105509 0.113339
0.023331 0.111910 0.119059
0.036431 0.118311 0.124779
0.053521 0.126661 0.132241
0.070610 0.135011 0.139703
0.087699 0.143361 0.147165
0.104789 0.151711 0.154627
0.123018 0.160617 0.162586
0.141247 0.169524 0.170546
0.159476 0.178431 0.178505
0.177704 0.187337 0.186465
0.195620 0.196091 0.194288
0.213536 0.204844 0.202110
0.231451 0.213598 0.209933
0.249367 0.222352 0.217756
0.264564 0.229777 0.224391
0.279760 0.237202 0.231027
0.294957 0.244627 0.237662
0.310153 0.252052 0.244298
0.321200 0.257449 0.249121
0.332247 0.262847 0.253945
0.343294 0.268244 0.258768
0.354340 0.273642 0.263592
0.362727 0.277739 0.267253
0.371113 0.281837 0.270915
0.379499 0.285934 0.274577
0.387885 0.290032 0.278239
0.397298 0.294630 0.282349
0.406710 0.299229 0.286458
0.416122 0.303828 0.290568
0.425534 0.308427 0.294678
0.000000 0.113656 0.117152
0.012120 0.120057 0.122872
0.025221 0.126458 0.128593
0.038321 0.132858 0.134313
0.051422 0.139259 0.140033
0.068511 0.147609 0.147495
0.085601 0.155959 0.154957
0.102690 0.164309 0.162419
0.119779 0.172659 0.169881
0.138008 0.181565 0.177840
0.156237 0.190472 0.185800
0.174466 0.199379 0.193759
0.192695 0.208285 0.201719
0.210611 0.217039 0.209542
0.228526 0.225793 0.217364
0.246442 0.234546 0.225187
0.264358 0.243300 0.233010
0.279554 0.250725 0.239645
0.294751 0.258150 0.246281
0.309947 0.265575 0.252916
0.325144 0.273000 0.259552
0.336191 0.278397 0.264375
0.347238 0.283795 0.269198
0.358284 0.289192 0.274022
0.369331 0.294590 0.278845
0.377717 0.298687 0.282507
0.386103 0.302785 0.286169
0.394490 0.306882 0.289831
0.402876 0.310980 0.293493
0.412288 0.315579 0.297602
0.421701 0.320177 0.301712
0.431113 0.324776 0.305822
0.440525 0.329375 0.309932
0.014011 0.134604 0.132406
0.027111 0.141005 0.138126
0.040212 0.147406 0.143846
0.053312 0.153807 0.149567
0.066413 0.160207 0.155287
0.083502 0.168557 0.162749
0.100591 0.176907 0.170211
0.117681 0.185257 0.177673
0.134770 0.193607 0.185134
0.152999 0.202514 0.193094
0.171228 0.211420 0.201054
0.189457 0.220327 0.209013
0.207686 0.229234 0.216973
0.225601 0.237987 0.224795
0.243517 0.246741 0.232618
0.261433 0.255494 0.240441
0.279348 0.264248 0.248263
0.294545 0.271673 0.254899
0.309741 0.279098 0.261534
0.324938 0.286523 0.268170
0.340135 0.293948 0.274805
0.351181 0.299345 0.279629
0.362228 0.304743 0.284452
0.373275 0.310140 0.289276
0.384322 0.315538 0.294099
0.392708 0.319635 0.297761
0.401094 0.323733 0.301423
0.409480 0.327830 0.305085
0.417867 0.331928 0.308746
0.427279 0.336527 0.312856
0.436691 0.341126 0.316966
0.446104 0.345724 0.321076
0.455516 0.350323 0.325186
0.028672 0.155093 0.147325
0.041773 0.161493 0.153045
0.054873 0.167894 0.158766
0.067974 0.174295 0.164486
0.081075 0.180696 0.170206
0.098164 0.189046 0.177668
0.115253 0.197396 0.185130
0.132342 0.205746 0.192592
0.149432 0.214096 0.200054
0.167661 0.223002 0.208013
0.185890 0.231909 0.215973
0.204119 0.240816 0.223932
0.222348 0.249722 0.231892
0.240263 0.258476 0.239715
0.258179 0.267229 0.247537
0.276095 0.275983 0.255360
0.294010 0.284737 0.263183
0.309207 0.292162 0.269818
0.324403 0.299587 0.276454
0.339600 0.307012 0.283089
0.354797 0.314437 0.289725
0.365843 0.319834 0.294548
0.376890 0.325232 0.299372
0.387937 0.330629 0.304195
0.398984 0.336026 0.309018
0.407370 0.340124 0.312680
0.415756 0.344222 0.316342
0.424142 0.348319 0.320004
0.432528 0.352417 0.323666
0.441941 0.357015 0.327775
0.451353 0.361614 0.331885
0.460765 0.366213 0.335995
0.470178 0.370812 0.340105
0.043334 0.175581 0.162244
0.056435 0.181982 0.167965
0.069535 0.188383 0.173685
0.082636 0.194784 0.179405
0.095736 0.201185 0.185125
0.112826 0.209535 0.192587
0.129915 0.217885 0.200049
0.147004 0.226234 0.207511
0.164094 0.234584 0.214973
0.182323 0.243491 0.222933
0.200552 0.252398 0.230892
0.218781 0.261304 0.238852
0.237010 0.270211 0.246811
0.254925 0.278965 0.254634
0.272841 0.287718 0.262457
0.290756 0.296472 0.270279
0.308672 0.305225 0.278102
0.323869 0.312650 0.284737
0.339065 0.320075 0.291373
0.354262 0.327500 0.298008
0.369458 0.334925 0.304644
0.380505 0.340323 0.309467
0.391552 0.345720 0.314291
0.402599 0.351118 0.319114
0.413645 0.356515 0.323938
0.422032 0.360613 0.327600
0.430418 0.364710 0.331261
0.438804 0.368808 0.334923
0.447190 0.372905 0.338585
0.456603 0.377504 0.342695
0.466015 0.382103 0.346804
0.475427 0.386702 0.350914
0.484840 0.391301 0.355024
0.057996 0.196070 0.177164
0.071097 0.202471 0.182884
0.084197 0.208872 0.188604
0.097298 0.215273 0.194324
0.110398 0.221674 0.200045
0.127488 0.230023 0.207507
0.144577 0.238373 0.214968
0.161666 0.246723 0.222430
0.178756 0.255073 0.229892
0.196985 0.263980 0.237852
0.215214 0.272886 0.245811
0.233443 0.281793 0.253771
0.251671 0.290700 0.261730
0.269587 0.299453 0.269553
0.287503 0.308207 0.277376
0.305418 0.316960 0.285199
0.323334 0.325714 0.293021
0.338531 0.333139 0.299657
0.353727 0.340564 0.306292
0.368924 0.347989 0.312928
0.384120 0.355414 0.319563
0.395167 0.360812 0.324387
0.406214 0.366209 0.329210
0.417261 0.371606 0.334034
0.428307 0.377004 0.338857
0.436694 0.381101 0.342519
0.445080 0.385199 0.346181
0.453466 0.389296 0.349842
0.461852 0.393394 0.353504
0.471265 0.397993 0.357614
0.480677 0.402592 0.361724
0.490089 0.407191 0.365834
0.499502 0.411789 0.369943
0.072658 0.216559 0.192083
0.085759 0.222960 0.197803
0.098859 0.229361 0.203523
0.111960 0.235761 0.209244
0.125060 0.242162 0.214964
0.142150 0.250512 0.222426
0.159239 0.258862 0.229888
0.176328 0.267212 0.237350
0.193417 0.275562 0.244812
0.211646 0.284468 0.252771
0.229875 0.293375 0.260731
0.248104 0.302282 0.268690
0.266333 0.311188 0.276650
0.284249 0.319942 0.284472
0.302165 0.328695 0.292295
0.320080 0.337449 0.300118
0.337996 0.346203 0.307941
0.353192 0.353628 0.314576
0.368389 0.361053 0.321212
0.383586 0.368478 0.327847
0.398782 0.375903 0.334482
0.409829 0.381300 0.339306
0.420876 0.386698 0.344129
0.431922 0.392095 0.348953
0.442969 0.397493 0.353776
0.451355 0.401590 0.357438
0.459742 0.405688 0.361100
0.468128 0.409785 0.364762
0.476514 0.413883 0.368423
0.485927 0.418481 0.372533
0.495339 0.423080 0.376643
0.504751 0.427679 0.380753
0.514163 0.432278 0.384863
0.086241 0.235539 0.205904
0.099341 0.241940 0.211624
0.112442 0.248341 0.217344
0.125542 0.254742 0.223065
0.138643 0.261143 0.228785
0.155732 0.269493 0.236247
0.172821 0.277842 0.243709
0.189911 0.286192 0.251171
0.207000 0.294542 0.258633
0.225229 0.303449 0.266592
0.243458 0.312355 0.274552
0.261687 0.321262 0.282511
0.279916 0.330169 0.290471
0.297832 0.338922 0.298293
0.315747 0.347676 0.306116
0.333663 0.356430 0.313939
0.351578 0.365183 0.321762
0.366775 0.372608 0.328397
0.381972 0.380033 0.335033
0.397168 0.387458 0.341668
0.412365 0.394883 0.348303
0.423412 0.400281 0.353127
0.434458 0.405678 0.357950
0.445505 0.411076 0.362774
0.456552 0.416473 0.367597
0.464938 0.420571 0.371259
0.473324 0.424668 0.374921
0.481711 0.428766 0.378583
0.490097 0.432863 0.382244
0.499509 0.437462 0.386354
0.508921 0.442061 0.390464
0.518334 0.446660 0.394574
0.527746 0.451258 0.398684
0.099823 0.254520 0.219725
0.112924 0.260921 0.225445
0.126024 0.267321 0.231165
0.139125 0.273722 0.236886
0.152225 0.280123 0.242606
0.169315 0.288473 0.250068
0.186404 0.296823 0.257530
0.203493 0.305173 0.264992
0.220583 0.313523 0.272454
0.238812 0.322429 0.280413
0.257041 0.331336 0.288373
0.275270 0.340243 0.296332
0.293499 0.349149 0.304292
0.311414 0.357903 0.312114
0.329330 0.366656 0.319937
0.347245 0.375410 0.327760
0.365161 0.384164 0.335583
0.380358 0.391589 0.342218
0.395554 0.399014 0.348854
0.410751 0.406439 0.355489
0.425947 0.413864 0.362125
0.436994 0.419261 0.366948
0.448041 0.424659 0.371771
0.459088 0.430056 0.376595
0.470134 0.435454 0.381418
0.478521 0.439551 0.385080
0.486907 0.443649 0.388742
0.495293 0.447746 0.392404
0.503679 0.451844 0.396065
0.513092 0.456442 0.400175
0.522504 0.461041 0.404285
0.531916 0.465640 0.408395
0.541329 0.470239 0.412505
0.113406 0.273500 0.233546
0.126506 0.279901 0.239266
0.139607 0.286302 0.244987
0.152707 0.292703 0.250707
0.165808 0.299104 0.256427
0.182897 0.307454 0.263889
0.199987 0.315803 0.271351
0.217076 0.324153 0.278813
0.234165 0.332503 0.286275
0.252394 0.341410 0.294234
0.270623 0.350316 0.302194
0.288852 0.359223 0.310153
0.307081 0.368130 0.318113
0.324997 0.376883 0.325935
0.342912 0.385637 0.333758
0.360828 0.394390 0.341581
0.378744 0.403144 0.349404
0.393940 0.410569 0.356039
0.409137 0.417994 0.362675
0.424334 0.425419 0.369310
0.439530 0.432844 0.375946
0.450577 0.438242 0.380769
0.461624 0.443639 0.385592
0.472670 0.449037 0.390416
0.483717 0.454434 0.395239
0.492103 0.458531 0.398901
0.500489 0.462629 0.402563
0.508876 0.466727 0.406225
0.517262 0.470824 0.409886
0.526674 0.475423 0.413996
0.536087 0.480022 0.418106
0.545499 0.484621 0.422216
0.554911 0.489219 0.426326
0.126989 0.292481 0.247367
0.140089 0.298881 0.253087
0.153190 0.305282 0.258808
0.166290 0.311683 0.264528
0.179391 0.318084 0.270248
0.196480 0.326434 0.277710
0.213569 0.334784 0.285172
0.230659 0.343134 0.292634
0.247748 0.351484 0.300096
0.265977 0.360390 0.308055
0.284206 0.369297 0.316015
0.302435 0.378204 0.323974
0.320664 0.387110 0.331934
0.338579 0.395864 0.339756
0.356495 0.404617 0.347579
0.374411 0.413371 0.355402
0.392326 0.422125 0.363225
0.407523 0.429550 0.369860
0.422719 0.436975 0.376496
0.437916 0.444400 0.383131
0.453113 0.451825 0.389767
0.464159 0.457222 0.394590
0.475206 0.462620 0.399413
0.486253 0.468017 0.404237
0.497300 0.473414 0.409060
0.505686 0.477512 0.412722
0.514072 0.481609 0.416384
0.522458 0.485707 0.420046
0.530845 0.489805 0.423708
0.540257 0.494403 0.427817
0.549669 0.499002 0.431927
0.559081 0.503601 0.436037
0.568494 0.508200 0.440147
0.141016 0.312083 0.261641
0.154117 0.318484 0.267361
0.167217 0.324885 0.273082
0.180318 0.331286 0.278802
0.193418 0.337687 0.284522
0.210508 0.346037 0.291984
0.227597 0.354386 0.299446
0.244686 0.362736 0.306908
0.261776 0.371086 0.314370
0.280005 0.379993 0.322329
0.298234 0.388899 0.330289
0.316463 0.397806 0.338248
0.334691 0.406713 0.346208
0.352607 0.415466 0.354030
0.370523 0.424220 0.361853
0.388438 0.432973 0.369676
0.406354 0.441727 0.377499
0.421551 0.449152 0.384134
0.436747 0.456577 0.390770
0.451944 0.464002 0.397405
0.467140 0.471427 0.404041
0.478187 0.476825 0.408864
0.489234 0.482222 0.413687
0.500281 0.487620 0.418511
0.511327 0.493017 0.423334
0.519714 0.497114 0.426996
0.528100 0.501212 0.430658
0.536486 0.505310 0.434320
0.544872 0.509407 0.437982
0.554285 0.514006 0.442091
0.563697 0.518605 0.446201
0.573109 0.523204 0.450311
0.582521 0.527802 0.454421
0.155044 0.331686 0.275915
0.168145 0.338086 0.281635
0.181245 0.344487 0.287356
0.194346 0.350888 0.293076
0.207446 0.357289 0.298796
0.224535 0.365639 0.306258
0.241625 0.373989 0.313720
0.258714 0.382339 0.321182
0.275803 0.390689 0.328644
0.294032 0.399595 0.336603
0.312261 0.408502 0.344563
0.330490 0.417409 0.352522
0.348719 0.426315 0.360482
0.366635 0.435069 0.368304
0.384551 0.443822 0.376127
0.402466 0.452576 0.383950
0.420382 0.461330 0.391773
0.435578 0.468755 0.398408
0.450775 0.476180 0.405044
0.465972 0.483605 0.411679
0.481168 0.491030 0.418315
0.492215 0.496427 0.423138
0.503262 0.501825 0.427961
0.514308 0.507222 0.432785
0.525355 0.512619 0.437608
0.533741 0.516717 0.441270
0.542128 0.520815 0.444932
0.550514 0.524912 0.448594
0.558900 0.529010 0.452255
0.568312 0.533608 0.456365
0.577725 0.538207 0.460475
0.587137 0.542806 0.464585
0.596549 0.547405 0.468695
0.169072 0.351288 0.290189
0.182172 0.357689 0.295909
0.195273 0.364090 0.301629
0.208373 0.370491 0.307350
0.221474 0.376892 0.313070
0.238563 0.385242 0.320532
0.255652 0.393591 0.327994
0.272742 0.401941 0.335456
0.289831 0.410291 0.342918
0.308060 0.419198 0.350877
0.326289 0.428104 0.358837
0.344518 0.437011 0.366796
0.362747 0.445918 0.374756
0.380663 0.454671 0.382578
0.398578 0.463425 0.390401
0.416494 0.472179 0.398224
0.434409 0.480932 0.406047
0.449606 0.488357 0.412682
0.464803 0.495782 0.419318
0.479999 0.503207 0.425953
0.495196 0.510632 0.432589
0.506243 0.516030 0.437412
0.517289 0.521427 0.442235
0.528336 0.526825 0.447059
0.539383 0.532222 0.451882
0.547769 0.536320 0.455544
0.556155 0.540417 0.459206
0.564542 0.544515 0.462868
0.572928 0.548612 0.466529
0.582340 0.553211 0.470639
0.591752 0.557810 0.474749
0.601165 0.562409 0.478859
0.610577 0.567007 0.482969
0.183100 0.370891 0.304463
0.196200 0.377292 0.310183
0.209301 0.383693 0.315903
0.222401 0.390093 0.321624
0.235502 0.396494 0.327344
0.252591 0.404844 0.334806
0.269680 0.413194 0.342268
0.286770 0.421544 0.349730
0.303859 0.429894 0.357192
0.322088 0.438800 0.365151
0.340317 0.447707 0.373111
0.358546 0.456614 0.381070
0.376775 0.465520 0.389030
0.394690 0.474274 0.396852
0.412606 0.483027 0.404675
0.430522 0.491781 0.412498
0.448437 0.500535 0.420321
0.463634 0.507960 0.426956
0.478830 0.515385 0.433592
0.494027 0.522810 0.440227
0.509224 0.530235 0.446863
0.520270 0.535632 0.451686
0.531317 0.541030 0.456509
0.542364 0.546427 0.461333
0.553411 0.551825 0.466156
0.561797 0.555922 0.469818
0.570183 0.560020 0.473480
0.578569 0.564117 0.477142
0.586956 0.568215 0.480803
0.596368 0.572814 0.484913
0.605780 0.577412 0.489023
0.615192 0.582011 0.493133
0.624605 0.586610 0.497243
0.196885 0.390155 0.318491
0.209986 0.396556 0.324211
0.223086 0.402956 0.329931
0.236187 0.409357 0.335651
0.249287 0.415758 0.341371
0.266376 0.424108 0.348833
0.283466 0.432458 0.356295
0.300555 0.440808 0.363757
0.317644 0.449158 0.371219
0.335873 0.458064 0.379179
0.354102 0.466971 0.387138
0.372331 0.475878 0.395098
0.390560 0.484784 0.403057
0.408476 0.493538 0.410880
0.426391 0.502292 0.418703
0.444307 0.511045 0.426525
0.462223 0.519799 0.434348
0.477419 0.527224 0.440984
0.492616 0.534649 0.447619
0.507813 0.542074 0.454255
0.523009 0.549499 0.460890
0.534056 0.554896 0.465713
0.545103 0.560294 0.470537
0.556149 0.565691 0.475360
0.567196 0.571089 0.480184
0.575582 0.575186 0.483846
0.583969 0.579284 0.487507
0.592355 0.583381 0.491169
0.600741 0.587479 0.494831
0.610153 0.592077 0.498941
0.619566 0.596676 0.503051
0.628978 0.601275 0.507160
0.638390 0.605874 0.511270
0.210671 0.409419 0.332518
0.223771 0.415820 0.338238
0.236872 0.422221 0.343958
0.249972 0.428621 0.349679
0.263073 0.435022 0.355399
0.280162 0.443372 0.362861
0.297251 0.451722 0.370323
0.314341 0.460072 0.377785
0.331430 0.468422 0.385247
0.349659 0.477328 0.393206
0.367888 0.486235 0.401166
0.386117 0.495142 0.409125
0.404346 0.504048 0.417085
0.422261 0.512802 0.424907
0.440177 0.521555 0.432730
0.458093 0.530309 0.440553
0.476008 0.539063 0.448376
0.491205 0.546488 0.455011
0.506401 0.553913 0.461647
0.521598 0.561338 0.468282
0.536795 0.568763 0.474917
0.547841 0.574160 0.479741
0.558888 0.579558 0.484564
0.569935 0.584955 0.489388
0.580982 0.590353 0.494211
0.589368 0.594450 0.497873
0.597754 0.598548 0.501535
