bench/results/pilot_a/clean_cool_average.cube
TITLE "Clean Cool (average)"
LUT_3D_SIZE 5
DOMAIN_MIN 0.0 0.0 0.0
DOMAIN_MAX 1.0 1.0 1.0
0.000000 0.000000 0.000000
0.000000 0.000000 0.014657
0.111812 0.030131 0.077786
0.216785 0.081421 0.123622
0.287979 0.116206 0.154708
0.000000 0.050811 0.071391
0.074807 0.109814 0.124119
0.219386 0.180455 0.187248
0.324359 0.231745 0.233084
0.395553 0.266531 0.264170
0.072658 0.216559 0.192083
0.193417 0.275562 0.244812
0.337996 0.346203 0.307941
0.442969 0.397493 0.353776
0.514163 0.432278 0.384863
0.183100 0.370891 0.304463
0.303859 0.429894 0.357192
0.448437 0.500535 0.420321
0.553411 0.551825 0.466156
0.624605 0.586610 0.497243
0.351071 0.605616 0.475383
0.471831 0.664619 0.528112
0.616409 0.735260 0.591241
0.721382 0.786550 0.637077
0.792576 0.821336 0.668163
0.000000 0.000000 0.059442
0.037861 0.027106 0.112171
0.182439 0.097747 0.175300
0.287412 0.149037 0.221136
0.358607 0.183823 0.252222
0.024675 0.118428 0.168905
0.145434 0.177431 0.221633
0.290013 0.248072 0.284762
0.394986 0.299362 0.330598
0.466180 0.334148 0.361684
0.143285 0.284175 0.289597
0.264045 0.343178 0.342325
0.408623 0.413819 0.405454
0.513596 0.465109 0.451290
0.584790 0.499895 0.482377
0.253727 0.438507 0.401977
0.374486 0.497510 0.454705
0.519064 0.568151 0.517834
0.624038 0.619441 0.563670
0.695232 0.654227 0.594757
0.421698 0.673233 0.572897
0.542458 0.732236 0.625626
0.687036 0.802877 0.688755
0.792009 0.854167 0.734591
0.863204 0.888952 0.765677
0.000000 0.032071 0.151693
0.104676 0.091073 0.204422
0.249254 0.161714 0.267551
0.354227 0.213004 0.313386
0.425422 0.247790 0.344473
0.091490 0.182395 0.261155
0.212249 0.241398 0.313884
0.356828 0.312039 0.377013
0.461801 0.363329 0.422849
0.532995 0.398115 0.453935
0.210100 0.348142 0.381848
0.330860 0.407145 0.434576
0.475438 0.477786 0.497705
0.580411 0.529076 0.543541
0.651606 0.563862 0.574627
0.320542 0.502474 0.494228
0.441301 0.561477 0.546956
0.585879 0.632118 0.610085
0.690853 0.683408 0.655921
0.762047 0.718194 0.687007
0.488513 0.737200 0.665148
0.609273 0.796203 0.717876
0.753851 0.866844 0.781005
0.858824 0.918134 0.826841
0.930019 0.952919 0.857928
0.048792 0.094181 0.241266
0.169551 0.153184 0.293994
0.314130 0.223825 0.357123
0.419103 0.275115 0.402959
0.490297 0.309900 0.434046
0.156366 0.244505 0.350728
0.277125 0.303508 0.403457
0.421703 0.374149 0.466586
0.526677 0.425439 0.512421
0.597871 0.460225 0.543508
0.274976 0.410253 0.471420
0.395735 0.469256 0.524149
0.540314 0.539897 0.587278
0.645287 0.591187 0.633114
0.716481 0.625972 0.664200
0.385417 0.564585 0.583800
0.506177 0.623588 0.636529
0.650755 0.694229 0.699658
0.755728 0.745519 0.745494
0.826922 0.780304 0.776580
0.553389 0.799310 0.754721
0.674148 0.858313 0.807449
0.818727 0.928954 0.870578
0.923700 0.980244 0.916414
0.994894 1.000000 0.947500
0.099742 0.142959 0.311612
0.220501 0.201962 0.364341
0.365080 0.272603 0.427470
0.470053 0.323893 0.473305
0.541247 0.358679 0.504392
0.207316 0.293284 0.421074
0.328075 0.352287 0.473803
0.472654 0.422928 0.536932
0.577627 0.474218 0.582768
0.648821 0.509003 0.613854
0.325926 0.459031 0.541766
0.446685 0.518034 0.594495
0.591264 0.588675 0.657624
0.696237 0.639965 0.703460
0.767431 0.674750 0.734546
0.436367 0.613363 0.654147
0.557127 0.672366 0.706875
0.701705 0.743007 0.770004
0.806678 0.794297 0.815840
0.877873 0.829082 0.846926
0.604339 0.848089 0.825067
0.725098 0.907092 0.877795
0.869677 0.977733 0.940924
0.974650 1.000000 0.986760
1.000000 1.000000 1.000000
