bench/results/pilot_a/clean_cool_average.cube
TITLE "Clean Cool (average)"
LUT_3D_SIZE 9
DOMAIN_MIN 0.0 0.0 0.0
DOMAIN_MAX 1.0 1.0 1.0
0.000000 0.000000 0.000000
0.000000 0.000000 0.000000
0.000000 0.000000 0.014657
0.040149 0.000000 0.046495
0.111812 0.030131 0.077786
0.172598 0.059831 0.104328
0.216785 0.081421 0.123622
0.250330 0.097811 0.138269
0.287979 0.116206 0.154708
0.000000 0.000000 0.015186
0.000000 0.000000 0.038067
0.019573 0.032629 0.067915
0.092489 0.068256 0.099753
0.164151 0.103270 0.131044
0.224937 0.132970 0.157586
0.269124 0.154560 0.176880
0.302669 0.170950 0.191527
0.340319 0.189345 0.207966
0.000000 0.050811 0.071391
0.006450 0.076415 0.094272
0.074807 0.109814 0.124119
0.147723 0.145441 0.155957
0.219386 0.180455 0.187248
0.280172 0.210156 0.213790
0.324359 0.231745 0.233084
0.357904 0.248135 0.247731
0.395553 0.266531 0.264170
0.014011 0.134604 0.132406
0.066413 0.160207 0.155287
0.134770 0.193607 0.185134
0.207686 0.229234 0.216973
0.279348 0.264248 0.248263
0.340135 0.293948 0.274805
0.384322 0.315538 0.294099
0.417867 0.331928 0.308746
0.455516 0.350323 0.325186
0.072658 0.216559 0.192083
0.125060 0.242162 0.214964
0.193417 0.275562 0.244812
0.266333 0.311188 0.276650
0.337996 0.346203 0.307941
0.398782 0.375903 0.334482
0.442969 0.397493 0.353776
0.476514 0.413883 0.368423
0.514163 0.432278 0.384863
0.126989 0.292481 0.247367
0.179391 0.318084 0.270248
0.247748 0.351484 0.300096
0.320664 0.387110 0.331934
0.392326 0.422125 0.363225
0.453113 0.451825 0.389767
0.497300 0.473414 0.409060
0.530845 0.489805 0.423708
0.568494 0.508200 0.440147
0.183100 0.370891 0.304463
0.235502 0.396494 0.327344
0.303859 0.429894 0.357192
0.376775 0.465520 0.389030
0.448437 0.500535 0.420321
0.509224 0.530235 0.446863
0.553411 0.551825 0.466156
0.586956 0.568215 0.480803
0.624605 0.586610 0.497243
0.238241 0.447947 0.360573
0.290644 0.473550 0.383454
0.359001 0.506950 0.413302
0.431917 0.542576 0.445140
0.503579 0.577591 0.476431
0.564366 0.607291 0.502972
0.608553 0.628881 0.522266
0.642097 0.645271 0.536913
0.679747 0.663666 0.553353
0.351071 0.605616 0.475383
0.403473 0.631220 0.498264
0.471831 0.664619 0.528112
0.544746 0.700246 0.559950
0.616409 0.735260 0.591241
0.677195 0.764960 0.617783
0.721382 0.786550 0.637077
0.754927 0.802940 0.651724
0.792576 0.821336 0.668163
0.000000 0.000000 0.015275
0.000000 0.000000 0.038156
0.005871 0.000000 0.068004
0.078787 0.032107 0.099842
0.150450 0.067121 0.131133
0.211236 0.096822 0.157675
0.255423 0.118411 0.176968
0.288968 0.134801 0.191616
0.326617 0.153197 0.208055
0.000000 0.010617 0.068533
0.000000 0.036220 0.091414
0.058210 0.069620 0.121262
0.131126 0.105246 0.153100
0.202789 0.140261 0.184391
0.263575 0.169961 0.210932
0.307762 0.191551 0.230226
0.341307 0.207941 0.244873
0.378956 0.226336 0.261313
0.000000 0.087802 0.124737
0.045088 0.113406 0.147618
0.113445 0.146805 0.177466
0.186361 0.182432 0.209304
0.258023 0.217446 0.240595
0.318810 0.247146 0.267137
0.362997 0.268736 0.286431
0.396542 0.285126 0.301078
0.434191 0.303522 0.317517
0.052648 0.171595 0.185752
0.105050 0.197198 0.208633
0.173408 0.230598 0.238481
0.246323 0.266224 0.270319
0.317986 0.301239 0.301610
0.378772 0.330939 0.328152
0.422959 0.352529 0.347446
0.456504 0.368919 0.362093
0.494153 0.387314 0.378532
0.111296 0.253549 0.245430
0.163698 0.279153 0.268310
0.232055 0.312552 0.298158
0.304971 0.348179 0.329996
0.376634 0.383193 0.361287
0.437420 0.412894 0.387829
0.481607 0.434483 0.407123
0.515152 0.450873 0.421770
0.552801 0.469269 0.438209
0.165626 0.329471 0.300714
0.218028 0.355075 0.323595
0.286386 0.388474 0.353442
0.359301 0.424101 0.385280
0.430964 0.459115 0.416571
0.491750 0.488815 0.443113
0.535937 0.510405 0.462407
0.569482 0.526795 0.477054
0.607131 0.545191 0.493493
0.221737 0.407881 0.357810
0.274139 0.433485 0.380691
0.342497 0.466884 0.410538
0.415412 0.502511 0.442376
0.487075 0.537525 0.473667
0.547861 0.567226 0.500209
0.592048 0.588815 0.519503
0.625593 0.605205 0.534150
0.663242 0.623601 0.550589
0.276879 0.484937 0.413920
0.329281 0.510541 0.436800
0.397638 0.543940 0.466648
0.470554 0.579567 0.498486
0.542217 0.614581 0.529777
0.603003 0.644282 0.556319
0.647190 0.665871 0.575613
0.680735 0.682261 0.590260
0.718384 0.700657 0.606699
0.389709 0.642607 0.528730
0.442111 0.668211 0.551611
0.510468 0.701610 0.581458
0.583384 0.737237 0.613297
0.655047 0.772251 0.644587
0.715833 0.801951 0.671129
0.760020 0.823541 0.690423
0.793565 0.839931 0.705070
0.831214 0.858326 0.721510
0.000000 0.000000 0.059442
0.000000 0.000000 0.082323
0.037861 0.027106 0.112171
0.110777 0.062733 0.144009
0.182439 0.097747 0.175300
0.243225 0.127448 0.201842
0.287412 0.149037 0.221136
0.320957 0.165427 0.235783
0.358607 0.183823 0.252222
0.000000 0.041243 0.112700
0.021842 0.066846 0.135581
0.090200 0.100246 0.165429
0.163116 0.135872 0.197267
0.234778 0.170887 0.228558
0.295565 0.200587 0.255100
0.339751 0.222177 0.274394
0.373296 0.238567 0.289041
0.410946 0.256962 0.305480
0.024675 0.118428 0.168905
0.077077 0.144032 0.191786
0.145434 0.177431 0.221633
0.218350 0.213058 0.253471
0.290013 0.248072 0.284762
0.350799 0.277772 0.311304
0.394986 0.299362 0.330598
0.428531 0.315752 0.345245
0.466180 0.334148 0.361684
0.084638 0.202220 0.229920
0.137040 0.227824 0.252801
0.205397 0.261223 0.282648
0.278313 0.296850 0.314486
0.349975 0.331864 0.345777
0.410762 0.361565 0.372319
0.454949 0.383154 0.391613
0.488494 0.399544 0.406260
0.526143 0.417940 0.422699
0.143285 0.284175 0.289597
0.195687 0.309779 0.312478
0.264045 0.343178 0.342325
0.336960 0.378805 0.374164
0.408623 0.413819 0.405454
0.469409 0.443520 0.431996
0.513596 0.465109 0.451290
0.547141 0.481499 0.465937
0.584790 0.499895 0.482377
0.197616 0.360097 0.344881
0.250018 0.385701 0.367762
0.318375 0.419100 0.397610
0.391291 0.454727 0.429448
0.462953 0.489741 0.460738
0.523740 0.519441 0.487280
0.567927 0.541031 0.506574
0.601472 0.557421 0.521221
0.639121 0.575817 0.537661
0.253727 0.438507 0.401977
0.306129 0.464111 0.424858
0.374486 0.497510 0.454705
0.447402 0.533137 0.486544
0.519064 0.568151 0.517834
0.579851 0.597852 0.544376
0.624038 0.619441 0.563670
0.657583 0.635831 0.578317
0.695232 0.654227 0.594757
0.308869 0.515563 0.458087
0.361271 0.541167 0.480968
0.429628 0.574566 0.510815
0.502544 0.610193 0.542654
0.574206 0.645207 0.573944
0.634993 0.674908 0.600486
0.679180 0.696497 0.619780
0.712725 0.712887 0.634427
0.750374 0.731283 0.650867
0.421698 0.673233 0.572897
0.474100 0.698837 0.595778
0.542458 0.732236 0.625626
0.615374 0.767862 0.657464
0.687036 0.802877 0.688755
0.747822 0.832577 0.715297
0.792009 0.854167 0.734591
0.825554 0.870557 0.749238
0.863204 0.888952 0.765677
0.000000 0.000000 0.102874
0.000960 0.023823 0.125755
0.069317 0.057222 0.155602
0.142233 0.092849 0.187441
0.213895 0.127863 0.218731
0.274682 0.157563 0.245273
0.318869 0.179153 0.264567
0.352414 0.195543 0.279214
0.390063 0.213938 0.295654
0.000897 0.071358 0.156132
0.053299 0.096962 0.179013
0.121656 0.130361 0.208860
0.194572 0.165988 0.240698
0.266234 0.201002 0.271989
0.327021 0.230702 0.298531
0.371208 0.252292 0.317825
0.404753 0.268682 0.332472
0.442402 0.287078 0.348911
0.056131 0.148544 0.212336
0.108533 0.174147 0.235217
0.176891 0.207547 0.265065
0.249807 0.243173 0.296903
0.321469 0.278188 0.328193
0.382256 0.307888 0.354735
0.426442 0.329478 0.374029
0.459987 0.345868 0.388676
0.497637 0.364263 0.405116
0.116094 0.232336 0.273351
0.168496 0.257940 0.296232
0.236853 0.291339 0.326080
0.309769 0.326966 0.357918
0.381432 0.361980 0.389209
0.442218 0.391680 0.415751
0.486405 0.413270 0.435044
0.519950 0.429660 0.449692
0.557599 0.448055 0.466131
0.174742 0.314291 0.333028
0.227144 0.339894 0.355909
0.295501 0.373294 0.385757
0.368417 0.408921 0.417595
0.440079 0.443935 0.448886
0.500866 0.473635 0.475428
0.545053 0.495225 0.494722
0.578598 0.511615 0.509369
0.616247 0.530010 0.525808
0.229072 0.390213 0.388312
0.281474 0.415816 0.411193
0.349831 0.449216 0.441041
0.422747 0.484842 0.472879
0.494410 0.519857 0.504170
0.555196 0.549557 0.530712
0.599383 0.571147 0.550006
0.632928 0.587537 0.564653
0.670577 0.605932 0.581092
0.285183 0.468623 0.445408
0.337585 0.494227 0.468289
0.405942 0.527626 0.498137
0.478858 0.563253 0.529975
0.550521 0.598267 0.561266
0.611307 0.627967 0.587808
0.655494 0.649557 0.607102
0.689039 0.665947 0.621749
0.726688 0.684342 0.638188
0.340325 0.545679 0.501518
0.392727 0.571283 0.524399
0.461084 0.604682 0.554247
0.534000 0.640309 0.586085
0.605663 0.675323 0.617376
0.666449 0.705023 0.643918
0.710636 0.726613 0.663212
0.744181 0.743003 0.677859
0.781830 0.761398 0.694298
0.453155 0.703348 0.616328
0.505557 0.728952 0.639209
0.573914 0.762351 0.669057
0.646830 0.797978 0.700895
0.718492 0.832992 0.732186
0.779279 0.862693 0.758728
0.823466 0.884282 0.778022
0.857011 0.900672 0.792669
0.894660 0.919068 0.809108
0.000000 0.032071 0.151693
0.036318 0.057674 0.174574
0.104676 0.091073 0.204422
0.177592 0.126700 0.236260
0.249254 0.161714 0.267551
0.310041 0.191415 0.294093
0.354227 0.213004 0.313386
0.387772 0.229394 0.328034
0.425422 0.247790 0.344473
0.036255 0.105210 0.204951
0.088658 0.130813 0.227832
0.157015 0.164213 0.257680
0.229931 0.199839 0.289518
0.301593 0.234854 0.320809
0.362380 0.264554 0.347350
0.406567 0.286144 0.366644
0.440112 0.302534 0.381291
0.477761 0.320929 0.397731
0.091490 0.182395 0.261155
0.143892 0.207999 0.284036
0.212249 0.241398 0.313884
0.285165 0.277025 0.345722
0.356828 0.312039 0.377013
0.417614 0.341739 0.403555
0.461801 0.363329 0.422849
0.495346 0.379719 0.437496
0.532995 0.398115 0.453935
0.151453 0.266188 0.322170
0.203855 0.291791 0.345051
0.272212 0.325191 0.374899
0.345128 0.360817 0.406737
0.416790 0.395832 0.438028
0.477577 0.425532 0.464570
0.521764 0.447122 0.483864
0.555309 0.463512 0.498511
0.592958 0.481907 0.514950
0.210100 0.348142 0.381848
0.262502 0.373746 0.404728
0.330860 0.407145 0.434576
0.403776 0.442772 0.466414
0.475438 0.477786 0.497705
0.536224 0.507487 0.524247
0.580411 0.529076 0.543541
0.613956 0.545466 0.558188
0.651606 0.563862 0.574627
0.264431 0.424064 0.437132
0.316833 0.449668 0.460013
0.385190 0.483067 0.489860
0.458106 0.518694 0.521698
0.529768 0.553708 0.552989
0.590555 0.583408 0.579531
0.634742 0.604998 0.598825
0.668287 0.621388 0.613472
0.705936 0.639784 0.629911
0.320542 0.502474 0.494228
0.372944 0.528078 0.517109
0.441301 0.561477 0.546956
0.514217 0.597104 0.578794
0.585879 0.632118 0.610085
0.646666 0.661819 0.636627
0.690853 0.683408 0.655921
0.724398 0.699798 0.670568
0.762047 0.718194 0.687007
0.375684 0.579530 0.550338
0.428086 0.605134 0.573218
0.496443 0.638533 0.603066
0.569359 0.674160 0.634904
0.641021 0.709174 0.666195
0.701808 0.738875 0.692737
0.745995 0.760464 0.712031
0.779540 0.776854 0.726678
0.817189 0.795250 0.743117
0.488513 0.737200 0.665148
0.540915 0.762804 0.688029
0.609273 0.796203 0.717876
0.682189 0.831830 0.749715
0.753851 0.866844 0.781005
0.814637 0.896544 0.807547
0.858824 0.918134 0.826841
0.892369 0.934524 0.841488
0.930019 0.952919 0.857928
0.018306 0.064994 0.199175
0.070708 0.090598 0.222056
0.139066 0.123997 0.251903
0.211981 0.159624 0.283741
0.283644 0.194638 0.315032
0.344430 0.224339 0.341574
0.388617 0.245928 0.360868
0.422162 0.262318 0.375515
0.459811 0.280714 0.391954
0.070645 0.138134 0.252433
0.123047 0.163737 0.275314
0.191405 0.197137 0.305161
0.264321 0.232763 0.336999
0.335983 0.267778 0.368290
0.396770 0.297478 0.394832
0.440956 0.319068 0.414126
0.474501 0.335458 0.428773
0.512151 0.353853 0.445212
0.125880 0.215319 0.308637
0.178282 0.240923 0.331518
0.246639 0.274322 0.361365
0.319555 0.309949 0.393204
0.391218 0.344963 0.424494
0.452004 0.374663 0.451036
0.496191 0.396253 0.470330
0.529736 0.412643 0.484977
0.567385 0.431039 0.501417
0.185843 0.299112 0.369652
0.238245 0.324715 0.392533
0.306602 0.358115 0.422381
0.379518 0.393741 0.454219
0.451180 0.428756 0.485510
0.511967 0.458456 0.512051
0.556154 0.480046 0.531345
0.589699 0.496436 0.545992
0.627348 0.514831 0.562432
0.244490 0.381066 0.429329
0.296892 0.406670 0.452210
0.365250 0.440069 0.482058
0.438165 0.475696 0.513896
0.509828 0.510710 0.545187
0.570614 0.540411 0.571729
0.614801 0.562000 0.591022
0.648346 0.578390 0.605670
0.685995 0.596786 0.622109
0.298820 0.456988 0.484613
0.351223 0.482592 0.507494
0.419580 0.515991 0.537342
0.492496 0.551618 0.569180
0.564158 0.586632 0.600471
0.624945 0.616332 0.627013
0.669132 0.637922 0.646307
0.702677 0.654312 0.660954
0.740326 0.672708 0.677393
0.354932 0.535398 0.541709
0.407334 0.561002 0.564590
0.475691 0.594401 0.594438
0.548607 0.630028 0.626276
0.620269 0.665042 0.657567
0.681056 0.694743 0.684109
0.725243 0.716332 0.703403
0.758788 0.732722 0.718050
0.796437 0.751118 0.734489
0.410074 0.612454 0.597819
0.462476 0.638058 0.620700
0.530833 0.671457 0.650548
0.603749 0.707084 0.682386
0.675411 0.742098 0.713677
0.736198 0.771799 0.740219
0.780385 0.793388 0.759512
0.813929 0.809778 0.774160
0.851579 0.828174 0.790599
0.522903 0.770124 0.712629
0.575305 0.795728 0.735510
0.643663 0.829127 0.765358
0.716578 0.864754 0.797196
0.788241 0.899768 0.828487
0.849027 0.929468 0.855029
0.893214 0.951058 0.874323
0.926759 0.967448 0.888970
0.964408 0.985843 0.905409
0.048792 0.094181 0.241266
0.101194 0.119784 0.264147
0.169551 0.153184 0.293994
0.242467 0.188810 0.325833
0.314130 0.223825 0.357123
0.374916 0.253525 0.383665
0.419103 0.275115 0.402959
0.452648 0.291505 0.417606
0.490297 0.309900 0.434046
0.101131 0.167320 0.294524
0.153533 0.192924 0.317405
0.221890 0.226323 0.347252
0.294806 0.261950 0.379090
0.366469 0.296964 0.410381
0.427255 0.326664 0.436923
0.471442 0.348254 0.456217
0.504987 0.364644 0.470864
0.542636 0.383039 0.487303
0.156366 0.244505 0.350728
0.208768 0.270109 0.373609
0.277125 0.303508 0.403457
0.350041 0.339135 0.435295
0.421703 0.374149 0.466586
0.482490 0.403850 0.493127
0.526677 0.425439 0.512421
0.560222 0.441829 0.527068
0.597871 0.460225 0.543508
0.216328 0.328298 0.411743
0.268730 0.353902 0.434624
0.337088 0.387301 0.464472
0.410003 0.422928 0.496310
0.481666 0.457942 0.527601
0.542452 0.487642 0.554143
0.586639 0.509232 0.573436
0.620184 0.525622 0.588084
0.657833 0.544017 0.604523
0.274976 0.410253 0.471420
0.327378 0.435856 0.494301
0.395735 0.469256 0.524149
0.468651 0.504882 0.555987
0.540314 0.539897 0.587278
0.601100 0.569597 0.613820
0.645287 0.591187 0.633114
0.678832 0.607577 0.647761
0.716481 0.625972 0.664200
0.329306 0.486175 0.526704
0.381708 0.511778 0.549585
0.450066 0.545178 0.579433
0.522981 0.580804 0.611271
0.594644 0.615819 0.642562
0.655430 0.645519 0.669104
0.699617 0.667108 0.688398
0.733162 0.683499 0.703045
0.770811 0.701894 0.719484
0.385417 0.564585 0.583800
0.437819 0.590188 0.606681
0.506177 0.623588 0.636529
0.579092 0.659214 0.668367
0.650755 0.694229 0.699658
0.711541 0.723929 0.726200
0.755728 0.745519 0.745494
0.789273 0.761909 0.760141
0.826922 0.780304 0.776580
0.440559 0.641641 0.639910
0.492961 0.667244 0.662791
0.561319 0.700644 0.692639
0.634234 0.736270 0.724477
0.705897 0.771285 0.755768
0.766683 0.800985 0.782310
0.810870 0.822575 0.801604
0.844415 0.838965 0.816251
0.882064 0.857360 0.832690
0.553389 0.799310 0.754721
0.605791 0.824914 0.777602
0.674148 0.858313 0.807449
0.747064 0.893940 0.839287
0.818727 0.928954 0.870578
0.879513 0.958654 0.897120
0.923700 0.980244 0.916414
0.957245 0.996634 0.931061
0.994894 1.000000 0.947500
0.072059 0.116456 0.273391
0.124461 0.142060 0.296272
0.192819 0.175459 0.326119
0.265735 0.211086 0.357958
0.337397 0.246100 0.389248
0.398183 0.275801 0.415790
0.442370 0.297390 0.435084
0.475915 0.313780 0.449731
0.513565 0.332176 0.466171
0.124398 0.189596 0.326649
0.176800 0.215199 0.349530
0.245158 0.248599 0.379377
0.318074 0.284225 0.411215
0.389736 0.319240 0.442506
0.450523 0.348940 0.469048
0.494709 0.370530 0.488342
0.528254 0.386920 0.502989
0.565904 0.405315 0.519428
0.179633 0.266781 0.382853
0.232035 0.292385 0.405734
0.300392 0.325784 0.435582
0.373308 0.361411 0.467420
0.444971 0.396425 0.498711
0.505757 0.426125 0.525252
0.549944 0.447715 0.544546
0.583489 0.464105 0.559193
0.621138 0.482500 0.575633
0.239596 0.350573 0.443868
0.291998 0.376177 0.466749
0.360355 0.409576 0.496597
0.433271 0.445203 0.528435
0.504933 0.480217 0.559726
0.565720 0.509918 0.586268
0.609907 0.531507 0.605561
0.643452 0.547897 0.620209
0.681101 0.566293 0.636648
0.298243 0.432528 0.503545
0.350645 0.458132 0.526426
0.419003 0.491531 0.556274
0.491919 0.527158 0.588112
0.563581 0.562172 0.619403
0.624367 0.591873 0.645945
0.668554 0.613462 0.665239
0.702099 0.629852 0.679886
0.739748 0.648248 0.696325
0.352574 0.508450 0.558829
0.404976 0.534054 0.581710
0.473333 0.567453 0.611558
0.546249 0.603080 0.643396
0.617911 0.638094 0.674687
0.678698 0.667794 0.701229
0.722885 0.689384 0.720523
0.756430 0.705774 0.735170
0.794079 0.724170 0.751609
0.408685 0.586860 0.615925
0.461087 0.612464 0.638806
0.529444 0.645863 0.668654
0.602360 0.681490 0.700492
0.674022 0.716504 0.731783
0.734809 0.746204 0.758325
0.778996 0.767794 0.777619
0.812541 0.784184 0.792266
0.850190 0.802580 0.808705
0.463827 0.663916 0.672035
0.516229 0.689520 0.694916
0.584586 0.722919 0.724764
0.657502 0.758546 0.756602
0.729164 0.793560 0.787893
0.789951 0.823261 0.814435
0.834138 0.844850 0.833729
0.867683 0.861240 0.848376
0.905332 0.879636 0.864815
0.576656 0.821586 0.786846
0.629058 0.847189 0.809727
0.697416 0.880589 0.839574
0.770332 0.916215 0.871412
0.841994 0.951230 0.902703
0.902780 0.980930 0.929245
0.946967 1.000000 0.948539
0.980512 1.000000 0.963186
1.000000 1.000000 0.979625
0.099742 0.142959 0.311612
0.152144 0.168563 0.334493
0.220501 0.201962 0.364341
0.293417 0.237589 0.396179
0.365080 0.272603 0.427470
0.425866 0.302303 0.454012
0.470053 0.323893 0.473305
0.503598 0.340283 0.487953
0.541247 0.358679 0.504392
0.152081 0.216098 0.364870
0.204483 0.241702 0.387751
0.272840 0.275101 0.417599
0.345756 0.310728 0.449437
0.417419 0.345742 0.480728
0.478205 0.375443 0.507269
0.522392 0.397032 0.526563
0.555937 0.413422 0.541210
0.593586 0.431818 0.557650
0.207316 0.293284 0.421074
0.259718 0.318888 0.443955
0.328075 0.352287 0.473803
0.400991 0.387914 0.505641
0.472654 0.422928 0.536932
0.533440 0.452628 0.563474
0.577627 0.474218 0.582768
0.611172 0.490608 0.597415
0.648821 0.509003 0.613854
0.267278 0.377076 0.482089
0.319680 0.402680 0.504970
0.388038 0.436079 0.534818
0.460954 0.471706 0.566656
0.532616 0.506720 0.597947
0.593403 0.536420 0.624489
0.637589 0.558010 0.643783
0.671134 0.574400 0.658430
0.708784 0.592796 0.674869
0.325926 0.459031 0.541766
0.378328 0.484635 0.564647
0.446685 0.518034 0.594495
0.519601 0.553661 0.626333
0.591264 0.588675 0.657624
0.652050 0.618375 0.684166
0.696237 0.639965 0.703460
0.729782 0.656355 0.718107
0.767431 0.674750 0.734546
0.380256 0.534953 0.597051
0.432658 0.560557 0.619932
0.501016 0.593956 0.649779
0.573932 0.629583 0.681617
0.645594 0.664597 0.712908
0.706380 0.694297 0.739450
0.750567 0.715887 0.758744
0.784112 0.732277 0.773391
0.821762 0.750672 0.789830
0.436367 0.613363 0.654147
0.488769 0.638967 0.677027
0.557127 0.672366 0.706875
0.630043 0.707993 0.738713
0.701705 0.743007 0.770004
0.762492 0.772707 0.796546
0.806678 0.794297 0.815840
0.840223 0.810687 0.830487
0.877873 0.829082 0.846926
0.491509 0.690419 0.710257
0.543911 0.716023 0.733137
0.612269 0.749422 0.762985
0.685185 0.785049 0.794823
0.756847 0.820063 0.826114
0.817634 0.849763 0.852656
0.861820 0.871353 0.871950
0.895365 0.887743 0.886597
0.933015 0.906138 0.903036
0.604339 0.848089 0.825067
0.656741 0.873692 0.847948
0.725098 0.907092 0.877795
0.798014 0.942718 0.909634
0.869677 0.977733 0.940924
0.930463 1.000000 0.967466
0.974650 1.000000 0.986760
1.000000 1.000000 1.000000
1.000000 1.000000 1.000000
