bench/results/pilot_a/clean_cool_handmade.cube
TITLE "Clean Cool (hand-made)"
LUT_3D_SIZE 5
DOMAIN_MIN 0.0 0.0 0.0
DOMAIN_MAX 1.0 1.0 1.0
0.000000 0.000000 0.008533
0.169634 0.000000 0.014271
0.406301 0.000000 0.020938
0.642968 0.000000 0.027605
0.879634 0.001271 0.034271
0.000000 0.212200 0.015200
0.176301 0.217938 0.020938
0.412968 0.224605 0.027605
0.649634 0.231271 0.034271
0.886301 0.237938 0.040938
0.000000 0.448867 0.021867
0.182968 0.454605 0.027605
0.419634 0.461271 0.034271
0.656301 0.467938 0.040938
0.892968 0.474605 0.047605
0.000000 0.685533 0.028533
0.189634 0.691271 0.034271
0.426301 0.697938 0.040938
0.662968 0.704605 0.047605
0.899634 0.711271 0.054271
0.000000 0.922200 0.035200
0.196301 0.927938 0.040938
0.432968 0.934605 0.047605
0.669634 0.941271 0.054271
0.906301 0.947938 0.060938
0.000000 0.000000 0.270090
0.177002 0.000000 0.275829
0.413669 0.000000 0.282495
0.650335 0.001973 0.289162
0.887002 0.008639 0.295828
0.000000 0.219568 0.276757
0.183669 0.225306 0.282495
0.420335 0.231973 0.289162
0.657002 0.238639 0.295828
0.893669 0.245306 0.302495
0.000000 0.456234 0.283424
0.190335 0.461973 0.289162
0.427002 0.468639 0.295828
0.663669 0.475306 0.302495
0.900335 0.481973 0.309162
0.000000 0.692901 0.290090
0.197002 0.698639 0.295828
0.433669 0.705306 0.302495
0.670335 0.711973 0.309162
0.907002 0.718639 0.315829
0.000000 0.929568 0.296757
0.203669 0.935306 0.302495
0.440335 0.941972 0.309162
0.677002 0.948639 0.315829
0.913669 0.955306 0.322495
0.000000 0.000000 0.506757
0.183669 0.000000 0.512495
0.420335 0.001973 0.519162
0.657002 0.008639 0.525828
0.893669 0.015306 0.532495
0.000000 0.226234 0.513424
0.190335 0.231973 0.519162
0.427002 0.238639 0.525828
0.663669 0.245306 0.532495
0.900335 0.251973 0.539162
0.000000 0.462901 0.520090
0.197002 0.468639 0.525828
0.433669 0.475306 0.532495
0.670335 0.481973 0.539162
0.907002 0.488639 0.545829
0.000000 0.699568 0.526757
0.203669 0.705306 0.532495
0.440335 0.711973 0.539162
0.677002 0.718639 0.545829
0.913669 0.725306 0.552495
0.006634 0.936234 0.533424
0.210335 0.941972 0.539162
0.447002 0.948639 0.545829
0.683669 0.955306 0.552495
0.920335 0.961973 0.559162
0.000000 0.000000 0.743424
0.190335 0.001973 0.749162
0.427002 0.008639 0.755828
0.663669 0.015306 0.762495
0.900335 0.021973 0.769162
0.000000 0.232901 0.750090
0.197002 0.238639 0.755828
0.433669 0.245306 0.762495
0.670335 0.251973 0.769162
0.907002 0.258639 0.775828
0.000000 0.469568 0.756757
0.203669 0.475306 0.762495
0.440335 0.481973 0.769162
0.677002 0.488639 0.775828
0.913669 0.495306 0.782495
0.006634 0.706235 0.763424
0.210335 0.711973 0.769162
0.447002 0.718639 0.775828
0.683669 0.725306 0.782495
0.920335 0.731973 0.789162
0.013301 0.942901 0.770090
0.217002 0.948639 0.775828
0.453669 0.955306 0.782495
0.690335 0.961973 0.789162
0.927002 0.968639 0.795829
0.000000 0.002901 0.980090
0.197002 0.008639 0.985829
0.433669 0.015306 0.992495
0.670335 0.021973 0.999162
0.907002 0.028639 1.000000
0.000000 0.239568 0.986757
0.203669 0.245306 0.992495
0.440335 0.251973 0.999162
0.677002 0.258639 1.000000
0.913669 0.265306 1.000000
0.006634 0.476234 0.993424
0.210335 0.481973 0.999162
0.447002 0.488639 1.000000
0.683669 0.495306 1.000000
0.920335 0.501973 1.000000
0.013301 0.712901 1.000000
0.217002 0.718639 1.000000
0.453669 0.725306 1.000000
0.690335 0.731973 1.000000
0.927002 0.738639 1.000000
0.019968 0.949568 1.000000
0.223669 0.955306 1.000000
0.460335 0.961973 1.000000
0.697002 0.968639 1.000000
0.933669 0.975306 1.000000
