bench/results/pilot_a/clean_cool_handmade.cube
TITLE "Clean Cool (hand-made)"
LUT_3D_SIZE 9
DOMAIN_MIN 0.0 0.0 0.0
DOMAIN_MAX 1.0 1.0 1.0
0.000000 0.000000 0.008533
0.067784 0.000000 0.011402
0.169634 0.000000 0.014271
0.287968 0.000000 0.017605
0.406301 0.000000 0.020938
0.524634 0.000000 0.024271
0.642968 0.000000 0.027605
0.761301 0.000000 0.030938
0.879634 0.001271 0.034271
0.000000 0.093867 0.011867
0.071117 0.096736 0.014736
0.172968 0.099605 0.017605
0.291301 0.102938 0.020938
0.409634 0.106271 0.024271
0.527968 0.109605 0.027605
0.646301 0.112938 0.030938
0.764634 0.116271 0.034271
0.882968 0.119605 0.037605
0.000000 0.212200 0.015200
0.074450 0.215069 0.018069
0.176301 0.217938 0.020938
0.294634 0.221271 0.024271
0.412968 0.224605 0.027605
0.531301 0.227938 0.030938
0.649634 0.231271 0.034271
0.767968 0.234605 0.037605
0.886301 0.237938 0.040938
0.000000 0.330533 0.018533
0.077784 0.333402 0.021402
0.179634 0.336271 0.024271
0.297968 0.339605 0.027605
0.416301 0.342938 0.030938
0.534634 0.346271 0.034271
0.652968 0.349605 0.037605
0.771301 0.352938 0.040938
0.889634 0.356271 0.044271
0.000000 0.448867 0.021867
0.081117 0.451736 0.024736
0.182968 0.454605 0.027605
0.301301 0.457938 0.030938
0.419634 0.461271 0.034271
0.537968 0.464605 0.037605
0.656301 0.467938 0.040938
0.774634 0.471271 0.044271
0.892968 0.474605 0.047605
0.000000 0.567200 0.025200
0.084450 0.570069 0.028069
0.186301 0.572938 0.030938
0.304634 0.576271 0.034271
0.422968 0.579605 0.037605
0.541301 0.582938 0.040938
0.659634 0.586271 0.044271
0.777968 0.589605 0.047605
0.896301 0.592938 0.050938
0.000000 0.685533 0.028533
0.087784 0.688402 0.031402
0.189634 0.691271 0.034271
0.307968 0.694605 0.037605
0.426301 0.697938 0.040938
0.544634 0.701271 0.044271
0.662968 0.704605 0.047605
0.781301 0.707938 0.050938
0.899634 0.711271 0.054271
0.000000 0.803867 0.031867
0.091117 0.806736 0.034736
0.192968 0.809605 0.037605
0.311301 0.812938 0.040938
0.429634 0.816271 0.044271
0.547968 0.819605 0.047605
0.666301 0.822938 0.050938
0.784634 0.826271 0.054271
0.902968 0.829605 0.057605
0.000000 0.922200 0.035200
0.094450 0.925069 0.038069
0.196301 0.927938 0.040938
0.314634 0.931271 0.044271
0.432968 0.934605 0.047605
0.551301 0.937938 0.050938
0.669634 0.941271 0.054271
0.787968 0.944605 0.057605
0.906301 0.947938 0.060938
0.000000 0.000000 0.139312
0.071468 0.000000 0.142181
0.173318 0.000000 0.145050
0.291651 0.000000 0.148383
0.409985 0.000000 0.151717
0.528318 0.000000 0.155050
0.646652 0.000000 0.158383
0.764985 0.001622 0.161717
0.883318 0.004955 0.165050
0.000000 0.097551 0.142645
0.074801 0.100420 0.145514
0.176651 0.103289 0.148383
0.294985 0.106622 0.151717
0.413318 0.109955 0.155050
0.531651 0.113289 0.158383
0.649985 0.116622 0.161717
0.768318 0.119955 0.165050
0.886652 0.123289 0.168383
0.000000 0.215884 0.145979
0.078134 0.218753 0.148848
0.179985 0.221622 0.151717
0.298318 0.224955 0.155050
0.416651 0.228289 0.158383
0.534985 0.231622 0.161717
0.653318 0.234955 0.165050
0.771652 0.238289 0.168383
0.889985 0.241622 0.171717
0.000000 0.334217 0.149312
0.081468 0.337086 0.152181
0.183318 0.339955 0.155050
0.301651 0.343289 0.158383
0.419985 0.346622 0.161717
0.538318 0.349955 0.165050
0.656651 0.353289 0.168383
0.774985 0.356622 0.171717
0.893318 0.359955 0.175050
0.000000 0.452551 0.152645
0.084801 0.455420 0.155514
0.186651 0.458289 0.158383
0.304985 0.461622 0.161717
0.423318 0.464955 0.165050
0.541651 0.468289 0.168383
0.659985 0.471622 0.171717
0.778318 0.474955 0.175050
0.896652 0.478289 0.178383
0.000000 0.570884 0.155979
0.088134 0.573753 0.158848
0.189985 0.576622 0.161717
0.308318 0.579955 0.165050
0.426651 0.583289 0.168383
0.544985 0.586622 0.171717
0.663318 0.589955 0.175050
0.781651 0.593289 0.178383
0.899985 0.596622 0.181717
0.000000 0.689217 0.159312
0.091468 0.692086 0.162181
0.193318 0.694955 0.165050
0.311651 0.698289 0.168383
0.429985 0.701622 0.171717
0.548318 0.704955 0.175050
0.666652 0.708289 0.178383
0.784985 0.711622 0.181717
0.903318 0.714955 0.185050
0.000000 0.807551 0.162645
0.094801 0.810420 0.165514
0.196651 0.813289 0.168383
0.314985 0.816622 0.171717
0.433318 0.819955 0.175050
0.551652 0.823289 0.178383
0.669985 0.826622 0.181717
0.788318 0.829955 0.185050
0.906652 0.833289 0.188383
0.000000 0.925884 0.165979
0.098134 0.928753 0.168848
0.199985 0.931622 0.171717
0.318318 0.934955 0.175050
0.436651 0.938289 0.178383
0.554985 0.941622 0.181717
0.673318 0.944955 0.185050
0.791652 0.948289 0.188383
0.909985 0.951622 0.191717
0.000000 0.000000 0.270090
0.075152 0.000000 0.272959
0.177002 0.000000 0.275829
0.295335 0.000000 0.279162
0.413669 0.000000 0.282495
0.532002 0.000000 0.285829
0.650335 0.001973 0.289162
0.768669 0.005306 0.292495
0.887002 0.008639 0.295828
0.000000 0.101234 0.273424
0.078485 0.104103 0.276293
0.180335 0.106973 0.279162
0.298669 0.110306 0.282495
0.417002 0.113639 0.285829
0.535335 0.116973 0.289162
0.653669 0.120306 0.292495
0.772002 0.123639 0.295828
0.890335 0.126973 0.299162
0.000000 0.219568 0.276757
0.081818 0.222437 0.279626
0.183669 0.225306 0.282495
0.302002 0.228639 0.285829
0.420335 0.231973 0.289162
0.538669 0.235306 0.292495
0.657002 0.238639 0.295828
0.775335 0.241973 0.299162
0.893669 0.245306 0.302495
0.000000 0.337901 0.280090
0.085152 0.340770 0.282959
0.187002 0.343639 0.285829
0.305335 0.346973 0.289162
0.423669 0.350306 0.292495
0.542002 0.353639 0.295828
0.660335 0.356973 0.299162
0.778669 0.360306 0.302495
0.897002 0.363639 0.305829
0.000000 0.456234 0.283424
0.088485 0.459103 0.286293
0.190335 0.461973 0.289162
0.308669 0.465306 0.292495
0.427002 0.468639 0.295828
0.545335 0.471973 0.299162
0.663669 0.475306 0.302495
0.782002 0.478639 0.305829
0.900335 0.481973 0.309162
0.000000 0.574568 0.286757
0.091818 0.577437 0.289626
0.193669 0.580306 0.292495
0.312002 0.583639 0.295828
0.430335 0.586973 0.299162
0.548669 0.590306 0.302495
0.667002 0.593639 0.305829
0.785335 0.596973 0.309162
0.903669 0.600306 0.312495
0.000000 0.692901 0.290090
0.095152 0.695770 0.292959
0.197002 0.698639 0.295828
0.315335 0.701973 0.299162
0.433669 0.705306 0.302495
0.552002 0.708639 0.305829
0.670335 0.711973 0.309162
0.788669 0.715306 0.312495
0.907002 0.718639 0.315829
0.000000 0.811234 0.293424
0.098485 0.814103 0.296293
0.200335 0.816973 0.299162
0.318669 0.820306 0.302495
0.437002 0.823639 0.305829
0.555335 0.826973 0.309162
0.673669 0.830306 0.312495
0.792002 0.833639 0.315829
0.910335 0.836973 0.319162
0.000000 0.929568 0.296757
0.101818 0.932437 0.299626
0.203669 0.935306 0.302495
0.322002 0.938639 0.305829
0.440335 0.941972 0.309162
0.558669 0.945306 0.312495
0.677002 0.948639 0.315829
0.795335 0.951973 0.319162
0.913669 0.955306 0.322495
0.000000 0.000000 0.388424
0.078485 0.000000 0.391293
0.180335 0.000000 0.394162
0.298669 0.000000 0.397495
0.417002 0.000000 0.400829
0.535335 0.001973 0.404162
0.653669 0.005306 0.407495
0.772002 0.008639 0.410829
0.890335 0.011973 0.414162
0.000000 0.104568 0.391757
0.081818 0.107437 0.394626
0.183669 0.110306 0.397495
0.302002 0.113639 0.400829
0.420335 0.116973 0.404162
0.538669 0.120306 0.407495
0.657002 0.123639 0.410829
0.775335 0.126973 0.414162
0.893669 0.130306 0.417495
0.000000 0.222901 0.395090
0.085152 0.225770 0.397959
0.187002 0.228639 0.400829
0.305335 0.231973 0.404162
0.423669 0.235306 0.407495
0.542002 0.238639 0.410829
0.660335 0.241973 0.414162
0.778669 0.245306 0.417495
0.897002 0.248639 0.420828
0.000000 0.341234 0.398424
0.088485 0.344104 0.401293
0.190335 0.346973 0.404162
0.308669 0.350306 0.407495
0.427002 0.353639 0.410829
0.545335 0.356973 0.414162
0.663669 0.360306 0.417495
0.782002 0.363639 0.420828
0.900335 0.366973 0.424162
0.000000 0.459568 0.401757
0.091818 0.462437 0.404626
0.193669 0.465306 0.407495
0.312002 0.468639 0.410829
0.430335 0.471973 0.414162
0.548669 0.475306 0.417495
0.667002 0.478639 0.420828
0.785335 0.481973 0.424162
0.903669 0.485306 0.427495
0.000000 0.577901 0.405090
0.095152 0.580770 0.407959
0.197002 0.583639 0.410829
0.315335 0.586973 0.414162
0.433669 0.590306 0.417495
0.552002 0.593639 0.420828
0.670335 0.596973 0.424162
0.788669 0.600306 0.427495
0.907002 0.603639 0.430829
0.000000 0.696234 0.408424
0.098485 0.699103 0.411293
0.200335 0.701973 0.414162
0.318669 0.705306 0.417495
0.437002 0.708639 0.420828
0.555335 0.711973 0.424162
0.673669 0.715306 0.427495
0.792002 0.718639 0.430829
0.910335 0.721973 0.434162
0.000000 0.814568 0.411757
0.101818 0.817437 0.414626
0.203669 0.820306 0.417495
0.322002 0.823639 0.420828
0.440335 0.826973 0.424162
0.558669 0.830306 0.427495
0.677002 0.833639 0.430829
0.795335 0.836973 0.434162
0.913669 0.840306 0.437495
0.003301 0.932901 0.415090
0.105152 0.935770 0.417959
0.207002 0.938639 0.420828
0.325335 0.941972 0.424162
0.443669 0.945306 0.427495
0.562002 0.948639 0.430829
0.680335 0.951973 0.434162
0.798669 0.955306 0.437495
0.917002 0.958639 0.440829
0.000000 0.000000 0.506757
0.081818 0.000000 0.509626
0.183669 0.000000 0.512495
0.302002 0.000000 0.515828
0.420335 0.001973 0.519162
0.538669 0.005306 0.522495
0.657002 0.008639 0.525828
0.775335 0.011973 0.529162
0.893669 0.015306 0.532495
0.000000 0.107901 0.510090
0.085152 0.110770 0.512959
0.187002 0.113639 0.515828
0.305335 0.116973 0.519162
0.423669 0.120306 0.522495
0.542002 0.123639 0.525828
0.660335 0.126973 0.529162
0.778669 0.130306 0.532495
0.897002 0.133639 0.535829
0.000000 0.226234 0.513424
0.088485 0.229104 0.516293
0.190335 0.231973 0.519162
0.308669 0.235306 0.522495
0.427002 0.238639 0.525828
0.545335 0.241973 0.529162
0.663669 0.245306 0.532495
0.782002 0.248639 0.535828
0.900335 0.251973 0.539162
0.000000 0.344568 0.516757
0.091818 0.347437 0.519626
0.193669 0.350306 0.522495
0.312002 0.353639 0.525828
0.430335 0.356973 0.529162
0.548669 0.360306 0.532495
0.667002 0.363639 0.535829
0.785335 0.366973 0.539162
0.903669 0.370306 0.542495
0.000000 0.462901 0.520090
0.095152 0.465770 0.522959
0.197002 0.468639 0.525828
0.315335 0.471973 0.529162
0.433669 0.475306 0.532495
0.552002 0.478639 0.535829
0.670335 0.481973 0.539162
0.788669 0.485306 0.542495
0.907002 0.488639 0.545829
0.000000 0.581234 0.523424
0.098485 0.584103 0.526293
0.200335 0.586973 0.529162
0.318669 0.590306 0.532495
0.437002 0.593639 0.535829
0.555335 0.596973 0.539162
0.673669 0.600306 0.542495
0.792002 0.603639 0.545829
0.910335 0.606973 0.549162
0.000000 0.699568 0.526757
0.101818 0.702437 0.529626
0.203669 0.705306 0.532495
0.322002 0.708639 0.535829
0.440335 0.711973 0.539162
0.558669 0.715306 0.542495
0.677002 0.718639 0.545829
0.795335 0.721973 0.549162
0.913669 0.725306 0.552495
0.003301 0.817901 0.530090
0.105152 0.820770 0.532959
0.207002 0.823639 0.535829
0.325335 0.826973 0.539162
0.443669 0.830306 0.542495
0.562002 0.833639 0.545829
0.680335 0.836973 0.549162
0.798669 0.840306 0.552495
0.917002 0.843639 0.555829
0.006634 0.936234 0.533424
0.108485 0.939103 0.536293
0.210335 0.941972 0.539162
0.328669 0.945306 0.542495
0.447002 0.948639 0.545829
0.565335 0.951973 0.549162
0.683669 0.955306 0.552495
0.802002 0.958639 0.555829
0.920335 0.961973 0.559162
0.000000 0.000000 0.625090
0.085152 0.000000 0.627959
0.187002 0.000000 0.630828
0.305335 0.001973 0.634162
0.423669 0.005306 0.637495
0.542002 0.008639 0.640828
0.660335 0.011973 0.644162
0.778669 0.015306 0.647495
0.897002 0.018639 0.650828
0.000000 0.111234 0.628424
0.088485 0.114104 0.631293
0.190335 0.116973 0.634162
0.308669 0.120306 0.637495
0.427002 0.123639 0.640828
0.545335 0.126973 0.644162
0.663669 0.130306 0.647495
0.782002 0.133639 0.650828
0.900335 0.136973 0.654162
0.000000 0.229568 0.631757
0.091818 0.232437 0.634626
0.193669 0.235306 0.637495
0.312002 0.238639 0.640828
0.430335 0.241973 0.644162
0.548669 0.245306 0.647495
0.667002 0.248639 0.650828
0.785335 0.251973 0.654162
0.903669 0.255306 0.657495
0.000000 0.347901 0.635090
0.095152 0.350770 0.637959
0.197002 0.353639 0.640828
0.315335 0.356973 0.644162
0.433669 0.360306 0.647495
0.552002 0.363639 0.650828
0.670335 0.366973 0.654162
0.788669 0.370306 0.657495
0.907002 0.373639 0.660829
0.000000 0.466234 0.638424
0.098485 0.469103 0.641293
0.200335 0.471973 0.644162
0.318669 0.475306 0.647495
0.437002 0.478639 0.650828
0.555335 0.481973 0.654162
0.673669 0.485306 0.657495
0.792002 0.488639 0.660828
0.910335 0.491973 0.664162
0.000000 0.584568 0.641757
0.101818 0.587437 0.644626
0.203669 0.590306 0.647495
0.322002 0.593639 0.650828
0.440335 0.596973 0.654162
0.558669 0.600306 0.657495
0.677002 0.603639 0.660829
0.795335 0.606973 0.664162
0.913669 0.610306 0.667495
0.003301 0.702901 0.645090
0.105152 0.705770 0.647959
0.207002 0.708639 0.650828
0.325335 0.711973 0.654162
0.443669 0.715306 0.657495
0.562002 0.718639 0.660829
0.680335 0.721973 0.664162
0.798669 0.725306 0.667495
0.917002 0.728639 0.670829
0.006634 0.821234 0.648424
0.108485 0.824103 0.651293
0.210335 0.826973 0.654162
0.328669 0.830306 0.657495
0.447002 0.833639 0.660829
0.565335 0.836973 0.664162
0.683669 0.840306 0.667495
0.802002 0.843639 0.670829
0.920335 0.846973 0.674162
0.009968 0.939568 0.651757
0.111818 0.942437 0.654626
0.213669 0.945306 0.657495
0.332002 0.948639 0.660829
0.450335 0.951972 0.664162
0.568669 0.955306 0.667495
0.687002 0.958639 0.670829
0.805335 0.961973 0.674162
0.923669 0.965306 0.677495
0.000000 0.000000 0.743424
0.088485 0.000000 0.746293
0.190335 0.001973 0.749162
0.308669 0.005306 0.752495
0.427002 0.008639 0.755828
0.545335 0.011973 0.759162
0.663669 0.015306 0.762495
0.782002 0.018639 0.765828
0.900335 0.021973 0.769162
0.000000 0.114568 0.746757
0.091818 0.117437 0.749626
0.193669 0.120306 0.752495
0.312002 0.123639 0.755828
0.430335 0.126973 0.759162
0.548669 0.130306 0.762495
0.667002 0.133639 0.765828
0.785335 0.136973 0.769162
0.903669 0.140306 0.772495
0.000000 0.232901 0.750090
0.095152 0.235770 0.752959
0.197002 0.238639 0.755828
0.315335 0.241973 0.759162
0.433669 0.245306 0.762495
0.552002 0.248639 0.765828
0.670335 0.251973 0.769162
0.788669 0.255306 0.772495
0.907002 0.258639 0.775828
0.000000 0.351234 0.753424
0.098485 0.354104 0.756293
0.200335 0.356973 0.759162
0.318669 0.360306 0.762495
0.437002 0.363639 0.765828
0.555335 0.366973 0.769162
0.673669 0.370306 0.772495
0.792002 0.373639 0.775828
0.910335 0.376973 0.779162
0.000000 0.469568 0.756757
0.101818 0.472437 0.759626
0.203669 0.475306 0.762495
0.322002 0.478639 0.765828
0.440335 0.481973 0.769162
0.558669 0.485306 0.772495
0.677002 0.488639 0.775828
0.795335 0.491973 0.779162
0.913669 0.495306 0.782495
0.003301 0.587901 0.760090
0.105152 0.590770 0.762959
0.207002 0.593639 0.765828
0.325335 0.596973 0.769162
0.443669 0.600306 0.772495
0.562002 0.603639 0.775828
0.680335 0.606973 0.779162
0.798669 0.610306 0.782495
0.917002 0.613639 0.785829
0.006634 0.706235 0.763424
0.108485 0.709104 0.766293
0.210335 0.711973 0.769162
0.328669 0.715306 0.772495
0.447002 0.718639 0.775828
0.565335 0.721973 0.779162
0.683669 0.725306 0.782495
0.802002 0.728639 0.785828
0.920335 0.731973 0.789162
0.009968 0.824568 0.766757
0.111818 0.827437 0.769626
0.213669 0.830306 0.772495
0.332002 0.833639 0.775828
0.450335 0.836973 0.779162
0.568669 0.840306 0.782495
0.687002 0.843639 0.785829
0.805335 0.846973 0.789162
0.923669 0.850306 0.792495
0.013301 0.942901 0.770090
0.115152 0.945770 0.772959
0.217002 0.948639 0.775828
0.335335 0.951973 0.779162
0.453669 0.955306 0.782495
0.572002 0.958639 0.785829
0.690335 0.961973 0.789162
0.808669 0.965306 0.792495
0.927002 0.968639 0.795829
0.000000 0.000000 0.861757
0.091818 0.002437 0.864626
0.193669 0.005306 0.867495
0.312002 0.008639 0.870829
0.430335 0.011973 0.874162
0.548669 0.015306 0.877495
0.667002 0.018639 0.880828
0.785335 0.021973 0.884162
0.903669 0.025306 0.887495
0.000000 0.117901 0.865090
0.095152 0.120770 0.867959
0.197002 0.123639 0.870829
0.315335 0.126973 0.874162
0.433669 0.130306 0.877495
0.552002 0.133639 0.880828
0.670335 0.136973 0.884162
0.788669 0.140306 0.887495
0.907002 0.143639 0.890828
0.000000 0.236234 0.868424
0.098485 0.239103 0.871293
0.200335 0.241973 0.874162
0.318669 0.245306 0.877495
0.437002 0.248639 0.880828
0.555335 0.251973 0.884162
0.673669 0.255306 0.887495
0.792002 0.258639 0.890828
0.910335 0.261973 0.894162
0.000000 0.354568 0.871757
0.101818 0.357437 0.874626
0.203669 0.360306 0.877495
0.322002 0.363639 0.880828
0.440335 0.366973 0.884162
0.558669 0.370306 0.887495
0.677002 0.373639 0.890828
0.795335 0.376973 0.894162
0.913669 0.380306 0.897495
0.003301 0.472901 0.875090
0.105152 0.475770 0.877959
0.207002 0.478639 0.880828
0.325335 0.481973 0.884162
0.443669 0.485306 0.887495
0.562002 0.488639 0.890828
0.680335 0.491973 0.894162
0.798669 0.495306 0.897495
0.917002 0.498639 0.900828
0.006634 0.591235 0.878424
0.108485 0.594104 0.881293
0.210335 0.596973 0.884162
0.328669 0.600306 0.887495
0.447002 0.603639 0.890828
0.565335 0.606973 0.894162
0.683669 0.610306 0.897495
0.802002 0.613639 0.900828
0.920335 0.616973 0.904162
0.009968 0.709568 0.881757
0.111818 0.712437 0.884626
0.213669 0.715306 0.887495
0.332002 0.718639 0.890828
0.450335 0.721973 0.894162
0.568669 0.725306 0.897495
0.687002 0.728639 0.900828
0.805335 0.731973 0.904162
0.923669 0.735306 0.907495
0.013301 0.827901 0.885090
0.115152 0.830770 0.887959
0.217002 0.833639 0.890828
0.335335 0.836973 0.894162
0.453669 0.840306 0.897495
0.572002 0.843639 0.900828
0.690335 0.846973 0.904162
0.808669 0.850306 0.907495
0.927002 0.853639 0.910828
0.016634 0.946235 0.888424
0.118485 0.949104 0.891293
0.220335 0.951973 0.894162
0.338669 0.955306 0.897495
0.457002 0.958639 0.900828
0.575335 0.961973 0.904162
0.693669 0.965306 0.907495
0.812002 0.968639 0.910828
0.930335 0.971973 0.914162
0.000000 0.002901 0.980090
0.095152 0.005770 0.982960
0.197002 0.008639 0.985829
0.315335 0.011973 0.989162
0.433669 0.015306 0.992495
0.552002 0.018639 0.995829
0.670335 0.021973 0.999162
0.788669 0.025306 1.000000
0.907002 0.028639 1.000000
0.000000 0.121234 0.983424
0.098485 0.124104 0.986293
0.200335 0.126973 0.989162
0.318669 0.130306 0.992495
0.437002 0.133639 0.995829
0.555335 0.136973 0.999162
0.673669 0.140306 1.000000
0.792002 0.143639 1.000000
0.910335 0.146973 1.000000
0.000000 0.239568 0.986757
0.101818 0.242437 0.989626
0.203669 0.245306 0.992495
0.322002 0.248639 0.995829
0.440335 0.251973 0.999162
0.558669 0.255306 1.000000
0.677002 0.258639 1.000000
0.795335 0.261973 1.000000
0.913669 0.265306 1.000000
0.003301 0.357901 0.990090
0.105152 0.360770 0.992959
0.207002 0.363639 0.995829
0.325335 0.366973 0.999162
0.443669 0.370306 1.000000
0.562002 0.373639 1.000000
0.680335 0.376973 1.000000
0.798669 0.380306 1.000000
0.917002 0.383639 1.000000
0.006634 0.476234 0.993424
0.108485 0.479103 0.996293
0.210335 0.481973 0.999162
0.328669 0.485306 1.000000
0.447002 0.488639 1.000000
0.565335 0.491973 1.000000
0.683669 0.495306 1.000000
0.802002 0.498639 1.000000
0.920335 0.501973 1.000000
0.009968 0.594568 0.996757
0.111818 0.597437 0.999626
0.213669 0.600306 1.000000
0.332002 0.603639 1.000000
0.450335 0.606973 1.000000
0.568669 0.610306 1.000000
0.687002 0.613639 1.000000
0.805335 0.616973 1.000000
0.923669 0.620306 1.000000
0.013301 0.712901 1.000000
0.115152 0.715770 1.000000
0.217002 0.718639 1.000000
0.335335 0.721973 1.000000
0.453669 0.725306 1.000000
0.572002 0.728639 1.000000
0.690335 0.731973 1.000000
0.808669 0.735306 1.000000
0.927002 0.738639 1.000000
0.016634 0.831235 1.000000
0.118485 0.834104 1.000000
0.220335 0.836973 1.000000
0.338669 0.840306 1.000000
0.457002 0.843639 1.000000
0.575335 0.846973 1.000000
0.693669 0.850306 1.000000
0.812002 0.853639 1.000000
0.930335 0.856973 1.000000
0.019968 0.949568 1.000000
0.121818 0.952437 1.000000
0.223669 0.955306 1.000000
0.342002 0.958639 1.000000
0.460335 0.961973 1.000000
0.578669 0.965306 1.000000
0.697002 0.968639 1.000000
0.815335 0.971973 1.000000
0.933669 0.975306 1.000000
