bench/results/pilot_a_v2/clean_cool_average.cube
TITLE "Clean Cool (average)"
LUT_3D_SIZE 5
DOMAIN_MIN 0.0 0.0 0.0
DOMAIN_MAX 1.0 1.0 1.0
0.000000 0.000000 0.000000
0.020547 0.000000 0.000000
0.258748 0.000000 0.030703
0.411008 0.024814 0.053366
0.495564 0.042835 0.065952
0.000000 0.084820 0.064132
0.110455 0.121261 0.089583
0.348655 0.172028 0.125038
0.500916 0.204478 0.147701
0.585472 0.222499 0.160287
0.029423 0.264585 0.158520
0.200413 0.301027 0.183971
0.438614 0.351793 0.219426
0.590874 0.384244 0.242089
0.675430 0.402264 0.254675
0.110690 0.426982 0.243789
0.281680 0.463424 0.269240
0.519881 0.514190 0.304695
0.672141 0.546641 0.327358
0.756697 0.564662 0.339944
0.244520 0.694418 0.384210
0.415511 0.730860 0.409661
0.653711 0.781626 0.445116
0.805972 0.814077 0.467779
0.890528 0.832098 0.480364
0.000000 0.000000 0.112211
0.047943 0.007046 0.137662
0.286144 0.057812 0.173117
0.438405 0.090263 0.195780
0.522960 0.108284 0.208366
0.000000 0.150268 0.206546
0.137851 0.186710 0.231997
0.376051 0.237476 0.267452
0.528312 0.269927 0.290115
0.612868 0.287947 0.302701
0.056819 0.330034 0.300934
0.227809 0.366476 0.326385
0.466010 0.417242 0.361840
0.618271 0.449692 0.384503
0.702826 0.467713 0.397089
0.138086 0.492431 0.386203
0.309076 0.528873 0.411654
0.547277 0.579639 0.447109
0.699537 0.612090 0.469772
0.784093 0.630110 0.482358
0.271917 0.759867 0.526624
0.442907 0.796309 0.552075
0.681107 0.847075 0.587529
0.833368 0.879526 0.610193
0.917924 0.897546 0.622778
0.000000 0.035044 0.252429
0.074917 0.071486 0.277880
0.313118 0.122252 0.313335
0.465378 0.154702 0.335998
0.549934 0.172723 0.348584
0.000000 0.214708 0.346764
0.164824 0.251150 0.372215
0.403025 0.301916 0.407670
0.555286 0.334366 0.430333
0.639842 0.352387 0.442919
0.083793 0.394474 0.441152
0.254783 0.430916 0.466603
0.492984 0.481682 0.502058
0.645244 0.514132 0.524721
0.729800 0.532153 0.537307
0.165060 0.556871 0.526421
0.336050 0.593313 0.551872
0.574250 0.644079 0.587327
0.726511 0.676529 0.609990
0.811067 0.694550 0.622575
0.298890 0.824307 0.666842
0.469880 0.860749 0.692292
0.708081 0.911515 0.727747
0.860342 0.943965 0.750410
0.944897 0.961986 0.762996
0.000000 0.103261 0.400866
0.103472 0.139703 0.426317
0.341672 0.190469 0.461772
0.493933 0.222919 0.484435
0.578489 0.240940 0.497020
0.022389 0.282924 0.495201
0.193379 0.319366 0.520651
0.431580 0.370132 0.556106
0.583840 0.402583 0.578769
0.668396 0.420604 0.591355
0.112348 0.462690 0.589589
0.283338 0.499132 0.615040
0.521538 0.549898 0.650495
0.673799 0.582349 0.673158
0.758355 0.600369 0.685743
0.193614 0.625087 0.674857
0.364605 0.661529 0.700308
0.602805 0.712295 0.735763
0.755066 0.744746 0.758426
0.839622 0.762766 0.771012
0.327445 0.892523 0.815278
0.498435 0.928965 0.840729
0.736636 0.979731 0.876184
0.888896 1.000000 0.898847
0.973452 1.000000 0.911433
0.000000 0.158601 0.521283
0.126636 0.195043 0.546734
0.364837 0.245809 0.582189
0.517098 0.278259 0.604852
0.601653 0.296280 0.617438
0.045554 0.338264 0.615618
0.216544 0.374706 0.641069
0.454744 0.425472 0.676524
0.607005 0.457923 0.699187
0.691561 0.475944 0.711773
0.135512 0.518030 0.710007
0.306502 0.554472 0.735457
0.544703 0.605238 0.770912
0.696964 0.637689 0.793575
0.781520 0.655709 0.806161
0.216779 0.680427 0.795275
0.387769 0.716869 0.820726
0.625970 0.767635 0.856181
0.778230 0.800086 0.878844
0.862786 0.818106 0.891430
0.350610 0.947863 0.935696
0.521600 0.984305 0.961147
0.759800 1.000000 0.996602
0.912061 1.000000 1.000000
0.996617 1.000000 1.000000
