bench/results/pilot_a_v2/clean_cool_average.cube
TITLE "Clean Cool (average)"
LUT_3D_SIZE 33
DOMAIN_MIN 0.0 0.0 0.0
DOMAIN_MAX 1.0 1.0 1.0
0.000000 0.000000 0.000000
0.000000 0.000000 0.000000
0.000000 0.000000 0.000000
0.000000 0.000000 0.000000
0.000000 0.000000 0.000000
0.000000 0.000000 0.000000
0.000000 0.000000 0.000000
0.000000 0.000000 0.000000
0.020547 0.000000 0.000000
0.048954 0.000000 0.000000
0.077361 0.000000 0.003705
0.105767 0.000000 0.007933
0.134174 0.000000 0.012161
0.165317 0.000000 0.016797
0.196461 0.000000 0.021432
0.227604 0.000000 0.026068
0.258748 0.000000 0.030703
0.282324 0.000000 0.034212
0.305901 0.002413 0.037722
0.329478 0.007438 0.041231
0.353054 0.012463 0.044740
0.367543 0.015550 0.046897
0.382031 0.018638 0.049053
0.396520 0.021726 0.051210
0.411008 0.024814 0.053366
0.421231 0.026993 0.054888
0.431453 0.029171 0.056409
0.441676 0.031350 0.057931
0.451898 0.033529 0.059453
0.462815 0.035855 0.061077
0.473731 0.038182 0.062702
0.484648 0.040508 0.064327
0.495564 0.042835 0.065952
0.000000 0.000000 0.000000
0.000000 0.000000 0.000000
0.000000 0.000000 0.000000
0.000000 0.000000 0.000000
0.000000 0.000000 0.000000
0.000000 0.000000 0.000000
0.000000 0.000000 0.000386
0.009756 0.000000 0.003646
0.031658 0.000000 0.006906
0.060065 0.000000 0.011134
0.088471 0.000000 0.015362
0.116878 0.000000 0.019591
0.145285 0.000000 0.023819
0.176428 0.000000 0.028454
0.207572 0.001291 0.033090
0.238715 0.007929 0.037725
0.269858 0.014566 0.042361
0.293435 0.019591 0.045870
0.317012 0.024616 0.049379
0.340588 0.029640 0.052889
0.364165 0.034665 0.056398
0.378653 0.037753 0.058554
0.393142 0.040841 0.060711
0.407630 0.043929 0.062868
0.422119 0.047016 0.065024
0.432341 0.049195 0.066546
0.442564 0.051374 0.068067
0.452787 0.053552 0.069589
0.463009 0.055731 0.071110
0.473926 0.058058 0.072735
0.484842 0.060384 0.074360
0.495758 0.062711 0.075985
0.506675 0.065037 0.077610
0.000000 0.000000 0.000000
0.000000 0.000000 0.000000
0.000000 0.000000 0.000000
0.000000 0.000000 0.002421
0.000000 0.000000 0.005524
0.000000 0.000000 0.008784
0.000000 0.000000 0.012044
0.020866 0.000000 0.015304
0.042768 0.000000 0.018564
0.071175 0.000000 0.022792
0.099582 0.000000 0.027020
0.127989 0.004165 0.031248
0.156395 0.010219 0.035477
0.187539 0.016857 0.040112
0.218682 0.023494 0.044748
0.249826 0.030131 0.049383
0.280969 0.036769 0.054019
0.304546 0.041793 0.057528
0.328122 0.046818 0.061037
0.351699 0.051843 0.064546
0.375276 0.056868 0.068056
0.389764 0.059955 0.070212
0.404253 0.063043 0.072369
0.418741 0.066131 0.074525
0.433230 0.069219 0.076682
0.443452 0.071398 0.078203
0.453675 0.073576 0.079725
0.463897 0.075755 0.081246
0.474120 0.077934 0.082768
0.485036 0.080260 0.084393
0.495953 0.082587 0.086018
0.506869 0.084913 0.087643
0.517785 0.087240 0.089267
0.000000 0.000000 0.004771
0.000000 0.000000 0.007873
0.000000 0.000000 0.010976
0.000000 0.000000 0.014079
0.000000 0.000000 0.017182
0.000000 0.000000 0.020442
0.010075 0.000000 0.023702
0.031977 0.003537 0.026962
0.053879 0.008205 0.030221
0.082286 0.014259 0.034450
0.110692 0.020313 0.038678
0.139099 0.026368 0.042906
0.167506 0.032422 0.047134
0.198649 0.039059 0.051770
0.229793 0.045696 0.056405
0.260936 0.052334 0.061041
0.292080 0.058971 0.065676
0.315656 0.063996 0.069186
0.339233 0.069021 0.072695
0.362809 0.074045 0.076204
0.386386 0.079070 0.079713
0.400875 0.082158 0.081870
0.415363 0.085246 0.084026
0.429852 0.088334 0.086183
0.444340 0.091421 0.088339
0.454563 0.093600 0.089861
0.464785 0.095779 0.091383
0.475008 0.097957 0.092904
0.485230 0.100136 0.094426
0.496147 0.102463 0.096051
0.507063 0.104789 0.097675
0.517980 0.107116 0.099300
0.528896 0.109442 0.100925
0.000000 0.000000 0.016428
0.000000 0.000000 0.019531
0.000000 0.002851 0.022634
0.000000 0.007294 0.025737
0.000000 0.011737 0.028839
0.000000 0.016404 0.032099
0.021186 0.021072 0.035359
0.043088 0.025740 0.038619
0.064990 0.030408 0.041879
0.093396 0.036462 0.046107
0.121803 0.042516 0.050336
0.150210 0.048570 0.054564
0.178616 0.054624 0.058792
0.209760 0.061262 0.063427
0.240903 0.067899 0.068063
0.272047 0.074536 0.072699
0.303190 0.081174 0.077334
0.326767 0.086199 0.080843
0.350343 0.091223 0.084353
0.373920 0.096248 0.087862
0.397497 0.101273 0.091371
0.411985 0.104361 0.093528
0.426474 0.107448 0.095684
0.440962 0.110536 0.097841
0.455451 0.113624 0.099997
0.465673 0.115803 0.101519
0.475896 0.117981 0.103040
0.486118 0.120160 0.104562
0.496341 0.122339 0.106083
0.507257 0.124665 0.107708
0.518174 0.126992 0.109333
0.529090 0.129318 0.110958
0.540007 0.131645 0.112583
0.000000 0.016679 0.028354
0.000000 0.021122 0.031457
0.000000 0.025565 0.034560
0.000000 0.030007 0.037663
0.000000 0.034450 0.040765
0.010650 0.039118 0.044025
0.032552 0.043786 0.047285
0.054454 0.048453 0.050545
0.076356 0.053121 0.053805
0.104763 0.059175 0.058033
0.133169 0.065229 0.062262
0.161576 0.071284 0.066490
0.189983 0.077338 0.070718
0.221126 0.083975 0.075353
0.252270 0.090612 0.079989
0.283413 0.097250 0.084624
0.314556 0.103887 0.089260
0.338133 0.108912 0.092769
0.361710 0.113937 0.096279
0.385286 0.118961 0.099788
0.408863 0.123986 0.103297
0.423352 0.127074 0.105454
0.437840 0.130162 0.107610
0.452329 0.133250 0.109767
0.466817 0.136337 0.111923
0.477040 0.138516 0.113445
0.487262 0.140695 0.114966
0.497485 0.142873 0.116488
0.507707 0.145052 0.118009
0.518624 0.147379 0.119634
0.529540 0.149705 0.121259
0.540456 0.152032 0.122884
0.551373 0.154358 0.124509
0.000000 0.039393 0.040280
0.000000 0.043835 0.043383
0.000000 0.048278 0.046486
0.000000 0.052721 0.049588
0.000114 0.057163 0.052691
0.022016 0.061831 0.055951
0.043918 0.066499 0.059211
0.065820 0.071167 0.062471
0.087722 0.075835 0.065731
0.116129 0.081889 0.069959
0.144536 0.087943 0.074188
0.172942 0.093997 0.078416
0.201349 0.100051 0.082644
0.232492 0.106688 0.087279
0.263636 0.113326 0.091915
0.294779 0.119963 0.096550
0.325923 0.126601 0.101186
0.349499 0.131625 0.104695
0.373076 0.136650 0.108204
0.396653 0.141675 0.111714
0.420229 0.146700 0.115223
0.434718 0.149787 0.117380
0.449206 0.152875 0.119536
0.463695 0.155963 0.121693
0.478183 0.159051 0.123849
0.488406 0.161230 0.125371
0.498628 0.163408 0.126892
0.508851 0.165587 0.128414
0.519073 0.167766 0.129935
0.529990 0.170092 0.131560
0.540906 0.172419 0.133185
0.551823 0.174745 0.134810
0.562739 0.177072 0.136435
0.000000 0.062106 0.052206
0.000000 0.066549 0.055309
0.000000 0.070991 0.058412
0.000000 0.075434 0.061514
0.011481 0.079877 0.064617
0.033383 0.084545 0.067877
0.055285 0.089212 0.071137
0.077186 0.093880 0.074397
0.099088 0.098548 0.077657
0.127495 0.104602 0.081885
0.155902 0.110656 0.086113
0.184309 0.116710 0.090342
0.212715 0.122765 0.094570
0.243859 0.129402 0.099205
0.275002 0.136039 0.103841
0.306146 0.142677 0.108476
0.337289 0.149314 0.113112
0.360866 0.154339 0.116621
0.384442 0.159364 0.120130
0.408019 0.164388 0.123640
0.431596 0.169413 0.127149
0.446084 0.172501 0.129306
0.460573 0.175589 0.131462
0.475061 0.178677 0.133619
0.489550 0.181764 0.135775
0.499772 0.183943 0.137297
0.509995 0.186122 0.138818
0.520217 0.188300 0.140340
0.530440 0.190479 0.141861
0.541356 0.192806 0.143486
0.552273 0.195132 0.145111
0.563189 0.197459 0.146736
0.574106 0.199785 0.148361
0.000000 0.084820 0.064132
0.000000 0.089262 0.067235
0.000000 0.093705 0.070338
0.002001 0.098148 0.073440
0.022847 0.102590 0.076543
0.044749 0.107258 0.079803
0.066651 0.111926 0.083063
0.088553 0.116594 0.086323
0.110455 0.121261 0.089583
0.138861 0.127316 0.093811
0.167268 0.133370 0.098039
0.195675 0.139424 0.102268
0.224082 0.145478 0.106496
0.255225 0.152115 0.111131
0.286368 0.158753 0.115767
0.317512 0.165390 0.120402
0.348655 0.172028 0.125038
0.372232 0.177052 0.128547
0.395809 0.182077 0.132056
0.419385 0.187102 0.135566
0.442962 0.192126 0.139075
0.457450 0.195214 0.141231
0.471939 0.198302 0.143388
0.486427 0.201390 0.145545
0.500916 0.204478 0.147701
0.511138 0.206656 0.149223
0.521361 0.208835 0.150744
0.531583 0.211014 0.152266
0.541806 0.213192 0.153787
0.552722 0.215519 0.155412
0.563639 0.217845 0.157037
0.574555 0.220172 0.158662
0.585472 0.222499 0.160287
0.000000 0.108311 0.076466
0.000000 0.112753 0.079569
0.000000 0.117196 0.082672
0.013757 0.121639 0.085775
0.034602 0.126081 0.088877
0.056504 0.130749 0.092137
0.078406 0.135417 0.095397
0.100308 0.140085 0.098657
0.122210 0.144753 0.101917
0.150617 0.150807 0.106146
0.179024 0.156861 0.110374
0.207430 0.162915 0.114602
0.235837 0.168969 0.118830
0.266980 0.175606 0.123466
0.298124 0.182244 0.128101
0.329267 0.188881 0.132737
0.360411 0.195519 0.137372
0.383987 0.200543 0.140881
0.407564 0.205568 0.144391
0.431141 0.210593 0.147900
0.454717 0.215618 0.151409
0.469206 0.218705 0.153566
0.483694 0.221793 0.155722
0.498183 0.224881 0.157879
0.512671 0.227969 0.160035
0.522894 0.230148 0.161557
0.533116 0.232326 0.163079
0.543339 0.234505 0.164600
0.553561 0.236684 0.166122
0.564478 0.239010 0.167747
0.575394 0.241337 0.169371
0.586311 0.243663 0.170996
0.597227 0.245990 0.172621
0.000000 0.131802 0.088801
0.000000 0.136244 0.091904
0.004667 0.140687 0.095006
0.025512 0.145130 0.098109
0.046358 0.149572 0.101212
0.068260 0.154240 0.104472
0.090162 0.158908 0.107732
0.112064 0.163576 0.110992
0.133966 0.168244 0.114252
0.162372 0.174298 0.118480
0.190779 0.180352 0.122708
0.219186 0.186406 0.126936
0.247592 0.192460 0.131164
0.278736 0.199098 0.135800
0.309879 0.205735 0.140435
0.341023 0.212372 0.145071
0.372166 0.219010 0.149707
0.395743 0.224034 0.153216
0.419319 0.229059 0.156725
0.442896 0.234084 0.160234
0.466473 0.239109 0.163744
0.480961 0.242196 0.165900
0.495450 0.245284 0.168057
0.509938 0.248372 0.170213
0.524427 0.251460 0.172370
0.534649 0.253639 0.173891
0.544872 0.255817 0.175413
0.555094 0.257996 0.176934
0.565317 0.260175 0.178456
0.576233 0.262501 0.180081
0.587150 0.264828 0.181706
0.598066 0.267154 0.183331
0.608983 0.269481 0.184955
0.000000 0.155293 0.101135
0.000000 0.159735 0.104238
0.016422 0.164178 0.107341
0.037268 0.168621 0.110443
0.058113 0.173064 0.113546
0.080015 0.177731 0.116806
0.101917 0.182399 0.120066
0.123819 0.187067 0.123326
0.145721 0.191735 0.126586
0.174128 0.197789 0.130814
0.202534 0.203843 0.135042
0.230941 0.209897 0.139271
0.259348 0.215951 0.143499
0.290491 0.222589 0.148134
0.321635 0.229226 0.152770
0.352778 0.235863 0.157405
0.383922 0.242501 0.162041
0.407498 0.247526 0.165550
0.431075 0.252550 0.169059
0.454651 0.257575 0.172569
0.478228 0.262600 0.176078
0.492717 0.265688 0.178234
0.507205 0.268775 0.180391
0.521694 0.271863 0.182547
0.536182 0.274951 0.184704
0.546405 0.277130 0.186226
0.556627 0.279308 0.187747
0.566850 0.281487 0.189269
0.577072 0.283666 0.190790
0.587989 0.285992 0.192415
0.598905 0.288319 0.194040
0.609822 0.290645 0.195665
0.620738 0.292972 0.197290
0.000000 0.178784 0.113469
0.007332 0.183227 0.116572
0.028177 0.187669 0.119675
0.049023 0.192112 0.122778
0.069869 0.196555 0.125880
0.091771 0.201222 0.129140
0.113673 0.205890 0.132400
0.135574 0.210558 0.135660
0.157476 0.215226 0.138920
0.185883 0.221280 0.143148
0.214290 0.227334 0.147377
0.242697 0.233388 0.151605
0.271103 0.239442 0.155833
0.302247 0.246080 0.160469
0.333390 0.252717 0.165104
0.364534 0.259355 0.169740
0.395677 0.265992 0.174375
0.419254 0.271017 0.177884
0.442830 0.276041 0.181394
0.466407 0.281066 0.184903
0.489984 0.286091 0.188412
0.504472 0.289179 0.190569
0.518961 0.292266 0.192725
0.533449 0.295354 0.194882
0.547938 0.298442 0.197038
0.558160 0.300621 0.198560
0.568383 0.302799 0.200081
0.578605 0.304978 0.201603
0.588828 0.307157 0.203125
0.599744 0.309483 0.204749
0.610661 0.311810 0.206374
0.621577 0.314136 0.207999
0.632493 0.316463 0.209624
0.000000 0.200234 0.124732
0.018066 0.204677 0.127835
0.038912 0.209120 0.130938
0.059757 0.213562 0.134040
0.080603 0.218005 0.137143
0.102505 0.222673 0.140403
0.124407 0.227341 0.143663
0.146309 0.232008 0.146923
0.168211 0.236676 0.150183
0.196617 0.242730 0.154411
0.225024 0.248784 0.158639
0.253431 0.254839 0.162868
0.281837 0.260893 0.167096
0.312981 0.267530 0.171731
0.344124 0.274168 0.176367
0.375268 0.280805 0.181002
0.406411 0.287442 0.185638
0.429988 0.292467 0.189147
0.453564 0.297492 0.192656
0.477141 0.302516 0.196166
0.500718 0.307541 0.199675
0.515206 0.310629 0.201831
0.529695 0.313717 0.203988
0.544183 0.316805 0.206145
0.558672 0.319892 0.208301
0.568894 0.322071 0.209823
0.579117 0.324250 0.211344
0.589339 0.326428 0.212866
0.599562 0.328607 0.214387
0.610478 0.330934 0.216012
0.621395 0.333260 0.217637
0.632311 0.335587 0.219262
0.643228 0.337913 0.220887
0.007955 0.221685 0.135995
0.028800 0.226127 0.139098
0.049646 0.230570 0.142200
0.070492 0.235013 0.145303
0.091337 0.239455 0.148406
0.113239 0.244123 0.151666
0.135141 0.248791 0.154926
0.157043 0.253459 0.158186
0.178945 0.258127 0.161446
0.207352 0.264181 0.165674
0.235758 0.270235 0.169902
0.264165 0.276289 0.174130
0.292572 0.282343 0.178359
0.323715 0.288980 0.182994
0.354859 0.295618 0.187630
0.386002 0.302255 0.192265
0.417145 0.308893 0.196901
0.440722 0.313917 0.200410
0.464299 0.318942 0.203919
0.487875 0.323967 0.207428
0.511452 0.328992 0.210938
0.525940 0.332079 0.213094
0.540429 0.335167 0.215251
0.554918 0.338255 0.217407
0.569406 0.341343 0.219564
0.579629 0.343522 0.221085
0.589851 0.345700 0.222607
0.600074 0.347879 0.224129
0.610296 0.350057 0.225650
0.621213 0.352384 0.227275
0.632129 0.354711 0.228900
0.643045 0.357037 0.230525
0.653962 0.359364 0.232150
0.018689 0.243135 0.147258
0.039534 0.247578 0.150360
0.060380 0.252020 0.153463
0.081226 0.256463 0.156566
0.102071 0.260906 0.159669
0.123973 0.265574 0.162929
0.145875 0.270241 0.166189
0.167777 0.274909 0.169449
0.189679 0.279577 0.172709
0.218086 0.285631 0.176937
0.246492 0.291685 0.181165
0.274899 0.297739 0.185393
0.303306 0.303793 0.189621
0.334449 0.310431 0.194257
0.365593 0.317068 0.198892
0.396736 0.323706 0.203528
0.427880 0.330343 0.208163
0.451456 0.335368 0.211673
0.475033 0.340392 0.215182
0.498609 0.345417 0.218691
0.522186 0.350442 0.222200
0.536675 0.353530 0.224357
0.551163 0.356618 0.226514
0.565652 0.359705 0.228670
0.580140 0.362793 0.230827
0.590363 0.364972 0.232348
0.600585 0.367151 0.233870
0.610808 0.369329 0.235391
0.621030 0.371508 0.236913
0.631947 0.373834 0.238538
0.642863 0.376161 0.240163
0.653780 0.378487 0.241787
0.664696 0.380814 0.243412
0.029423 0.264585 0.158520
0.050269 0.269028 0.161623
0.071114 0.273471 0.164726
0.091960 0.277913 0.167829
0.112806 0.282356 0.170931
0.134707 0.287024 0.174191
0.156609 0.291692 0.177451
0.178511 0.296360 0.180711
0.200413 0.301027 0.183971
0.228820 0.307081 0.188200
0.257227 0.313136 0.192428
0.285633 0.319190 0.196656
0.314040 0.325244 0.200884
0.345184 0.331881 0.205520
0.376327 0.338519 0.210155
0.407470 0.345156 0.214791
0.438614 0.351793 0.219426
0.462190 0.356818 0.222935
0.485767 0.361843 0.226445
0.509344 0.366868 0.229954
0.532920 0.371892 0.233463
0.547409 0.374980 0.235620
0.561897 0.378068 0.237776
0.576386 0.381156 0.239933
0.590874 0.384244 0.242089
0.601097 0.386422 0.243611
0.611319 0.388601 0.245133
0.621542 0.390780 0.246654
0.631765 0.392958 0.248176
0.642681 0.395285 0.249801
0.653597 0.397611 0.251425
0.664514 0.399938 0.253050
0.675430 0.402264 0.254675
0.039324 0.284370 0.168909
0.060170 0.288813 0.172012
0.081015 0.293256 0.175114
0.101861 0.297699 0.178217
0.122706 0.302141 0.181320
0.144608 0.306809 0.184580
0.166510 0.311477 0.187840
0.188412 0.316145 0.191100
0.210314 0.320812 0.194360
0.238721 0.326867 0.198588
0.267128 0.332921 0.202816
0.295534 0.338975 0.207044
0.323941 0.345029 0.211273
0.355084 0.351666 0.215908
0.386228 0.358304 0.220544
0.417371 0.364941 0.225179
0.448515 0.371578 0.229815
0.472091 0.376603 0.233324
0.495668 0.381628 0.236833
0.519245 0.386653 0.240342
0.542821 0.391677 0.243852
0.557310 0.394765 0.246008
0.571798 0.397853 0.248165
0.586287 0.400941 0.250321
0.600775 0.404029 0.252478
0.610998 0.406207 0.253999
0.621220 0.408386 0.255521
0.631443 0.410565 0.257043
0.641665 0.412743 0.258564
0.652582 0.415070 0.260189
0.663498 0.417396 0.261814
0.674415 0.419723 0.263439
0.685331 0.422050 0.265063
0.049225 0.304156 0.179297
0.070070 0.308598 0.182400
0.090916 0.313041 0.185503
0.111762 0.317484 0.188606
0.132607 0.321926 0.191708
0.154509 0.326594 0.194968
0.176411 0.331262 0.198228
0.198313 0.335930 0.201488
0.220215 0.340598 0.204748
0.248622 0.346652 0.208976
0.277028 0.352706 0.213205
0.305435 0.358760 0.217433
0.333842 0.364814 0.221661
0.364985 0.371451 0.226297
0.396129 0.378089 0.230932
0.427272 0.384726 0.235568
0.458416 0.391364 0.240203
0.481992 0.396388 0.243712
0.505569 0.401413 0.247222
0.529145 0.406438 0.250731
0.552722 0.411463 0.254240
0.567211 0.414550 0.256397
0.581699 0.417638 0.258553
0.596188 0.420726 0.260710
0.610676 0.423814 0.262866
0.620899 0.425993 0.264388
0.631121 0.428171 0.265909
0.641344 0.430350 0.267431
0.651566 0.432529 0.268953
0.662483 0.434855 0.270577
0.673399 0.437182 0.272202
0.684316 0.439508 0.273827
0.695232 0.441835 0.275452
0.059126 0.323941 0.189686
0.079971 0.328383 0.192789
0.100817 0.332826 0.195891
0.121663 0.337269 0.198994
0.142508 0.341712 0.202097
0.164410 0.346379 0.205357
0.186312 0.351047 0.208617
0.208214 0.355715 0.211877
0.230116 0.360383 0.215137
0.258523 0.366437 0.219365
0.286929 0.372491 0.223593
0.315336 0.378545 0.227821
0.343743 0.384599 0.232049
0.374886 0.391237 0.236685
0.406030 0.397874 0.241321
0.437173 0.404511 0.245956
0.468316 0.411149 0.250592
0.491893 0.416174 0.254101
0.515470 0.421198 0.257610
0.539046 0.426223 0.261119
0.562623 0.431248 0.264629
0.577112 0.434336 0.266785
0.591600 0.437423 0.268942
0.606089 0.440511 0.271098
0.620577 0.443599 0.273255
0.630800 0.445778 0.274776
0.641022 0.447956 0.276298
0.651245 0.450135 0.277819
0.661467 0.452314 0.279341
0.672384 0.454640 0.280966
0.683300 0.456967 0.282591
0.694217 0.459293 0.284216
0.705133 0.461620 0.285840
0.069027 0.343726 0.200074
0.089872 0.348169 0.203177
0.110718 0.352611 0.206280
0.131563 0.357054 0.209383
0.152409 0.361497 0.212485
0.174311 0.366164 0.215745
0.196213 0.370832 0.219005
0.218115 0.375500 0.222265
0.240017 0.380168 0.225525
0.268424 0.386222 0.229753
0.296830 0.392276 0.233982
0.325237 0.398330 0.238210
0.353644 0.404384 0.242438
0.384787 0.411022 0.247073
0.415931 0.417659 0.251709
0.447074 0.424297 0.256344
0.478217 0.430934 0.260980
0.501794 0.435959 0.264489
0.525371 0.440983 0.267999
0.548947 0.446008 0.271508
0.572524 0.451033 0.275017
0.587012 0.454121 0.277174
0.601501 0.457209 0.279330
0.615990 0.460296 0.281487
0.630478 0.463384 0.283643
0.640701 0.465563 0.285165
0.650923 0.467742 0.286686
0.661146 0.469920 0.288208
0.671368 0.472099 0.289729
0.682285 0.474425 0.291354
0.693201 0.476752 0.292979
0.704117 0.479078 0.294604
0.715034 0.481405 0.296229
0.079442 0.364540 0.211003
0.100288 0.368983 0.214106
0.121134 0.373425 0.217208
0.141979 0.377868 0.220311
0.162825 0.382311 0.223414
0.184727 0.386979 0.226674
0.206629 0.391646 0.229934
0.228531 0.396314 0.233194
0.250433 0.400982 0.236454
0.278839 0.407036 0.240682
0.307246 0.413090 0.244910
0.335653 0.419144 0.249138
0.364059 0.425199 0.253367
0.395203 0.431836 0.258002
0.426346 0.438473 0.262638
0.457490 0.445111 0.267273
0.488633 0.451748 0.271909
0.512210 0.456773 0.275418
0.535787 0.461798 0.278927
0.559363 0.466822 0.282436
0.582940 0.471847 0.285946
0.597428 0.474935 0.288102
0.611917 0.478023 0.290259
0.626405 0.481110 0.292415
0.640894 0.484198 0.294572
0.651116 0.486377 0.296093
0.661339 0.488556 0.297615
0.671561 0.490734 0.299137
0.681784 0.492913 0.300658
0.692700 0.495239 0.302283
0.703617 0.497566 0.303908
0.714533 0.499893 0.305533
0.725450 0.502219 0.307158
0.089858 0.385354 0.221932
0.110704 0.389797 0.225034
0.131550 0.394240 0.228137
0.152395 0.398682 0.231240
0.173241 0.403125 0.234343
0.195143 0.407793 0.237603
0.217045 0.412461 0.240863
0.238946 0.417128 0.244123
0.260848 0.421796 0.247383
0.289255 0.427850 0.251611
0.317662 0.433904 0.255839
0.346069 0.439959 0.260067
0.374475 0.446013 0.264295
0.405619 0.452650 0.268931
0.436762 0.459287 0.273566
0.467906 0.465925 0.278202
0.499049 0.472562 0.282837
0.522626 0.477587 0.286347
0.546202 0.482612 0.289856
0.569779 0.487636 0.293365
0.593356 0.492661 0.296874
0.607844 0.495749 0.299031
0.622333 0.498837 0.301188
0.636821 0.501925 0.303344
0.651310 0.505012 0.305501
0.661532 0.507191 0.307022
0.671755 0.509370 0.308544
0.681977 0.511548 0.310065
0.692200 0.513727 0.311587
0.703116 0.516054 0.313212
0.714033 0.518380 0.314837
0.724949 0.520707 0.316461
0.735865 0.523033 0.318086
0.100274 0.406168 0.232860
0.121120 0.410611 0.235963
0.141965 0.415054 0.239066
0.162811 0.419496 0.242169
0.183657 0.423939 0.245271
0.205558 0.428607 0.248531
0.227460 0.433275 0.251791
0.249362 0.437942 0.255051
0.271264 0.442610 0.258311
0.299671 0.448664 0.262539
0.328078 0.454718 0.266768
0.356484 0.460773 0.270996
0.384891 0.466827 0.275224
0.416035 0.473464 0.279860
0.447178 0.480101 0.284495
0.478321 0.486739 0.289131
0.509465 0.493376 0.293766
0.533041 0.498401 0.297275
0.556618 0.503426 0.300785
0.580195 0.508450 0.304294
0.603771 0.513475 0.307803
0.618260 0.516563 0.309960
0.632748 0.519651 0.312116
0.647237 0.522739 0.314273
0.661725 0.525827 0.316429
0.671948 0.528005 0.317951
0.682170 0.530184 0.319472
0.692393 0.532363 0.320994
0.702615 0.534541 0.322516
0.713532 0.536868 0.324140
0.724448 0.539194 0.325765
0.735365 0.541521 0.327390
0.746281 0.543847 0.329015
0.110690 0.426982 0.243789
0.131536 0.431425 0.246892
0.152381 0.435868 0.249995
0.173227 0.440310 0.253097
0.194072 0.444753 0.256200
0.215974 0.449421 0.259460
0.237876 0.454089 0.262720
0.259778 0.458757 0.265980
0.281680 0.463424 0.269240
0.310087 0.469478 0.273468
0.338493 0.475533 0.277696
0.366900 0.481587 0.281925
0.395307 0.487641 0.286153
0.426450 0.494278 0.290788
0.457594 0.500916 0.295424
0.488737 0.507553 0.300059
0.519881 0.514190 0.304695
0.543457 0.519215 0.308204
0.567034 0.524240 0.311713
0.590611 0.529265 0.315223
0.614187 0.534289 0.318732
0.628676 0.537377 0.320888
0.643164 0.540465 0.323045
0.657653 0.543553 0.325201
0.672141 0.546641 0.327358
0.682364 0.548819 0.328880
0.692586 0.550998 0.330401
0.702809 0.553177 0.331923
0.713031 0.555355 0.333444
0.723948 0.557682 0.335069
0.734864 0.560008 0.336694
0.745781 0.562335 0.338319
0.756697 0.564662 0.339944
0.122187 0.449957 0.255852
0.143033 0.454400 0.258955
0.163878 0.458843 0.262058
0.184724 0.463285 0.265161
0.205569 0.467728 0.268263
0.227471 0.472396 0.271523
0.249373 0.477064 0.274783
0.271275 0.481731 0.278043
0.293177 0.486399 0.281303
0.321584 0.492453 0.285531
0.349991 0.498507 0.289760
0.378397 0.504562 0.293988
0.406804 0.510616 0.298216
0.437947 0.517253 0.302851
0.469091 0.523890 0.307487
0.500234 0.530528 0.312123
0.531378 0.537165 0.316758
0.554954 0.542190 0.320267
0.578531 0.547215 0.323777
0.602108 0.552239 0.327286
0.625684 0.557264 0.330795
0.640173 0.560352 0.332952
0.654661 0.563440 0.335108
0.669150 0.566528 0.337265
0.683638 0.569615 0.339421
0.693861 0.571794 0.340943
0.704083 0.573973 0.342464
0.714306 0.576151 0.343986
0.724528 0.578330 0.345507
0.735445 0.580657 0.347132
0.746361 0.582983 0.348757
0.757278 0.585310 0.350382
0.768194 0.587636 0.352007
0.133684 0.472932 0.267915
0.154530 0.477375 0.271018
0.175375 0.481817 0.274121
0.196221 0.486260 0.277224
0.217066 0.490703 0.280326
0.238968 0.495370 0.283586
0.260870 0.500038 0.286846
0.282772 0.504706 0.290106
0.304674 0.509374 0.293366
0.333081 0.515428 0.297595
0.361488 0.521482 0.301823
0.389894 0.527536 0.306051
0.418301 0.533590 0.310279
0.449444 0.540228 0.314915
0.480588 0.546865 0.319550
0.511731 0.553503 0.324186
0.542875 0.560140 0.328821
0.566451 0.565165 0.332330
0.590028 0.570189 0.335840
0.613605 0.575214 0.339349
0.637181 0.580239 0.342858
0.651670 0.583327 0.345015
0.666158 0.586414 0.347171
0.680647 0.589502 0.349328
0.695135 0.592590 0.351484
0.705358 0.594769 0.353006
0.715580 0.596947 0.354528
