bench/results/pilot_a_v2/clean_cool_average.cube
TITLE "Clean Cool (average)"
LUT_3D_SIZE 9
DOMAIN_MIN 0.0 0.0 0.0
DOMAIN_MAX 1.0 1.0 1.0
0.000000 0.000000 0.000000
0.000000 0.000000 0.000000
0.020547 0.000000 0.000000
0.134174 0.000000 0.012161
0.258748 0.000000 0.030703
0.353054 0.012463 0.044740
0.411008 0.024814 0.053366
0.451898 0.033529 0.059453
0.495564 0.042835 0.065952
0.000000 0.000000 0.016428
0.000000 0.011737 0.028839
0.064990 0.030408 0.041879
0.178616 0.054624 0.058792
0.303190 0.081174 0.077334
0.397497 0.101273 0.091371
0.455451 0.113624 0.099997
0.496341 0.122339 0.106083
0.540007 0.131645 0.112583
0.000000 0.084820 0.064132
0.022847 0.102590 0.076543
0.110455 0.121261 0.089583
0.224082 0.145478 0.106496
0.348655 0.172028 0.125038
0.442962 0.192126 0.139075
0.500916 0.204478 0.147701
0.541806 0.213192 0.153787
0.585472 0.222499 0.160287
0.000000 0.178784 0.113469
0.069869 0.196555 0.125880
0.157476 0.215226 0.138920
0.271103 0.239442 0.155833
0.395677 0.265992 0.174375
0.489984 0.286091 0.188412
0.547938 0.298442 0.197038
0.588828 0.307157 0.203125
0.632493 0.316463 0.209624
0.029423 0.264585 0.158520
0.112806 0.282356 0.170931
0.200413 0.301027 0.183971
0.314040 0.325244 0.200884
0.438614 0.351793 0.219426
0.532920 0.371892 0.233463
0.590874 0.384244 0.242089
0.631765 0.392958 0.248176
0.675430 0.402264 0.254675
0.069027 0.343726 0.200074
0.152409 0.361497 0.212485
0.240017 0.380168 0.225525
0.353644 0.404384 0.242438
0.478217 0.430934 0.260980
0.572524 0.451033 0.275017
0.630478 0.463384 0.283643
0.671368 0.472099 0.289729
0.715034 0.481405 0.296229
0.110690 0.426982 0.243789
0.194072 0.444753 0.256200
0.281680 0.463424 0.269240
0.395307 0.487641 0.286153
0.519881 0.514190 0.304695
0.614187 0.534289 0.318732
0.672141 0.546641 0.327358
0.713031 0.555355 0.333444
0.756697 0.564662 0.339944
0.156678 0.518881 0.292042
0.240061 0.536652 0.304453
0.327668 0.555323 0.317493
0.441295 0.579540 0.334405
0.565869 0.606089 0.352948
0.660175 0.626188 0.366985
0.718129 0.638540 0.375611
0.759019 0.647254 0.381697
0.802685 0.656560 0.388196
0.244520 0.694418 0.384210
0.327903 0.712189 0.396621
0.415511 0.730860 0.409661
0.529137 0.755077 0.426573
0.653711 0.781626 0.445116
0.748018 0.801725 0.459153
0.805972 0.814077 0.467779
0.846862 0.822791 0.473865
0.890528 0.832098 0.480364
0.000000 0.000000 0.050051
0.000000 0.000000 0.062462
0.035985 0.000000 0.075501
0.149612 0.002696 0.092414
0.274186 0.029245 0.110956
0.368493 0.049344 0.124993
0.426447 0.061696 0.133619
0.467337 0.070410 0.139706
0.511002 0.079716 0.146205
0.000000 0.030847 0.096681
0.000000 0.048618 0.109092
0.080428 0.067289 0.122132
0.194055 0.091506 0.139045
0.318628 0.118055 0.157587
0.412935 0.138154 0.171624
0.470889 0.150506 0.180250
0.511779 0.159220 0.186337
0.555445 0.168527 0.192836
0.000000 0.121701 0.144385
0.038285 0.139472 0.156796
0.125893 0.158143 0.169836
0.239520 0.182360 0.186749
0.364094 0.208909 0.205291
0.458400 0.229008 0.219328
0.516354 0.241359 0.227954
0.557244 0.250074 0.234040
0.600910 0.259380 0.240540
0.001925 0.215666 0.193722
0.085307 0.233436 0.206133
0.172915 0.252108 0.219173
0.286542 0.276324 0.236086
0.411115 0.302874 0.254628
0.505422 0.322973 0.268665
0.563376 0.335324 0.277291
0.604266 0.344039 0.283378
0.647932 0.353345 0.289877
0.044861 0.301467 0.238774
0.128244 0.319238 0.251185
0.215851 0.337909 0.264225
0.329478 0.362126 0.281137
0.454052 0.388675 0.299679
0.548359 0.408774 0.313716
0.606313 0.421125 0.322343
0.647203 0.429840 0.328429
0.690869 0.439146 0.334928
0.084465 0.380608 0.280327
0.167847 0.398378 0.292738
0.255455 0.417050 0.305778
0.369082 0.441266 0.322691
0.493656 0.467816 0.341233
0.587962 0.487915 0.355270
0.645916 0.500266 0.363896
0.686806 0.508981 0.369983
0.730472 0.518287 0.376482
0.126128 0.463864 0.324042
0.209511 0.481635 0.336453
0.297118 0.500306 0.349493
0.410745 0.524523 0.366406
0.535319 0.551072 0.384948
0.629625 0.571171 0.398985
0.687580 0.583522 0.407611
0.728470 0.592237 0.413697
0.772135 0.601543 0.420197
0.172116 0.555763 0.372295
0.255499 0.573534 0.384706
0.343106 0.592205 0.397746
0.456733 0.616422 0.414659
0.581307 0.642971 0.433201
0.675614 0.663070 0.447238
0.733568 0.675421 0.455864
0.774458 0.684136 0.461950
0.818123 0.693442 0.468450
0.259959 0.731300 0.464463
0.343341 0.749071 0.476874
0.430949 0.767742 0.489914
0.544576 0.791959 0.506827
0.669149 0.818508 0.525369
0.763456 0.838607 0.539406
0.821410 0.850958 0.548032
0.862300 0.859673 0.554118
0.905966 0.868979 0.560617
0.000000 0.000000 0.112211
0.000000 0.000000 0.124622
0.047943 0.007046 0.137662
0.161570 0.031263 0.154575
0.286144 0.057812 0.173117
0.380450 0.077911 0.187154
0.438405 0.090263 0.195780
0.479295 0.098977 0.201867
0.522960 0.108284 0.208366
0.000000 0.059415 0.158842
0.004778 0.077185 0.171253
0.092386 0.095857 0.184293
0.206013 0.120073 0.201206
0.330586 0.146623 0.219748
0.424893 0.166722 0.233785
0.482847 0.179073 0.242411
0.523737 0.187787 0.248497
0.567403 0.197094 0.254997
0.000000 0.150268 0.206546
0.050243 0.168039 0.218957
0.137851 0.186710 0.231997
0.251478 0.210927 0.248910
0.376051 0.237476 0.267452
0.470358 0.257575 0.281489
0.528312 0.269927 0.290115
0.569202 0.278641 0.296201
0.612868 0.287947 0.302701
0.013882 0.244233 0.255883
0.097265 0.262003 0.268294
0.184873 0.280675 0.281334
0.298499 0.304891 0.298247
0.423073 0.331441 0.316789
0.517380 0.351540 0.330826
0.575334 0.363891 0.339452
0.616224 0.372606 0.345539
0.659890 0.381912 0.352038
0.056819 0.330034 0.300934
0.140202 0.347805 0.313345
0.227809 0.366476 0.326385
0.341436 0.390693 0.343298
0.466010 0.417242 0.361840
0.560317 0.437341 0.375877
0.618271 0.449692 0.384503
0.659161 0.458407 0.390590
0.702826 0.467713 0.397089
0.096423 0.409175 0.342488
0.179805 0.426946 0.354899
0.267413 0.445617 0.367939
0.381040 0.469833 0.384852
0.505614 0.496383 0.403394
0.599920 0.516482 0.417431
0.657874 0.528833 0.426057
0.698764 0.537548 0.432143
0.742430 0.546854 0.438643
0.138086 0.492431 0.386203
0.221469 0.510202 0.398614
0.309076 0.528873 0.411654
0.422703 0.553090 0.428567
0.547277 0.579639 0.447109
0.641583 0.599738 0.461146
0.699537 0.612090 0.469772
0.740427 0.620804 0.475858
0.784093 0.630110 0.482358
0.184074 0.584330 0.434456
0.267457 0.602101 0.446867
0.355064 0.620772 0.459907
0.468691 0.644989 0.476819
0.593265 0.671538 0.495362
0.687571 0.691637 0.509399
0.745525 0.703988 0.518025
0.786416 0.712703 0.524111
0.830081 0.722009 0.530610
0.271917 0.759867 0.526624
0.355299 0.777638 0.539035
0.442907 0.796309 0.552075
0.556534 0.820526 0.568987
0.681107 0.847075 0.587529
0.775414 0.867174 0.601567
0.833368 0.879526 0.610193
0.874258 0.888240 0.616279
0.917924 0.897546 0.622778
0.000000 0.000000 0.173582
0.000000 0.016579 0.185993
0.059749 0.035251 0.199033
0.173376 0.059467 0.215946
0.297950 0.086017 0.234488
0.392256 0.106115 0.248525
0.450210 0.118467 0.257151
0.491101 0.127181 0.263238
0.534766 0.136488 0.269737
0.000000 0.087619 0.220213
0.016584 0.105389 0.232624
0.104192 0.124061 0.245664
0.217819 0.148277 0.262577
0.342392 0.174827 0.281119
0.436699 0.194926 0.295156
0.494653 0.207277 0.303782
0.535543 0.215992 0.309868
0.579209 0.225298 0.316368
0.000000 0.178472 0.267917
0.062049 0.196243 0.280328
0.149657 0.214914 0.293368
0.263284 0.239131 0.310281
0.387857 0.265680 0.328823
0.482164 0.285779 0.342860
0.540118 0.298131 0.351486
0.581008 0.306845 0.357572
0.624674 0.316151 0.364072
0.025688 0.272437 0.317254
0.109071 0.290208 0.329665
0.196678 0.308879 0.342705
0.310305 0.333095 0.359618
0.434879 0.359645 0.378160
0.529186 0.379744 0.392197
0.587140 0.392095 0.400823
0.628030 0.400810 0.406910
0.671695 0.410116 0.413409
0.068625 0.358238 0.362305
0.152008 0.376009 0.374716
0.239615 0.394680 0.387756
0.353242 0.418897 0.404669
0.477816 0.445446 0.423211
0.572122 0.465545 0.437248
0.630076 0.477897 0.445874
0.670967 0.486611 0.451961
0.714632 0.495917 0.458460
0.108229 0.437379 0.403859
0.191611 0.455150 0.416270
0.279219 0.473821 0.429310
0.392846 0.498037 0.446223
0.517419 0.524587 0.464765
0.611726 0.544686 0.478802
0.669680 0.557037 0.487428
0.710570 0.565752 0.493514
0.754236 0.575058 0.500014
0.149892 0.520635 0.447574
0.233274 0.538406 0.459985
0.320882 0.557077 0.473025
0.434509 0.581294 0.489938
0.559083 0.607843 0.508480
0.653389 0.627942 0.522517
0.711343 0.640294 0.531143
0.752233 0.649008 0.537229
0.795899 0.658314 0.543729
0.195880 0.612534 0.495827
0.279263 0.630305 0.508238
0.366870 0.648976 0.521278
0.480497 0.673193 0.538190
0.605071 0.699742 0.556732
0.699377 0.719841 0.570769
0.757331 0.732193 0.579396
0.798221 0.740907 0.585482
0.841887 0.750213 0.591981
0.283722 0.788071 0.587995
0.367105 0.805842 0.600406
0.454713 0.824513 0.613446
0.568339 0.848730 0.630358
0.692913 0.875279 0.648900
0.787220 0.895378 0.662937
0.845174 0.907730 0.671564
0.886064 0.916444 0.677650
0.929730 0.925750 0.684149
0.000000 0.035044 0.252429
0.000000 0.052815 0.264840
0.074917 0.071486 0.277880
0.188544 0.095702 0.294793
0.313118 0.122252 0.313335
0.407424 0.142351 0.327372
0.465378 0.154702 0.335998
0.506268 0.163417 0.342084
0.549934 0.172723 0.348584
0.000000 0.123854 0.299060
0.031752 0.141625 0.311471
0.119359 0.160296 0.324511
0.232986 0.184513 0.341424
0.357560 0.211062 0.359966
0.451867 0.231161 0.374003
0.509821 0.243512 0.382629
0.550711 0.252227 0.388715
0.594376 0.261533 0.395215
0.000000 0.214708 0.346764
0.077217 0.232479 0.359175
0.164824 0.251150 0.372215
0.278451 0.275366 0.389128
0.403025 0.301916 0.407670
0.497332 0.322015 0.421707
0.555286 0.334366 0.430333
0.596176 0.343081 0.436419
0.639842 0.352387 0.442919
0.040856 0.308672 0.396101
0.124239 0.326443 0.408512
0.211846 0.345114 0.421552
0.325473 0.369331 0.438465
0.450047 0.395880 0.457007
0.544353 0.415979 0.471044
0.602307 0.428331 0.479670
0.643197 0.437045 0.485756
0.686863 0.446351 0.492256
0.083793 0.394474 0.441152
0.167175 0.412244 0.453563
0.254783 0.430916 0.466603
0.368410 0.455132 0.483516
0.492984 0.481682 0.502058
0.587290 0.501781 0.516095
0.645244 0.514132 0.524721
0.686134 0.522847 0.530807
0.729800 0.532153 0.537307
0.123396 0.473614 0.482706
0.206779 0.491385 0.495117
0.294387 0.510056 0.508157
0.408013 0.534273 0.525070
0.532587 0.560822 0.543612
0.626894 0.580921 0.557649
0.684848 0.593273 0.566275
0.725738 0.601987 0.572361
0.769404 0.611293 0.578861
0.165060 0.556871 0.526421
0.248442 0.574642 0.538832
0.336050 0.593313 0.551872
0.449677 0.617529 0.568785
0.574250 0.644079 0.587327
0.668557 0.664178 0.601364
0.726511 0.676529 0.609990
0.767401 0.685244 0.616076
0.811067 0.694550 0.622575
0.211048 0.648770 0.574674
0.294430 0.666540 0.587085
0.382038 0.685212 0.600124
0.495665 0.709428 0.617037
0.620239 0.735978 0.635579
0.714545 0.756077 0.649616
0.772499 0.768428 0.658242
0.813389 0.777143 0.664329
0.857055 0.786449 0.670828
0.298890 0.824307 0.666842
0.382273 0.842078 0.679253
0.469880 0.860749 0.692292
0.583507 0.884965 0.709205
0.708081 0.911515 0.727747
0.802388 0.931614 0.741784
0.860342 0.943965 0.750410
0.901232 0.952680 0.756497
0.944897 0.961986 0.762996
0.000000 0.072184 0.333245
0.002856 0.089955 0.345656
0.090463 0.108626 0.358696
0.204090 0.132843 0.375609
0.328664 0.159392 0.394151
0.422971 0.179491 0.408188
0.480925 0.191842 0.416814
0.521815 0.200557 0.422900
0.565481 0.209863 0.429399
0.000000 0.160994 0.379876
0.047298 0.178765 0.392287
0.134906 0.197436 0.405327
0.248533 0.221653 0.422239
0.373106 0.248202 0.440781
0.467413 0.268301 0.454818
0.525367 0.280653 0.463445
0.566257 0.289367 0.469531
0.609923 0.298673 0.476030
0.009381 0.251848 0.427580
0.092763 0.269619 0.439991
0.180371 0.288290 0.453031
0.293998 0.312507 0.469943
0.418572 0.339056 0.488485
0.512878 0.359155 0.502522
0.570832 0.371506 0.511149
0.611722 0.380221 0.517235
0.655388 0.389527 0.523734
0.056403 0.345812 0.476917
0.139785 0.363583 0.489328
0.227393 0.382254 0.502368
0.341020 0.406471 0.519280
0.465593 0.433020 0.537823
0.559900 0.453119 0.551860
0.617854 0.465471 0.560486
0.658744 0.474185 0.566572
0.702410 0.483492 0.573071
0.099339 0.431614 0.521968
0.182722 0.449385 0.534379
0.270329 0.468056 0.547419
0.383956 0.492272 0.564332
0.508530 0.518822 0.582874
0.602837 0.538921 0.596911
0.660791 0.551272 0.605537
0.701681 0.559987 0.611623
0.745347 0.569293 0.618123
0.138943 0.510755 0.563522
0.222325 0.528525 0.575933
0.309933 0.547197 0.588973
0.423560 0.571413 0.605885
0.548134 0.597963 0.624427
0.642440 0.618061 0.638464
0.700394 0.630413 0.647091
0.741284 0.639127 0.653177
0.784950 0.648434 0.659676
0.180606 0.594011 0.607237
0.263989 0.611782 0.619648
0.351596 0.630453 0.632687
0.465223 0.654669 0.649600
0.589797 0.681219 0.668142
0.684103 0.701318 0.682179
0.742058 0.713669 0.690805
0.782948 0.722384 0.696892
0.826613 0.731690 0.703391
0.226594 0.685910 0.655489
0.309977 0.703681 0.667900
0.397584 0.722352 0.680940
0.511211 0.746568 0.697853
0.635785 0.773118 0.716395
0.730092 0.793217 0.730432
0.788046 0.805568 0.739058
0.828936 0.814283 0.745144
0.872601 0.823589 0.751644
0.314437 0.861447 0.747657
0.397819 0.879218 0.760068
0.485427 0.897889 0.773108
0.599054 0.922105 0.790021
0.723627 0.948655 0.808563
0.817934 0.968754 0.822600
0.875888 0.981105 0.831226
0.916778 0.989820 0.837312
0.960444 0.999126 0.843812
0.000000 0.103261 0.400866
0.015864 0.121031 0.413277
0.103472 0.139703 0.426317
0.217099 0.163919 0.443229
0.341672 0.190469 0.461772
0.435979 0.210568 0.475809
0.493933 0.222919 0.484435
0.534823 0.231633 0.490521
0.578489 0.240940 0.497020
0.000000 0.192071 0.447497
0.060306 0.209841 0.459908
0.147914 0.228513 0.472948
0.261541 0.252729 0.489860
0.386115 0.279279 0.508402
0.480421 0.299378 0.522439
0.538375 0.311729 0.531066
0.579265 0.320444 0.537152
0.622931 0.329750 0.543651
0.022389 0.282924 0.495201
0.105772 0.300695 0.507612
0.193379 0.319366 0.520651
0.307006 0.343583 0.537564
0.431580 0.370132 0.556106
0.525886 0.390231 0.570143
0.583840 0.402583 0.578769
0.624730 0.411297 0.584856
0.668396 0.420604 0.591355
0.069411 0.376889 0.544538
0.152793 0.394660 0.556949
0.240401 0.413331 0.569989
0.354028 0.437547 0.586901
0.478601 0.464097 0.605443
0.572908 0.484196 0.619480
0.630862 0.496547 0.628107
0.671752 0.505262 0.634193
0.715418 0.514568 0.640692
0.112348 0.462690 0.589589
0.195730 0.480461 0.602000
0.283338 0.499132 0.615040
0.396965 0.523349 0.631953
0.521538 0.549898 0.650495
0.615845 0.569997 0.664532
0.673799 0.582349 0.673158
0.714689 0.591063 0.679244
0.758355 0.600369 0.685743
0.151951 0.541831 0.631143
0.235334 0.559602 0.643554
0.322941 0.578273 0.656594
0.436568 0.602489 0.673506
0.561142 0.629039 0.692048
0.655448 0.649138 0.706085
0.713403 0.661489 0.714712
0.754293 0.670204 0.720798
0.797958 0.679510 0.727297
0.193614 0.625087 0.674857
0.276997 0.642858 0.687268
0.364605 0.661529 0.700308
0.478231 0.685746 0.717221
0.602805 0.712295 0.735763
0.697112 0.732394 0.749800
0.755066 0.744746 0.758426
0.795956 0.753460 0.764513
0.839622 0.762766 0.771012
0.239603 0.716986 0.723110
0.322985 0.734757 0.735521
0.410593 0.753428 0.748561
0.524220 0.777645 0.765474
0.648793 0.804194 0.784016
0.743100 0.824293 0.798053
0.801054 0.836645 0.806679
0.841944 0.845359 0.812765
0.885610 0.854665 0.819265
0.327445 0.892523 0.815278
0.410827 0.910294 0.827689
0.498435 0.928965 0.840729
0.612062 0.953182 0.857642
0.736636 0.979731 0.876184
0.830942 0.999830 0.890221
0.888896 1.000000 0.898847
0.929786 1.000000 0.904933
0.973452 1.000000 0.911433
0.000000 0.126210 0.450803
0.025471 0.143981 0.463214
0.113078 0.162652 0.476254
0.226705 0.186869 0.493167
0.351279 0.213418 0.511709
0.445585 0.233517 0.525746
0.503539 0.245869 0.534372
0.544429 0.254583 0.540459
0.588095 0.263889 0.546958
0.000000 0.215020 0.497434
0.069913 0.232791 0.509845
0.157521 0.251462 0.522885
0.271147 0.275679 0.539798
0.395721 0.302228 0.558340
0.490028 0.322327 0.572377
0.547982 0.334679 0.581003
0.588872 0.343393 0.587089
0.632538 0.352699 0.593589
0.031996 0.305874 0.545138
0.115378 0.323645 0.557549
0.202986 0.342316 0.570589
0.316613 0.366533 0.587502
0.441186 0.393082 0.606044
0.535493 0.413181 0.620081
0.593447 0.425532 0.628707
0.634337 0.434247 0.634793
0.678003 0.443553 0.641293
0.079017 0.399839 0.594475
0.162400 0.417609 0.606886
0.250007 0.436281 0.619926
0.363634 0.460497 0.636839
0.488208 0.487047 0.655381
0.582515 0.507145 0.669418
0.640469 0.519497 0.678044
0.681359 0.528211 0.684131
0.725024 0.537518 0.690630
0.121954 0.485640 0.639526
0.205337 0.503411 0.651937
0.292944 0.522082 0.664977
0.406571 0.546299 0.681890
0.531145 0.572848 0.700432
0.625451 0.592947 0.714469
0.683405 0.605298 0.723095
0.724295 0.614013 0.729182
0.767961 0.623319 0.735681
0.161558 0.564781 0.681080
0.244940 0.582551 0.693491
0.332548 0.601223 0.706531
0.446175 0.625439 0.723444
0.570748 0.651989 0.741986
0.665055 0.672088 0.756023
0.723009 0.684439 0.764649
0.763899 0.693154 0.770735
0.807565 0.702460 0.777235
0.203221 0.648037 0.724795
0.286603 0.665808 0.737206
0.374211 0.684479 0.750246
0.487838 0.708696 0.767159
0.612412 0.735245 0.785701
0.706718 0.755344 0.799738
0.764672 0.767695 0.808364
0.805562 0.776410 0.814450
0.849228 0.785716 0.820950
0.249209 0.739936 0.773048
0.332591 0.757707 0.785459
0.420199 0.776378 0.798499
0.533826 0.800595 0.815411
0.658400 0.827144 0.833954
0.752706 0.847243 0.847991
0.810660 0.859594 0.856617
0.851550 0.868309 0.862703
0.895216 0.877615 0.869202
0.337051 0.915473 0.865216
0.420434 0.933244 0.877627
0.508042 0.951915 0.890667
0.621668 0.976132 0.907579
0.746242 1.000000 0.926122
0.840549 1.000000 0.940159
0.898503 1.000000 0.948785
0.939393 1.000000 0.954871
0.983059 1.000000 0.961370
0.000000 0.158601 0.521283
0.039029 0.176371 0.533694
0.126636 0.195043 0.546734
0.240263 0.219259 0.563647
0.364837 0.245809 0.582189
0.459144 0.265908 0.596226
0.517098 0.278259 0.604852
0.557988 0.286974 0.610939
0.601653 0.296280 0.617438
0.000089 0.247411 0.567914
0.083471 0.265182 0.580325
0.171079 0.283853 0.593365
0.284706 0.308069 0.610278
0.409279 0.334619 0.628820
0.503586 0.354718 0.642857
0.561540 0.367069 0.651483
0.602430 0.375784 0.657570
0.646096 0.385090 0.664069
0.045554 0.338264 0.615618
0.128936 0.356035 0.628029
0.216544 0.374706 0.641069
0.330171 0.398923 0.657982
0.454744 0.425472 0.676524
0.549051 0.445571 0.690561
0.607005 0.457923 0.699187
0.647895 0.466637 0.705273
0.691561 0.475944 0.711773
0.092575 0.432229 0.664955
0.175958 0.450000 0.677366
0.263566 0.468671 0.690406
0.377192 0.492887 0.707319
0.501766 0.519437 0.725861
0.596073 0.539536 0.739898
0.654027 0.551887 0.748524
0.694917 0.560602 0.754611
0.738583 0.569908 0.761110
0.135512 0.518030 0.710007
0.218895 0.535801 0.722418
0.306502 0.554472 0.735457
0.420129 0.578689 0.752370
0.544703 0.605238 0.770912
0.639010 0.625337 0.784949
0.696964 0.637689 0.793575
0.737854 0.646403 0.799662
0.781520 0.655709 0.806161
0.175116 0.597171 0.751560
0.258498 0.614942 0.763971
0.346106 0.633613 0.777011
0.459733 0.657829 0.793924
0.584307 0.684379 0.812466
0.678613 0.704478 0.826503
0.736567 0.716829 0.835129
0.777457 0.725544 0.841215
0.821123 0.734850 0.847715
0.216779 0.680427 0.795275
0.300162 0.698198 0.807686
0.387769 0.716869 0.820726
0.501396 0.741086 0.837639
0.625970 0.767635 0.856181
0.720276 0.787734 0.870218
0.778230 0.800086 0.878844
0.819121 0.808800 0.884930
0.862786 0.818106 0.891430
0.262767 0.772326 0.843528
0.346150 0.790097 0.855939
0.433757 0.808768 0.868979
0.547384 0.832985 0.885891
0.671958 0.859534 0.904434
0.766265 0.879633 0.918471
0.824219 0.891985 0.927097
0.865109 0.900699 0.933183
0.908774 0.910005 0.939682
0.350610 0.947863 0.935696
0.433992 0.965634 0.948107
0.521600 0.984305 0.961147
0.635227 1.000000 0.978059
0.759800 1.000000 0.996602
0.854107 1.000000 1.000000
0.912061 1.000000 1.000000
0.952951 1.000000 1.000000
0.996617 1.000000 1.000000
