bench/results/pilot_a_v3/clean_cool_average.cube
TITLE "Clean Cool (average)"
LUT_3D_SIZE 5
DOMAIN_MIN 0.0 0.0 0.0
DOMAIN_MAX 1.0 1.0 1.0
0.000000 0.000000 0.000000
0.026096 0.000000 0.000000
0.265162 0.000000 0.011457
0.423662 0.029250 0.026606
0.519623 0.050214 0.035777
0.000000 0.087135 0.064312
0.115165 0.123649 0.080286
0.354231 0.175877 0.103135
0.512731 0.210504 0.118284
0.608692 0.231469 0.127456
0.037458 0.269124 0.156362
0.204596 0.305638 0.172337
0.443662 0.357867 0.195186
0.602161 0.392494 0.210334
0.698122 0.413458 0.219506
0.114353 0.425603 0.235510
0.281490 0.462118 0.251484
0.520556 0.514346 0.274333
0.679056 0.548973 0.289482
0.775017 0.569938 0.298653
0.250549 0.702761 0.375696
0.417686 0.739275 0.391670
0.656752 0.791503 0.414519
0.815252 0.826130 0.429668
0.911213 0.847095 0.438839
0.000000 0.000000 0.114504
0.044893 0.000311 0.130478
0.283959 0.052540 0.153327
0.442459 0.087167 0.168476
0.538420 0.108131 0.177648
0.000000 0.145051 0.206183
0.133963 0.181565 0.222157
0.373029 0.233794 0.245006
0.531528 0.268421 0.260155
0.627489 0.289385 0.269326
0.056256 0.327041 0.298233
0.223393 0.363555 0.314207
0.462459 0.415783 0.337056
0.620959 0.450411 0.352205
0.716920 0.471375 0.361377
0.133150 0.483520 0.377380
0.300288 0.520034 0.393355
0.539354 0.572263 0.416203
0.697853 0.606890 0.431352
0.793814 0.627854 0.440524
0.269346 0.760677 0.517567
0.436484 0.797192 0.533541
0.675550 0.849420 0.556390
0.834049 0.884047 0.571538
0.930010 0.905012 0.580710
0.000000 0.023962 0.261882
0.064420 0.060476 0.277856
0.303486 0.112704 0.300705
0.461986 0.147331 0.315853
0.557947 0.168296 0.325025
0.000000 0.205216 0.353560
0.153490 0.241730 0.369534
0.392556 0.293959 0.392383
0.551055 0.328586 0.407532
0.647016 0.349550 0.416704
0.075783 0.387206 0.445610
0.242920 0.423720 0.461585
0.481986 0.475948 0.484434
0.640486 0.510575 0.499582
0.736447 0.531540 0.508754
0.152677 0.543685 0.524758
0.319815 0.580199 0.540732
0.558881 0.632428 0.563581
0.717380 0.667055 0.578730
0.813341 0.688019 0.587901
0.288873 0.820842 0.664944
0.456011 0.857356 0.680918
0.695077 0.909585 0.703767
0.853576 0.944212 0.718916
0.949538 0.965176 0.728087
0.000000 0.091579 0.427515
0.086366 0.128093 0.443489
0.325432 0.180322 0.466338
0.483932 0.214949 0.481487
0.579893 0.235913 0.490659
0.008298 0.272834 0.519194
0.175435 0.309348 0.535168
0.414501 0.361576 0.558017
0.573001 0.396203 0.573166
0.668962 0.417168 0.582337
0.097728 0.454823 0.611244
0.264866 0.491337 0.627218
0.503932 0.543566 0.650067
0.662432 0.578193 0.665216
0.758393 0.599158 0.674388
0.174623 0.611302 0.690391
0.341761 0.647817 0.706366
0.580826 0.700045 0.729215
0.739326 0.734672 0.744363
0.835287 0.755637 0.753535
0.310819 0.888460 0.830577
0.477957 0.924974 0.846552
0.717023 0.977202 0.869401
0.875522 1.000000 0.884549
0.971483 1.000000 0.893721
0.000000 0.148047 0.565838
0.104694 0.184562 0.581812
0.343760 0.236790 0.604661
0.502259 0.271417 0.619810
0.598220 0.292382 0.628981
0.026625 0.329302 0.657516
0.193763 0.365816 0.673491
0.432829 0.418044 0.696340
0.591328 0.452672 0.711488
0.687289 0.473636 0.720660
0.116056 0.511292 0.749567
0.283193 0.547806 0.765541
0.522259 0.600034 0.788390
0.680759 0.634661 0.803539
0.776720 0.655626 0.812710
0.192950 0.667771 0.828714
0.360088 0.704285 0.844688
0.599154 0.756513 0.867537
0.757653 0.791141 0.882686
0.853615 0.812105 0.891858
0.329146 0.944928 0.968900
0.496284 0.981442 0.984875
0.735350 1.000000 1.000000
0.893850 1.000000 1.000000
0.989811 1.000000 1.000000
