bench/results/pilot_a_v3/clean_cool_average.cube
TITLE "Clean Cool (average)"
LUT_3D_SIZE 33
DOMAIN_MIN 0.0 0.0 0.0
DOMAIN_MAX 1.0 1.0 1.0
0.000000 0.000000 0.000000
0.000000 0.000000 0.000000
0.000000 0.000000 0.000000
0.000000 0.000000 0.000000
0.000000 0.000000 0.000000
0.000000 0.000000 0.000000
0.000000 0.000000 0.000000
0.003358 0.000000 0.000000
0.026096 0.000000 0.000000
0.055235 0.000000 0.000000
0.084375 0.000000 0.000000
0.113514 0.000000 0.000000
0.142653 0.000000 0.000000
0.173281 0.000000 0.002675
0.203908 0.000000 0.005602
0.234535 0.000000 0.008530
0.265162 0.000000 0.011457
0.289063 0.000000 0.013741
0.312964 0.005066 0.016026
0.336865 0.010288 0.018310
0.360767 0.015509 0.020594
0.376490 0.018945 0.022097
0.392214 0.022380 0.023600
0.407938 0.025815 0.025103
0.423662 0.029250 0.026606
0.434873 0.031699 0.027677
0.446084 0.034149 0.028749
0.457296 0.036598 0.029820
0.468507 0.039047 0.030892
0.481286 0.041839 0.032113
0.494065 0.044631 0.033334
0.506844 0.047423 0.034556
0.519623 0.050214 0.035777
0.000000 0.000000 0.000000
0.000000 0.000000 0.000000
0.000000 0.000000 0.000000
0.000000 0.000000 0.000000
0.000000 0.000000 0.000000
0.000000 0.000000 0.000000
0.000000 0.000000 0.000000
0.013885 0.000000 0.000000
0.036623 0.000000 0.000000
0.065762 0.000000 0.002228
0.094902 0.000000 0.005013
0.124041 0.000000 0.007798
0.153180 0.000000 0.010583
0.183807 0.000000 0.013510
0.214435 0.002663 0.016438
0.245062 0.009354 0.019365
0.275689 0.016045 0.022292
0.299590 0.021267 0.024576
0.323491 0.026488 0.026861
0.347392 0.031710 0.029145
0.371294 0.036932 0.031430
0.387017 0.040367 0.032932
0.402741 0.043802 0.034435
0.418465 0.047237 0.035938
0.434189 0.050672 0.037441
0.445400 0.053121 0.038512
0.456611 0.055571 0.039584
0.467823 0.058020 0.040655
0.479034 0.060469 0.041727
0.491813 0.063261 0.042948
0.504592 0.066053 0.044170
0.517371 0.068845 0.045391
0.530150 0.071637 0.046612
0.000000 0.000000 0.000000
0.000000 0.000000 0.000000
0.000000 0.000000 0.000000
0.000000 0.000000 0.000000
0.000000 0.000000 0.001586
0.000000 0.000000 0.003759
0.001674 0.000000 0.005932
0.024412 0.000000 0.008105
0.047150 0.000000 0.010279
0.076289 0.000000 0.013064
0.105429 0.000000 0.015849
0.134568 0.004337 0.018634
0.163707 0.010703 0.021419
0.194334 0.017394 0.024346
0.224962 0.024085 0.027273
0.255589 0.030776 0.030200
0.286216 0.037467 0.033127
0.310117 0.042689 0.035412
0.334018 0.047910 0.037696
0.357919 0.053132 0.039981
0.381820 0.058354 0.042265
0.397544 0.061789 0.043768
0.413268 0.065224 0.045271
0.428992 0.068659 0.046773
0.444716 0.072094 0.048276
0.455927 0.074544 0.049348
0.467138 0.076993 0.050419
0.478349 0.079442 0.051491
0.489561 0.081892 0.052562
0.502340 0.084683 0.053784
0.515119 0.087475 0.055005
0.527898 0.090267 0.056226
0.540677 0.093059 0.057448
0.000000 0.000000 0.005140
0.000000 0.000000 0.006960
0.000000 0.000000 0.008780
0.000000 0.000000 0.010601
0.000000 0.000000 0.012421
0.000000 0.000000 0.014594
0.012201 0.000000 0.016767
0.034939 0.001693 0.018941
0.057677 0.006661 0.021114
0.086816 0.013027 0.023899
0.115956 0.019393 0.026684
0.145095 0.025759 0.029469
0.174234 0.032125 0.032254
0.204861 0.038816 0.035181
0.235488 0.045507 0.038108
0.266116 0.052198 0.041036
0.296743 0.058889 0.043963
0.320644 0.064111 0.046247
0.344545 0.069333 0.048532
0.368446 0.074554 0.050816
0.392347 0.079776 0.053100
0.408071 0.083211 0.054603
0.423795 0.086646 0.056106
0.439519 0.090081 0.057609
0.455243 0.093516 0.059112
0.466454 0.095966 0.060183
0.477665 0.098415 0.061255
0.488876 0.100864 0.062326
0.500088 0.103314 0.063398
0.512867 0.106106 0.064619
0.525646 0.108897 0.065840
0.538425 0.111689 0.067062
0.551204 0.114481 0.068283
0.000000 0.000000 0.015975
0.000000 0.000000 0.017795
0.000000 0.000000 0.019616
0.000000 0.004052 0.021436
0.000000 0.008213 0.023256
0.000000 0.013181 0.025430
0.022728 0.018148 0.027603
0.045466 0.023116 0.029776
0.068204 0.028083 0.031949
0.097343 0.034449 0.034734
0.126482 0.040815 0.037519
0.155622 0.047181 0.040304
0.184761 0.053547 0.043089
0.215388 0.060238 0.046016
0.246015 0.066929 0.048944
0.276643 0.073620 0.051871
0.307270 0.080311 0.054798
0.331171 0.085533 0.057082
0.355072 0.090755 0.059367
0.378973 0.095976 0.061651
0.402874 0.101198 0.063936
0.418598 0.104633 0.065438
0.434322 0.108068 0.066941
0.450046 0.111503 0.068444
0.465769 0.114939 0.069947
0.476981 0.117388 0.071018
0.488192 0.119837 0.072090
0.499403 0.122287 0.073161
0.510615 0.124736 0.074233
0.523394 0.127528 0.075454
0.536173 0.130320 0.076676
0.548952 0.133111 0.077897
0.561731 0.135903 0.079118
0.000000 0.015460 0.028059
0.000000 0.019621 0.029880
0.000000 0.023782 0.031700
0.000000 0.027943 0.033520
0.000000 0.032104 0.035341
0.011730 0.037072 0.037514
0.034468 0.042039 0.039687
0.057206 0.047007 0.041860
0.079944 0.051975 0.044033
0.109084 0.058341 0.046819
0.138223 0.064707 0.049604
0.167362 0.071073 0.052389
0.196501 0.077439 0.055174
0.227129 0.084130 0.058101
0.257756 0.090821 0.061028
0.288383 0.097512 0.063955
0.319010 0.104203 0.066882
0.342911 0.109425 0.069167
0.366812 0.114646 0.071451
0.390714 0.119868 0.073736
0.414615 0.125089 0.076020
0.430339 0.128525 0.077523
0.446062 0.131960 0.079025
0.461786 0.135395 0.080528
0.477510 0.138830 0.082031
0.488721 0.141279 0.083103
0.499932 0.143729 0.084174
0.511144 0.146178 0.085246
0.522355 0.148627 0.086317
0.535134 0.151419 0.087539
0.547913 0.154211 0.088760
0.560692 0.157003 0.089981
0.573471 0.159795 0.091203
0.000000 0.039352 0.040143
0.000000 0.043513 0.041964
0.000000 0.047674 0.043784
0.000000 0.051835 0.045605
0.000733 0.055996 0.047425
0.023471 0.060963 0.049598
0.046209 0.065931 0.051771
0.068947 0.070898 0.053945
0.091685 0.075866 0.056118
0.120824 0.082232 0.058903
0.149963 0.088598 0.061688
0.179102 0.094964 0.064473
0.208242 0.101330 0.067258
0.238869 0.108021 0.070185
0.269496 0.114712 0.073112
0.300123 0.121403 0.076039
0.330750 0.128094 0.078967
0.354652 0.133316 0.081251
0.378553 0.138538 0.083535
0.402454 0.143759 0.085820
0.426355 0.148981 0.088104
0.442079 0.152416 0.089607
0.457803 0.155851 0.091110
0.473526 0.159286 0.092613
0.489250 0.162721 0.094115
0.500461 0.165171 0.095187
0.511673 0.167620 0.096258
0.522884 0.170069 0.097330
0.534095 0.172519 0.098402
0.546874 0.175311 0.099623
0.559653 0.178102 0.100844
0.572432 0.180894 0.102066
0.585211 0.183686 0.103287
0.000000 0.063243 0.052228
0.000000 0.067404 0.054048
0.000000 0.071565 0.055869
0.000000 0.075726 0.057689
0.012473 0.079887 0.059509
0.035211 0.084855 0.061682
0.057949 0.089822 0.063856
0.080687 0.094790 0.066029
0.103425 0.099757 0.068202
0.132564 0.106123 0.070987
0.161703 0.112489 0.073772
0.190843 0.118855 0.076557
0.219982 0.125221 0.079342
0.250609 0.131913 0.082269
0.281236 0.138604 0.085197
0.311864 0.145295 0.088124
0.342491 0.151986 0.091051
0.366392 0.157207 0.093335
0.390293 0.162429 0.095620
0.414194 0.167651 0.097904
0.438095 0.172872 0.100188
0.453819 0.176307 0.101691
0.469543 0.179743 0.103194
0.485267 0.183178 0.104697
0.500991 0.186613 0.106200
0.512202 0.189062 0.107271
0.523413 0.191512 0.108343
0.534624 0.193961 0.109414
0.545836 0.196410 0.110486
0.558615 0.199202 0.111707
0.571394 0.201994 0.112929
0.584173 0.204786 0.114150
0.596952 0.207577 0.115371
0.000000 0.087135 0.064312
0.000000 0.091296 0.066132
0.000000 0.095457 0.067953
0.005167 0.099618 0.069773
0.024213 0.103779 0.071594
0.046951 0.108746 0.073767
0.069689 0.113714 0.075940
0.092427 0.118681 0.078113
0.115165 0.123649 0.080286
0.144305 0.130015 0.083071
0.173444 0.136381 0.085856
0.202583 0.142747 0.088641
0.231722 0.149113 0.091426
0.262350 0.155804 0.094354
0.292977 0.162495 0.097281
0.323604 0.169186 0.100208
0.354231 0.175877 0.103135
0.378132 0.181099 0.105420
0.402033 0.186320 0.107704
0.425935 0.191542 0.109988
0.449836 0.196764 0.112273
0.465560 0.200199 0.113776
0.481283 0.203634 0.115278
0.497007 0.207069 0.116781
0.512731 0.210504 0.118284
0.523942 0.212954 0.119356
0.535153 0.215403 0.120427
0.546365 0.217852 0.121499
0.557576 0.220302 0.122570
0.570355 0.223093 0.123791
0.583134 0.225885 0.125013
0.595913 0.228677 0.126234
0.608692 0.231469 0.127456
0.000000 0.111085 0.076426
0.000000 0.115246 0.078247
0.000000 0.119407 0.080067
0.016937 0.123569 0.081888
0.035983 0.127730 0.083708
0.058721 0.132697 0.085881
0.081459 0.137665 0.088054
0.104197 0.142632 0.090228
0.126935 0.147600 0.092401
0.156074 0.153966 0.095186
0.185213 0.160332 0.097971
0.214353 0.166698 0.100756
0.243492 0.173064 0.103541
0.274119 0.179755 0.106468
0.304746 0.186446 0.109395
0.335374 0.193137 0.112322
0.366001 0.199828 0.115250
0.389902 0.205050 0.117534
0.413803 0.210271 0.119818
0.437704 0.215493 0.122103
0.461605 0.220715 0.124387
0.477329 0.224150 0.125890
0.493053 0.227585 0.127393
0.508777 0.231020 0.128896
0.524500 0.234455 0.130398
0.535712 0.236905 0.131470
0.546923 0.239354 0.132541
0.558134 0.241803 0.133613
0.569346 0.244252 0.134684
0.582125 0.247044 0.135906
0.594904 0.249836 0.137127
0.607683 0.252628 0.138349
0.620461 0.255420 0.139570
0.000000 0.135036 0.088541
0.000000 0.139197 0.090361
0.009660 0.143358 0.092182
0.028706 0.147519 0.094002
0.047752 0.151680 0.095822
0.070490 0.156648 0.097995
0.093228 0.161615 0.100169
0.115966 0.166583 0.102342
0.138704 0.171551 0.104515
0.167844 0.177917 0.107300
0.196983 0.184283 0.110085
0.226122 0.190649 0.112870
0.255262 0.197015 0.115655
0.285889 0.203706 0.118582
0.316516 0.210397 0.121510
0.347143 0.217088 0.124437
0.377770 0.223779 0.127364
0.401671 0.229001 0.129648
0.425573 0.234222 0.131933
0.449474 0.239444 0.134217
0.473375 0.244666 0.136501
0.489099 0.248101 0.138004
0.504822 0.251536 0.139507
0.520546 0.254971 0.141010
0.536270 0.258406 0.142513
0.547481 0.260855 0.143584
0.558693 0.263305 0.144656
0.569904 0.265754 0.145727
0.581115 0.268203 0.146799
0.593894 0.270995 0.148020
0.606673 0.273787 0.149242
0.619452 0.276579 0.150463
0.632231 0.279371 0.151684
0.000000 0.158987 0.100655
0.002383 0.163148 0.102476
0.021429 0.167309 0.104296
0.040476 0.171470 0.106116
0.059522 0.175631 0.107937
0.082260 0.180599 0.110110
0.104998 0.185566 0.112283
0.127736 0.190534 0.114456
0.150474 0.195501 0.116629
0.179613 0.201867 0.119414
0.208753 0.208233 0.122199
0.237892 0.214599 0.124984
0.267031 0.220966 0.127769
0.297658 0.227657 0.130697
0.328285 0.234348 0.133624
0.358913 0.241039 0.136551
0.389540 0.247730 0.139478
0.413441 0.252951 0.141763
0.437342 0.258173 0.144047
0.461243 0.263395 0.146331
0.485144 0.268616 0.148616
0.500868 0.272052 0.150119
0.516592 0.275487 0.151621
0.532316 0.278922 0.153124
0.548039 0.282357 0.154627
0.559251 0.284806 0.155699
0.570462 0.287256 0.156770
0.581673 0.289705 0.157842
0.592885 0.292154 0.158913
0.605664 0.294946 0.160135
0.618443 0.297738 0.161356
0.631222 0.300530 0.162577
0.644001 0.303321 0.163799
0.000000 0.182938 0.112769
0.014152 0.187099 0.114590
0.033199 0.191260 0.116410
0.052245 0.195421 0.118231
0.071292 0.199582 0.120051
0.094030 0.204550 0.122224
0.116768 0.209517 0.124397
0.139506 0.214485 0.126571
0.162243 0.219452 0.128744
0.191383 0.225818 0.131529
0.220522 0.232184 0.134314
0.249661 0.238550 0.137099
0.278801 0.244916 0.139884
0.309428 0.251607 0.142811
0.340055 0.258299 0.145738
0.370682 0.264990 0.148665
0.401309 0.271681 0.151593
0.425211 0.276902 0.153877
0.449112 0.282124 0.156161
0.473013 0.287346 0.158446
0.496914 0.292567 0.160730
0.512638 0.296002 0.162233
0.528361 0.299438 0.163736
0.544085 0.302873 0.165239
0.559809 0.306308 0.166741
0.571020 0.308757 0.167813
0.582232 0.311206 0.168884
0.593443 0.313656 0.169956
0.604654 0.316105 0.171028
0.617433 0.318897 0.172249
0.630212 0.321689 0.173470
0.642991 0.324481 0.174692
0.655770 0.327272 0.175913
0.005694 0.204485 0.123668
0.024740 0.208646 0.125488
0.043787 0.212807 0.127308
0.062833 0.216968 0.129129
0.081880 0.221129 0.130949
0.104618 0.226096 0.133122
0.127356 0.231064 0.135296
0.150094 0.236031 0.137469
0.172832 0.240999 0.139642
0.201971 0.247365 0.142427
0.231110 0.253731 0.145212
0.260249 0.260097 0.147997
0.289389 0.266463 0.150782
0.320016 0.273154 0.153709
0.350643 0.279845 0.156637
0.381270 0.286536 0.159564
0.411897 0.293227 0.162491
0.435799 0.298449 0.164775
0.459700 0.303670 0.167060
0.483601 0.308892 0.169344
0.507502 0.314114 0.171628
0.523226 0.317549 0.173131
0.538950 0.320984 0.174634
0.554673 0.324419 0.176137
0.570397 0.327854 0.177640
0.581608 0.330304 0.178711
0.592820 0.332753 0.179783
0.604031 0.335202 0.180854
0.615242 0.337652 0.181926
0.628021 0.340443 0.183147
0.640800 0.343235 0.184368
0.653579 0.346027 0.185590
0.666358 0.348819 0.186811
0.016282 0.226031 0.134566
0.035328 0.230192 0.136386
0.054375 0.234353 0.138207
0.073421 0.238514 0.140027
0.092468 0.242675 0.141847
0.115206 0.247643 0.144021
0.137944 0.252610 0.146194
0.160682 0.257578 0.148367
0.183420 0.262545 0.150540
0.212559 0.268911 0.153325
0.241698 0.275277 0.156110
0.270838 0.281643 0.158895
0.299977 0.288009 0.161680
0.330604 0.294701 0.164608
0.361231 0.301392 0.167535
0.391858 0.308083 0.170462
0.422486 0.314774 0.173389
0.446387 0.319995 0.175674
0.470288 0.325217 0.177958
0.494189 0.330439 0.180242
0.518090 0.335660 0.182527
0.533814 0.339095 0.184029
0.549538 0.342531 0.185532
0.565261 0.345966 0.187035
0.580985 0.349401 0.188538
0.592197 0.351850 0.189609
0.603408 0.354300 0.190681
0.614619 0.356749 0.191752
0.625830 0.359198 0.192824
0.638609 0.361990 0.194045
0.651388 0.364782 0.195267
0.664167 0.367574 0.196488
0.676946 0.370365 0.197709
0.026870 0.247578 0.145464
0.045917 0.251739 0.147285
0.064963 0.255900 0.149105
0.084009 0.260061 0.150925
0.103056 0.264222 0.152746
0.125794 0.269189 0.154919
0.148532 0.274157 0.157092
0.171270 0.279124 0.159265
0.194008 0.284092 0.161439
0.223147 0.290458 0.164224
0.252286 0.296824 0.167009
0.281426 0.303190 0.169794
0.310565 0.309556 0.172579
0.341192 0.316247 0.175506
0.371819 0.322938 0.178433
0.402446 0.329629 0.181360
0.433074 0.336320 0.184287
0.456975 0.341542 0.186572
0.480876 0.346764 0.188856
0.504777 0.351985 0.191141
0.528678 0.357207 0.193425
0.544402 0.360642 0.194928
0.560126 0.364077 0.196431
0.575849 0.367512 0.197933
0.591573 0.370947 0.199436
0.602785 0.373397 0.200508
0.613996 0.375846 0.201579
0.625207 0.378295 0.202651
0.636418 0.380745 0.203722
0.649197 0.383536 0.204944
0.661976 0.386328 0.206165
0.674755 0.389120 0.207386
0.687534 0.391912 0.208608
0.037458 0.269124 0.156362
0.056505 0.273285 0.158183
0.075551 0.277446 0.160003
0.094597 0.281607 0.161824
0.113644 0.285768 0.163644
0.136382 0.290736 0.165817
0.159120 0.295703 0.167990
0.181858 0.300671 0.170164
0.204596 0.305638 0.172337
0.233735 0.312004 0.175122
0.262874 0.318370 0.177907
0.292014 0.324737 0.180692
0.321153 0.331103 0.183477
0.351780 0.337794 0.186404
0.382407 0.344485 0.189331
0.413034 0.351176 0.192258
0.443662 0.357867 0.195186
0.467563 0.363088 0.197470
0.491464 0.368310 0.199754
0.515365 0.373532 0.202039
0.539266 0.378753 0.204323
0.554990 0.382189 0.205826
0.570714 0.385624 0.207329
0.586438 0.389059 0.208832
0.602161 0.392494 0.210334
0.613373 0.394943 0.211406
0.624584 0.397393 0.212477
0.635795 0.399842 0.213549
0.647006 0.402291 0.214621
0.659785 0.405083 0.215842
0.672564 0.407875 0.217063
0.685343 0.410667 0.218285
0.698122 0.413458 0.219506
0.047032 0.288606 0.166217
0.066078 0.292767 0.168037
0.085125 0.296928 0.169857
0.104171 0.301089 0.171678
0.123217 0.305250 0.173498
0.145955 0.310218 0.175671
0.168693 0.315185 0.177844
0.191431 0.320153 0.180018
0.214169 0.325121 0.182191
0.243309 0.331487 0.184976
0.272448 0.337853 0.187761
0.301587 0.344219 0.190546
0.330727 0.350585 0.193331
0.361354 0.357276 0.196258
0.391981 0.363967 0.199185
0.422608 0.370658 0.202112
0.453235 0.377349 0.205040
0.477136 0.382571 0.207324
0.501037 0.387792 0.209608
0.524939 0.393014 0.211893
0.548840 0.398235 0.214177
0.564564 0.401671 0.215680
0.580287 0.405106 0.217183
0.596011 0.408541 0.218686
0.611735 0.411976 0.220188
0.622946 0.414425 0.221260
0.634157 0.416875 0.222331
0.645369 0.419324 0.223403
0.656580 0.421773 0.224475
0.669359 0.424565 0.225696
0.682138 0.427357 0.226917
0.694917 0.430149 0.228139
0.707696 0.432941 0.229360
0.056605 0.308088 0.176071
0.075652 0.312249 0.177891
0.094698 0.316410 0.179711
0.113745 0.320571 0.181532
0.132791 0.324733 0.183352
0.155529 0.329700 0.185525
0.178267 0.334668 0.187698
0.201005 0.339635 0.189872
0.223743 0.344603 0.192045
0.252882 0.350969 0.194830
0.282021 0.357335 0.197615
0.311161 0.363701 0.200400
0.340300 0.370067 0.203185
0.370927 0.376758 0.206112
0.401554 0.383449 0.209039
0.432182 0.390140 0.211967
0.462809 0.396831 0.214894
0.486710 0.402053 0.217178
0.510611 0.407274 0.219462
0.534512 0.412496 0.221747
0.558413 0.417718 0.224031
0.574137 0.421153 0.225534
0.589861 0.424588 0.227037
0.605585 0.428023 0.228540
0.621308 0.431458 0.230042
0.632520 0.433907 0.231114
0.643731 0.436357 0.232186
0.654942 0.438806 0.233257
0.666154 0.441255 0.234329
0.678933 0.444047 0.235550
0.691712 0.446839 0.236771
0.704491 0.449631 0.237993
0.717270 0.452423 0.239214
0.066179 0.327570 0.185925
0.085225 0.331731 0.187745
0.104272 0.335892 0.189565
0.123318 0.340054 0.191386
0.142365 0.344215 0.193206
0.165103 0.349182 0.195379
0.187841 0.354150 0.197553
0.210578 0.359117 0.199726
0.233316 0.364085 0.201899
0.262456 0.370451 0.204684
0.291595 0.376817 0.207469
0.320734 0.383183 0.210254
0.349874 0.389549 0.213039
0.380501 0.396240 0.215966
0.411128 0.402931 0.218893
0.441755 0.409622 0.221821
0.472382 0.416313 0.224748
0.496284 0.421535 0.227032
0.520185 0.426756 0.229317
0.544086 0.431978 0.231601
0.567987 0.437200 0.233885
0.583711 0.440635 0.235388
0.599434 0.444070 0.236891
0.615158 0.447505 0.238394
0.630882 0.450940 0.239897
0.642093 0.453390 0.240968
0.653305 0.455839 0.242040
0.664516 0.458288 0.243111
0.675727 0.460737 0.244183
0.688506 0.463529 0.245404
0.701285 0.466321 0.246625
0.714064 0.469113 0.247847
0.726843 0.471905 0.249068
0.075752 0.347052 0.195779
0.094799 0.351214 0.197599
0.113845 0.355375 0.199419
0.132892 0.359536 0.201240
0.151938 0.363697 0.203060
0.174676 0.368664 0.205233
0.197414 0.373632 0.207407
0.220152 0.378599 0.209580
0.242890 0.383567 0.211753
0.272029 0.389933 0.214538
0.301169 0.396299 0.217323
0.330308 0.402665 0.220108
0.359447 0.409031 0.222893
0.390074 0.415722 0.225820
0.420702 0.422413 0.228747
0.451329 0.429104 0.231675
0.481956 0.435795 0.234602
0.505857 0.441017 0.236886
0.529758 0.446238 0.239171
0.553659 0.451460 0.241455
0.577561 0.456682 0.243739
0.593284 0.460117 0.245242
0.609008 0.463552 0.246745
0.624732 0.466987 0.248248
0.640456 0.470422 0.249751
0.651667 0.472872 0.250822
0.662878 0.475321 0.251894
0.674089 0.477770 0.252965
0.685301 0.480220 0.254037
0.698080 0.483011 0.255258
0.710859 0.485803 0.256479
0.723638 0.488595 0.257701
0.736417 0.491387 0.258922
0.085403 0.366690 0.205711
0.104449 0.370851 0.207532
0.123495 0.375012 0.209352
0.142542 0.379173 0.211173
0.161588 0.383334 0.212993
0.184326 0.388302 0.215166
0.207064 0.393269 0.217339
0.229802 0.398237 0.219513
0.252540 0.403205 0.221686
0.281679 0.409571 0.224471
0.310819 0.415937 0.227256
0.339958 0.422303 0.230041
0.369097 0.428669 0.232826
0.399724 0.435360 0.235753
0.430352 0.442051 0.238680
0.460979 0.448742 0.241607
0.491606 0.455433 0.244535
0.515507 0.460655 0.246819
0.539408 0.465876 0.249103
0.563309 0.471098 0.251388
0.587211 0.476319 0.253672
0.602934 0.479755 0.255175
0.618658 0.483190 0.256678
0.634382 0.486625 0.258180
0.650106 0.490060 0.259683
0.661317 0.492509 0.260755
0.672528 0.494959 0.261826
0.683739 0.497408 0.262898
0.694951 0.499857 0.263969
0.707730 0.502649 0.265191
0.720509 0.505441 0.266412
0.733288 0.508233 0.267633
0.746067 0.511025 0.268855
0.095053 0.386328 0.215644
0.114099 0.390489 0.217465
0.133145 0.394650 0.219285
0.152192 0.398811 0.221105
0.171238 0.402972 0.222926
0.193976 0.407940 0.225099
0.216714 0.412907 0.227272
0.239452 0.417875 0.229445
0.262190 0.422842 0.231618
0.291329 0.429208 0.234403
0.320469 0.435574 0.237188
0.349608 0.441940 0.239974
0.378747 0.448306 0.242759
0.409375 0.454997 0.245686
0.440002 0.461688 0.248613
0.470629 0.468380 0.251540
0.501256 0.475071 0.254467
0.525157 0.480292 0.256752
0.549058 0.485514 0.259036
0.572959 0.490736 0.261320
0.596861 0.495957 0.263605
0.612584 0.499392 0.265108
0.628308 0.502827 0.266610
0.644032 0.506263 0.268113
0.659756 0.509698 0.269616
0.670967 0.512147 0.270688
0.682178 0.514596 0.271759
0.693390 0.517046 0.272831
0.704601 0.519495 0.273902
0.717380 0.522287 0.275124
0.730159 0.525079 0.276345
0.742938 0.527870 0.277566
0.755717 0.530662 0.278788
0.104703 0.405966 0.225577
0.123749 0.410127 0.227397
0.142795 0.414288 0.229218
0.161842 0.418449 0.231038
0.180888 0.422610 0.232858
0.203626 0.427577 0.235032
0.226364 0.432545 0.237205
0.249102 0.437512 0.239378
0.271840 0.442480 0.241551
0.300979 0.448846 0.244336
0.330119 0.455212 0.247121
0.359258 0.461578 0.249906
0.388397 0.467944 0.252691
0.419025 0.474635 0.255618
0.449652 0.481326 0.258546
0.480279 0.488017 0.261473
0.510906 0.494708 0.264400
0.534807 0.499930 0.266685
0.558708 0.505152 0.268969
0.582610 0.510373 0.271253
0.606511 0.515595 0.273538
0.622234 0.519030 0.275040
0.637958 0.522465 0.276543
0.653682 0.525900 0.278046
0.669406 0.529335 0.279549
0.680617 0.531785 0.280620
0.691828 0.534234 0.281692
0.703040 0.536683 0.282763
0.714251 0.539133 0.283835
0.727030 0.541925 0.285056
0.739809 0.544716 0.286278
0.752588 0.547508 0.287499
0.765367 0.550300 0.288720
0.114353 0.425603 0.235510
0.133399 0.429764 0.237330
0.152446 0.433926 0.239150
0.171492 0.438087 0.240971
0.190538 0.442248 0.242791
0.213276 0.447215 0.244964
0.236014 0.452183 0.247138
0.258752 0.457150 0.249311
0.281490 0.462118 0.251484
0.310630 0.468484 0.254269
0.339769 0.474850 0.257054
0.368908 0.481216 0.259839
0.398048 0.487582 0.262624
0.428675 0.494273 0.265551
0.459302 0.500964 0.268478
0.489929 0.507655 0.271406
0.520556 0.514346 0.274333
0.544457 0.519568 0.276617
0.568358 0.524789 0.278902
0.592260 0.530011 0.281186
0.616161 0.535233 0.283470
0.631885 0.538668 0.284973
0.647608 0.542103 0.286476
0.663332 0.545538 0.287979
0.679056 0.548973 0.289482
0.690267 0.551423 0.290553
0.701478 0.553872 0.291625
0.712690 0.556321 0.292696
0.723901 0.558770 0.293768
0.736680 0.561562 0.294989
0.749459 0.564354 0.296210
0.762238 0.567146 0.297432
0.775017 0.569938 0.298653
0.125870 0.449041 0.247364
0.144916 0.453202 0.249185
0.163963 0.457363 0.251005
0.183009 0.461524 0.252825
0.202056 0.465685 0.254646
0.224794 0.470652 0.256819
0.247532 0.475620 0.258992
0.270269 0.480587 0.261165
0.293007 0.485555 0.263339
0.322147 0.491921 0.266124
0.351286 0.498287 0.268909
0.380425 0.504653 0.271694
0.409565 0.511019 0.274479
0.440192 0.517710 0.277406
0.470819 0.524401 0.280333
0.501446 0.531092 0.283260
0.532073 0.537783 0.286187
0.555974 0.543005 0.288472
0.579876 0.548227 0.290756
0.603777 0.553448 0.293041
0.627678 0.558670 0.295325
0.643402 0.562105 0.296828
0.659125 0.565540 0.298331
0.674849 0.568975 0.299833
0.690573 0.572411 0.301336
0.701784 0.574860 0.302408
0.712996 0.577309 0.303479
0.724207 0.579758 0.304551
0.735418 0.582208 0.305622
0.748197 0.585000 0.306844
0.760976 0.587791 0.308065
0.773755 0.590583 0.309286
0.786534 0.593375 0.310508
0.137387 0.472478 0.259219
0.156433 0.476639 0.261039
0.175480 0.480800 0.262860
0.194526 0.484961 0.264680
0.213573 0.489122 0.266500
0.236311 0.494090 0.268674
0.259049 0.499057 0.270847
0.281787 0.504025 0.273020
0.304525 0.508992 0.275193
0.333664 0.515358 0.277978
0.362803 0.521724 0.280763
0.391943 0.528090 0.283548
0.421082 0.534456 0.286333
0.451709 0.541147 0.289260
0.482336 0.547838 0.292188
0.512963 0.554529 0.295115
0.543590 0.561221 0.298042
0.567492 0.566442 0.300326
0.591393 0.571664 0.302611
0.615294 0.576886 0.304895
0.639195 0.582107 0.307180
0.654919 0.585542 0.308682
0.670643 0.588977 0.310185
0.686366 0.592413 0.311688
0.702090 0.595848 0.313191
0.713301 0.598297 0.314262
0.724513 0.600746 0.315334
