bench/results/pilot_a_v3/clean_cool_average.cube
TITLE "Clean Cool (average)"
LUT_3D_SIZE 9
DOMAIN_MIN 0.0 0.0 0.0
DOMAIN_MAX 1.0 1.0 1.0
0.000000 0.000000 0.000000
0.000000 0.000000 0.000000
0.026096 0.000000 0.000000
0.142653 0.000000 0.000000
0.265162 0.000000 0.011457
0.360767 0.015509 0.020594
0.423662 0.029250 0.026606
0.468507 0.039047 0.030892
0.519623 0.050214 0.035777
0.000000 0.000000 0.015975
0.000000 0.008213 0.023256
0.068204 0.028083 0.031949
0.184761 0.053547 0.043089
0.307270 0.080311 0.054798
0.402874 0.101198 0.063936
0.465769 0.114939 0.069947
0.510615 0.124736 0.074233
0.561731 0.135903 0.079118
0.000000 0.087135 0.064312
0.024213 0.103779 0.071594
0.115165 0.123649 0.080286
0.231722 0.149113 0.091426
0.354231 0.175877 0.103135
0.449836 0.196764 0.112273
0.512731 0.210504 0.118284
0.557576 0.220302 0.122570
0.608692 0.231469 0.127456
0.000000 0.182938 0.112769
0.071292 0.199582 0.120051
0.162243 0.219452 0.128744
0.278801 0.244916 0.139884
0.401309 0.271681 0.151593
0.496914 0.292567 0.160730
0.559809 0.306308 0.166741
0.604654 0.316105 0.171028
0.655770 0.327272 0.175913
0.037458 0.269124 0.156362
0.113644 0.285768 0.163644
0.204596 0.305638 0.172337
0.321153 0.331103 0.183477
0.443662 0.357867 0.195186
0.539266 0.378753 0.204323
0.602161 0.392494 0.210334
0.647006 0.402291 0.214621
0.698122 0.413458 0.219506
0.075752 0.347052 0.195779
0.151938 0.363697 0.203060
0.242890 0.383567 0.211753
0.359447 0.409031 0.222893
0.481956 0.435795 0.234602
0.577561 0.456682 0.243739
0.640456 0.470422 0.249751
0.685301 0.480220 0.254037
0.736417 0.491387 0.258922
0.114353 0.425603 0.235510
0.190538 0.442248 0.242791
0.281490 0.462118 0.251484
0.398048 0.487582 0.262624
0.520556 0.514346 0.274333
0.616161 0.535233 0.283470
0.679056 0.548973 0.289482
0.723901 0.558770 0.293768
0.775017 0.569938 0.298653
0.160421 0.519352 0.282928
0.236607 0.535997 0.290209
0.327559 0.555867 0.298902
0.444116 0.581331 0.310042
0.566625 0.608095 0.321751
0.662229 0.628982 0.330889
0.725124 0.642722 0.336900
0.769970 0.652520 0.341186
0.821086 0.663687 0.346071
0.250549 0.702761 0.375696
0.326735 0.719405 0.382977
0.417686 0.739275 0.391670
0.534244 0.764739 0.402810
0.656752 0.791503 0.414519
0.752357 0.812390 0.423657
0.815252 0.826130 0.429668
0.860097 0.835928 0.433954
0.911213 0.847095 0.438839
0.000000 0.000000 0.051093
0.000000 0.000000 0.058374
0.036492 0.000000 0.067067
0.153049 0.000000 0.078207
0.275558 0.026653 0.089916
0.371162 0.047539 0.099053
0.434057 0.061280 0.105065
0.478902 0.071077 0.109351
0.530018 0.082244 0.114236
0.000000 0.023599 0.094434
0.000000 0.040243 0.101716
0.078599 0.060113 0.110408
0.195157 0.085577 0.121548
0.317665 0.112341 0.133257
0.413270 0.133228 0.142395
0.476165 0.146968 0.148406
0.521010 0.156766 0.152692
0.572126 0.167933 0.157577
0.000000 0.119164 0.142771
0.034609 0.135809 0.150053
0.125561 0.155679 0.158745
0.242118 0.181143 0.169886
0.364627 0.207907 0.181594
0.460231 0.228794 0.190732
0.523126 0.242534 0.196743
0.567972 0.252331 0.201029
0.619088 0.263499 0.205915
0.005501 0.214968 0.191229
0.081687 0.231612 0.198510
0.172639 0.251482 0.207203
0.289196 0.276946 0.218343
0.411705 0.303710 0.230052
0.507310 0.324597 0.239189
0.570205 0.338338 0.245201
0.615050 0.348135 0.249487
0.666166 0.359302 0.254372
0.047854 0.301154 0.234822
0.124039 0.317798 0.242103
0.214991 0.337668 0.250796
0.331549 0.363132 0.261936
0.454057 0.389897 0.273645
0.549662 0.410783 0.282782
0.612557 0.424524 0.288794
0.657402 0.434321 0.293080
0.708518 0.445488 0.297965
0.086148 0.379082 0.274238
0.162334 0.395726 0.281519
0.253286 0.415597 0.290212
0.369843 0.441061 0.301352
0.492352 0.467825 0.313061
0.587956 0.488712 0.322198
0.650851 0.502452 0.328210
0.695696 0.512249 0.332496
0.746812 0.523417 0.337381
0.124748 0.457633 0.313969
0.200934 0.474277 0.321250
0.291886 0.494148 0.329943
0.408443 0.519612 0.341083
0.530952 0.546376 0.352792
0.626556 0.567262 0.361930
0.689451 0.581003 0.367941
0.734297 0.590800 0.372227
0.785412 0.601968 0.377112
0.170817 0.551382 0.361387
0.247003 0.568026 0.368669
0.337954 0.587897 0.377361
0.454512 0.613361 0.388501
0.577020 0.640125 0.400210
0.672625 0.661011 0.409348
0.735520 0.674752 0.415359
0.780365 0.684549 0.419645
0.831481 0.695717 0.424531
0.260944 0.734790 0.454155
0.337130 0.751435 0.461436
0.428082 0.771305 0.470129
0.544639 0.796769 0.481269
0.667148 0.823533 0.492978
0.762752 0.844420 0.502116
0.825648 0.858160 0.508127
0.870493 0.867957 0.512413
0.921609 0.879125 0.517298
0.000000 0.000000 0.114504
0.000000 0.000000 0.121786
0.044893 0.000311 0.130478
0.161451 0.025775 0.141619
0.283959 0.052540 0.153327
0.379564 0.073426 0.162465
0.442459 0.087167 0.168476
0.487304 0.096964 0.172762
0.538420 0.108131 0.177648
0.000000 0.049485 0.157846
0.000000 0.066130 0.165127
0.087001 0.086000 0.173820
0.203558 0.111464 0.184960
0.326067 0.138228 0.196669
0.421672 0.159115 0.205806
0.484567 0.172855 0.211817
0.529412 0.182653 0.216104
0.580528 0.193820 0.220989
0.000000 0.145051 0.206183
0.043011 0.161695 0.213464
0.133963 0.181565 0.222157
0.250520 0.207030 0.233297
0.373029 0.233794 0.245006
0.468633 0.254680 0.254143
0.531528 0.268421 0.260155
0.576373 0.278218 0.264441
0.627489 0.289385 0.269326
0.013903 0.240855 0.254640
0.090089 0.257499 0.261922
0.181041 0.277369 0.270614
0.297598 0.302833 0.281754
0.420107 0.329597 0.293463
0.515711 0.350484 0.302601
0.578606 0.364224 0.308612
0.623452 0.374022 0.312898
0.674568 0.385189 0.317784
0.056256 0.327041 0.298233
0.132441 0.343685 0.305515
0.223393 0.363555 0.314207
0.339950 0.389019 0.325347
0.462459 0.415783 0.337056
0.558064 0.436670 0.346194
0.620959 0.450411 0.352205
0.665804 0.460208 0.356491
0.716920 0.471375 0.361377
0.094550 0.404969 0.337649
0.170736 0.421613 0.344931
0.261687 0.441483 0.353624
0.378245 0.466948 0.364764
0.500753 0.493712 0.376472
0.596358 0.514598 0.385610
0.659253 0.528339 0.391621
0.704098 0.538136 0.395907
0.755214 0.549303 0.400793
0.133150 0.483520 0.377380
0.209336 0.500164 0.384662
0.300288 0.520034 0.393355
0.416845 0.545498 0.404495
0.539354 0.572263 0.416203
0.634958 0.593149 0.425341
0.697853 0.606890 0.431352
0.742698 0.616687 0.435638
0.793814 0.627854 0.440524
0.179219 0.577269 0.424799
0.255404 0.593913 0.432080
0.346356 0.613783 0.440773
0.462914 0.639247 0.451913
0.585422 0.666012 0.463622
0.681027 0.686898 0.472759
0.743922 0.700639 0.478770
0.788767 0.710436 0.483057
0.839883 0.721603 0.487942
0.269346 0.760677 0.517567
0.345532 0.777321 0.524848
0.436484 0.797192 0.533541
0.553041 0.822656 0.544681
0.675550 0.849420 0.556390
0.771154 0.870306 0.565527
0.834049 0.884047 0.571538
0.878895 0.893844 0.575824
0.930010 0.905012 0.580710
0.000000 0.000000 0.178192
0.000000 0.006441 0.185474
0.053332 0.026311 0.194166
0.169889 0.051775 0.205306
0.292398 0.078539 0.217015
0.388002 0.099426 0.226153
0.450898 0.113166 0.232164
0.495743 0.122964 0.236450
0.546859 0.134131 0.241336
0.000000 0.075485 0.221533
0.004488 0.092129 0.228815
0.095440 0.111999 0.237508
0.211997 0.137464 0.248648
0.334506 0.164228 0.260357
0.430110 0.185114 0.269494
0.493005 0.198855 0.275505
0.537850 0.208652 0.279791
0.588966 0.219819 0.284677
0.000000 0.171051 0.269871
0.051449 0.187695 0.277152
0.142401 0.207565 0.285845
0.258958 0.233029 0.296985
0.381467 0.259794 0.308694
0.477072 0.280680 0.317831
0.539967 0.294421 0.323842
0.584812 0.304218 0.328129
0.635928 0.315385 0.333014
0.022342 0.266854 0.318328
0.098527 0.283499 0.325610
0.189479 0.303369 0.334302
0.306037 0.328833 0.345442
0.428545 0.355597 0.357151
0.524150 0.376484 0.366289
0.587045 0.390224 0.372300
0.631890 0.400021 0.376586
0.683006 0.411189 0.381471
0.064694 0.353041 0.361921
0.140880 0.369685 0.369202
0.231831 0.389555 0.377895
0.348389 0.415019 0.389035
0.470897 0.441783 0.400744
0.566502 0.462670 0.409882
0.629397 0.476410 0.415893
0.674242 0.486208 0.420179
0.725358 0.497375 0.425064
0.102988 0.430969 0.401337
0.179174 0.447613 0.408619
0.270126 0.467483 0.417311
0.386683 0.492947 0.428451
0.509192 0.519711 0.440160
0.604796 0.540598 0.449298
0.667691 0.554339 0.455309
0.712537 0.564136 0.459595
0.763653 0.575303 0.464481
0.141589 0.509520 0.441068
0.217774 0.526164 0.448350
0.308726 0.546034 0.457043
0.425283 0.571498 0.468183
0.547792 0.598262 0.479891
0.643397 0.619149 0.489029
0.706292 0.632890 0.495040
0.751137 0.642687 0.499326
0.802253 0.653854 0.504212
0.187657 0.603269 0.488486
0.263843 0.619913 0.495768
0.354795 0.639783 0.504461
0.471352 0.665247 0.515601
0.593861 0.692011 0.527310
0.689465 0.712898 0.536447
0.752360 0.726639 0.542458
0.797205 0.736436 0.546744
0.848321 0.747603 0.551630
0.277785 0.786677 0.581254
0.353970 0.803321 0.588536
0.444922 0.823191 0.597229
0.561479 0.848655 0.608369
0.683988 0.875420 0.620078
0.779593 0.896306 0.629215
0.842488 0.910047 0.635226
0.887333 0.919844 0.639512
0.938449 0.931011 0.644398
0.000000 0.023962 0.261882
0.000000 0.040606 0.269163
0.064420 0.060476 0.277856
0.180978 0.085940 0.288996
0.303486 0.112704 0.300705
0.399091 0.133591 0.309842
0.461986 0.147331 0.315853
0.506831 0.157129 0.320140
0.557947 0.168296 0.325025
0.000000 0.109650 0.305223
0.015576 0.126294 0.312504
0.106528 0.146165 0.321197
0.223085 0.171629 0.332337
0.345594 0.198393 0.344046
0.441199 0.219279 0.353184
0.504094 0.233020 0.359195
0.548939 0.242817 0.363481
0.600055 0.253985 0.368366
0.000000 0.205216 0.353560
0.062538 0.221860 0.360842
0.153490 0.241730 0.369534
0.270047 0.267194 0.380674
0.392556 0.293959 0.392383
0.488160 0.314845 0.401521
0.551055 0.328586 0.407532
0.595900 0.338383 0.411818
0.647016 0.349550 0.416704
0.033430 0.301019 0.402017
0.109616 0.317664 0.409299
0.200568 0.337534 0.417992
0.317125 0.362998 0.429132
0.439634 0.389762 0.440841
0.535238 0.410649 0.449978
0.598133 0.424389 0.455989
0.642979 0.434186 0.460275
0.694095 0.445354 0.465161
0.075783 0.387206 0.445610
0.151968 0.403850 0.452892
0.242920 0.423720 0.461585
0.359477 0.449184 0.472725
0.481986 0.475948 0.484434
0.577591 0.496835 0.493571
0.640486 0.510575 0.499582
0.685331 0.520373 0.503868
0.736447 0.531540 0.508754
0.114077 0.465134 0.485027
0.190263 0.481778 0.492308
0.281214 0.501648 0.501001
0.397772 0.527112 0.512141
0.520280 0.553877 0.523850
0.615885 0.574763 0.532987
0.678780 0.588504 0.538999
0.723625 0.598301 0.543285
0.774741 0.609468 0.548170
0.152677 0.543685 0.524758
0.228863 0.560329 0.532039
0.319815 0.580199 0.540732
0.436372 0.605663 0.551872
0.558881 0.632428 0.563581
0.654485 0.653314 0.572718
0.717380 0.667055 0.578730
0.762225 0.676852 0.583016
0.813341 0.688019 0.587901
0.198746 0.637434 0.572176
0.274931 0.654078 0.579457
0.365883 0.673948 0.588150
0.482441 0.699412 0.599290
0.604949 0.726177 0.610999
0.700554 0.747063 0.620137
0.763449 0.760804 0.626148
0.808294 0.770601 0.630434
0.859410 0.781768 0.635319
0.288873 0.820842 0.664944
0.365059 0.837486 0.672225
0.456011 0.857356 0.680918
0.572568 0.882820 0.692058
0.695077 0.909585 0.703767
0.790681 0.930471 0.712905
0.853576 0.944212 0.718916
0.898422 0.954009 0.723202
0.949538 0.965176 0.728087
0.000000 0.059943 0.350021
0.000000 0.076588 0.357303
0.076099 0.096458 0.365995
0.192656 0.121922 0.377135
0.315165 0.148686 0.388844
0.410769 0.169573 0.397982
0.473664 0.183313 0.403993
0.518509 0.193110 0.408279
0.569625 0.204278 0.413165
0.000000 0.145632 0.393362
0.027255 0.162276 0.400644
0.118206 0.182146 0.409337
0.234764 0.207610 0.420477
0.357272 0.234375 0.432186
0.452877 0.255261 0.441323
0.515772 0.269002 0.447334
0.560617 0.278799 0.451621
0.611733 0.289966 0.456506
0.000000 0.241198 0.441700
0.074216 0.257842 0.448981
0.165168 0.277712 0.457674
0.281725 0.303176 0.468814
0.404234 0.329940 0.480523
0.499838 0.350827 0.489660
0.562733 0.364567 0.495672
0.607579 0.374365 0.499958
0.658695 0.385532 0.504843
0.045108 0.337001 0.490157
0.121294 0.353645 0.497439
0.212246 0.373515 0.506131
0.328803 0.398979 0.517271
0.451312 0.425744 0.528980
0.546917 0.446630 0.538118
0.609812 0.460371 0.544129
0.654657 0.470168 0.548415
0.705773 0.481335 0.553300
0.087461 0.423187 0.533750
0.163646 0.439831 0.541032
0.254598 0.459702 0.549724
0.371156 0.485166 0.560864
0.493664 0.511930 0.572573
0.589269 0.532817 0.581711
0.652164 0.546557 0.587722
0.697009 0.556354 0.592008
0.748125 0.567522 0.596893
0.125755 0.501116 0.573166
0.201941 0.517760 0.580448
0.292893 0.537630 0.589140
0.409450 0.563094 0.600281
0.531959 0.589858 0.611989
0.627563 0.610745 0.621127
0.690458 0.624485 0.627138
0.735303 0.634283 0.631424
0.786419 0.645450 0.636310
0.164355 0.579667 0.612897
0.240541 0.596311 0.620179
0.331493 0.616181 0.628872
0.448050 0.641645 0.640012
0.570559 0.668409 0.651720
0.666163 0.689296 0.660858
0.729058 0.703036 0.666869
0.773904 0.712834 0.671155
0.825019 0.724001 0.676041
0.210424 0.673416 0.660316
0.286610 0.690060 0.667597
0.377561 0.709930 0.676290
0.494119 0.735394 0.687430
0.616627 0.762158 0.699139
0.712232 0.783045 0.708276
0.775127 0.796785 0.714287
0.819972 0.806583 0.718574
0.871088 0.817750 0.723459
0.300551 0.856824 0.753083
0.376737 0.873468 0.760365
0.467689 0.893338 0.769058
0.584246 0.918802 0.780198
0.706755 0.945566 0.791907
0.802359 0.966453 0.801044
0.865255 0.980193 0.807055
0.910100 0.989991 0.811341
0.961216 1.000000 0.816227
0.000000 0.091579 0.427515
0.000000 0.108223 0.434797
0.086366 0.128093 0.443489
0.202924 0.153558 0.454630
0.325432 0.180322 0.466338
0.421037 0.201208 0.475476
0.483932 0.214949 0.481487
0.528777 0.224746 0.485773
0.579893 0.235913 0.490659
0.000000 0.177268 0.470857
0.037522 0.193912 0.478138
0.128474 0.213782 0.486831
0.245031 0.239246 0.497971
0.367540 0.266010 0.509680
0.463145 0.286897 0.518817
0.526040 0.300638 0.524828
0.570885 0.310435 0.529115
0.622001 0.321602 0.534000
0.008298 0.272834 0.519194
0.084484 0.289478 0.526475
0.175435 0.309348 0.535168
0.291993 0.334812 0.546308
0.414501 0.361576 0.558017
0.510106 0.382463 0.567154
0.573001 0.396203 0.573166
0.617846 0.406001 0.577452
0.668962 0.417168 0.582337
0.055376 0.368637 0.567651
0.131562 0.385281 0.574933
0.222514 0.405151 0.583625
0.339071 0.430615 0.594765
0.461580 0.457380 0.606474
0.557184 0.478266 0.615612
0.620079 0.492007 0.621623
0.664925 0.501804 0.625909
0.716040 0.512971 0.630795
0.097728 0.454823 0.611244
0.173914 0.471467 0.618526
0.264866 0.491337 0.627218
0.381423 0.516802 0.638358
0.503932 0.543566 0.650067
0.599536 0.564452 0.659205
0.662432 0.578193 0.665216
0.707277 0.587990 0.669502
0.758393 0.599158 0.674388
0.136023 0.532752 0.650660
0.212208 0.549396 0.657942
0.303160 0.569266 0.666635
0.419718 0.594730 0.677775
0.542226 0.621494 0.689483
0.637831 0.642381 0.698621
0.700726 0.656121 0.704632
0.745571 0.665919 0.708918
0.796687 0.677086 0.713804
0.174623 0.611302 0.690391
0.250809 0.627947 0.697673
0.341761 0.647817 0.706366
0.458318 0.673281 0.717506
0.580826 0.700045 0.729215
0.676431 0.720932 0.738352
0.739326 0.734672 0.744363
0.784171 0.744470 0.748649
0.835287 0.755637 0.753535
0.220692 0.705051 0.737810
0.296877 0.721696 0.745091
0.387829 0.741566 0.753784
0.504386 0.767030 0.764924
0.626895 0.793794 0.776633
0.722500 0.814681 0.785770
0.785395 0.828421 0.791782
0.830240 0.838219 0.796068
0.881356 0.849386 0.800953
0.310819 0.888460 0.830577
0.387005 0.905104 0.837859
0.477957 0.924974 0.846552
0.594514 0.950438 0.857692
0.717023 0.977202 0.869401
0.812627 0.998089 0.878538
0.875522 1.000000 0.884549
0.920367 1.000000 0.888835
0.971483 1.000000 0.893721
0.000000 0.115468 0.486032
0.003168 0.132112 0.493314
0.094120 0.151982 0.502007
0.210677 0.177446 0.513147
0.333186 0.204211 0.524856
0.428790 0.225097 0.533993
0.491685 0.238838 0.540004
0.536530 0.248635 0.544290
0.587646 0.259802 0.549176
0.000000 0.201157 0.529374
0.045276 0.217801 0.536655
0.136227 0.237671 0.545348
0.252785 0.263135 0.556488
0.375293 0.289899 0.568197
0.470898 0.310786 0.577334
0.533793 0.324526 0.583346
0.578638 0.334324 0.587632
0.629754 0.345491 0.592517
0.016051 0.296722 0.577711
0.092237 0.313367 0.584992
0.183189 0.333237 0.593685
0.299746 0.358701 0.604825
0.422255 0.385465 0.616534
0.517859 0.406352 0.625672
0.580754 0.420092 0.631683
0.625600 0.429889 0.635969
0.676716 0.441057 0.640854
0.063130 0.392526 0.626168
0.139315 0.409170 0.633450
0.230267 0.429040 0.642143
0.346824 0.454504 0.653283
0.469333 0.481268 0.664992
0.564938 0.502155 0.674129
0.627833 0.515896 0.680140
0.672678 0.525693 0.684426
0.723794 0.536860 0.689312
0.105482 0.478712 0.669761
0.181667 0.495356 0.677043
0.272619 0.515226 0.685736
0.389177 0.540690 0.696876
0.511685 0.567455 0.708585
0.607290 0.588341 0.717722
0.670185 0.602082 0.723733
0.715030 0.611879 0.728019
0.766146 0.623046 0.732905
0.143776 0.556640 0.709177
0.219962 0.573285 0.716459
0.310914 0.593155 0.725152
0.427471 0.618619 0.736292
0.549980 0.645383 0.748001
0.645584 0.666270 0.757138
0.708479 0.680010 0.763149
0.753324 0.689807 0.767436
0.804440 0.700975 0.772321
0.182376 0.635191 0.748909
0.258562 0.651835 0.756190
0.349514 0.671706 0.764883
0.466071 0.697170 0.776023
0.588580 0.723934 0.787732
0.684184 0.744820 0.796869
0.747079 0.758561 0.802880
0.791925 0.768358 0.807167
0.843041 0.779526 0.812052
0.228445 0.728940 0.796327
0.304631 0.745584 0.803608
0.395583 0.765455 0.812301
0.512140 0.790919 0.823441
0.634648 0.817683 0.835150
0.730253 0.838569 0.844288
0.793148 0.852310 0.850299
0.837993 0.862107 0.854585
0.889109 0.873275 0.859470
0.318572 0.912348 0.889095
0.394758 0.928993 0.896376
0.485710 0.948863 0.905069
0.602267 0.974327 0.916209
0.724776 1.000000 0.927918
0.820381 1.000000 0.937055
0.883276 1.000000 0.943067
0.928121 1.000000 0.947353
0.979237 1.000000 0.952238
0.000000 0.148047 0.565838
0.013742 0.164692 0.573119
0.104694 0.184562 0.581812
0.221251 0.210026 0.592952
0.343760 0.236790 0.604661
0.439364 0.257677 0.613799
0.502259 0.271417 0.619810
0.547104 0.281215 0.624096
0.598220 0.292382 0.628981
0.000000 0.233736 0.609179
0.055850 0.250380 0.616461
0.146801 0.270250 0.625154
0.263359 0.295714 0.636294
0.385867 0.322479 0.648003
0.481472 0.343365 0.657140
0.544367 0.357106 0.663151
0.589212 0.366903 0.667437
0.640328 0.378070 0.672323
0.026625 0.329302 0.657516
0.102811 0.345946 0.664798
0.193763 0.365816 0.673491
0.310320 0.391280 0.684631
0.432829 0.418044 0.696340
0.528433 0.438931 0.705477
0.591328 0.452672 0.711488
0.636174 0.462469 0.715774
0.687289 0.473636 0.720660
0.073703 0.425105 0.705974
0.149889 0.441749 0.713255
0.240841 0.461620 0.721948
0.357398 0.487084 0.733088
0.479907 0.513848 0.744797
0.575512 0.534735 0.753935
0.638407 0.548475 0.759946
0.683252 0.558272 0.764232
0.734368 0.569440 0.769117
0.116056 0.511292 0.749567
0.192241 0.527936 0.756848
0.283193 0.547806 0.765541
0.399751 0.573270 0.776681
0.522259 0.600034 0.788390
0.617864 0.620921 0.797527
0.680759 0.634661 0.803539
0.725604 0.644459 0.807825
0.776720 0.655626 0.812710
0.154350 0.589220 0.788983
0.230536 0.605864 0.796265
0.321488 0.625734 0.804957
0.438045 0.651198 0.816097
0.560553 0.677962 0.827806
0.656158 0.698849 0.836944
0.719053 0.712590 0.842955
0.763898 0.722387 0.847241
0.815014 0.733554 0.852126
0.192950 0.667771 0.828714
0.269136 0.684415 0.835996
0.360088 0.704285 0.844688
0.476645 0.729749 0.855828
0.599154 0.756513 0.867537
0.694758 0.777400 0.876675
0.757653 0.791141 0.882686
0.802499 0.800938 0.886972
0.853615 0.812105 0.891858
0.239019 0.761520 0.876132
0.315205 0.778164 0.883414
0.406156 0.798034 0.892107
0.522714 0.823498 0.903247
0.645222 0.850262 0.914956
0.740827 0.871149 0.924093
0.803722 0.884890 0.930104
0.848567 0.894687 0.934390
0.899683 0.905854 0.939276
0.329146 0.944928 0.968900
0.405332 0.961572 0.976182
0.496284 0.981442 0.984875
0.612841 1.000000 0.996015
0.735350 1.000000 1.000000
0.830954 1.000000 1.000000
0.893850 1.000000 1.000000
0.938695 1.000000 1.000000
0.989811 1.000000 1.000000
